;FLAVOR:Marlin
;TIME:8206
;Filament used: 11.5481m
;Layer height: 0.2
;Generated with Cura_SteamEngine 4.0.0
M140 S60
M105
M190 S60
M104 S200
M105
M109 S200
M82 ;absolute extrusion mode
; Ender 3 Custom Start G-code
G28 ; Home all axes
G92 E0 ; Reset Extruder
G1 Z2.0 F3000 ; Move Z Axis up little to prevent scratching of Heat Bed
G1 X0.1 Y20 Z0.3 F5000.0 ; Move to start position
G1 X0.1 Y200.0 Z0.3 F1500.0 E15 ; Draw the first line
G1 X0.4 Y200.0 Z0.3 F5000.0 ; Move to side a little
G1 X0.4 Y20 Z0.3 F1500.0 E30 ; Draw the second line
G92 E0 ; Reset Extruder
G1 Z2.0 F3000 ; Move Z Axis up little to prevent scratching of Heat Bed
; End of custom start GCode
G92 E0
G1 F2400 E-5
;LAYER_COUNT:101
;LAYER:0
M107
M204 S5000
M205 X30 Y30
G0 F3600 X59.085 Y103.102 Z0.2
M204 S500
M205 X20 Y20
;TYPE:SKIRT
G1 F2400 E0
G1 F1800 X59.71 Y102.753 E0.02381
G1 X60.37 Y102.477 E0.0476
G1 X61.056 Y102.276 E0.07138
G1 X61.761 Y102.153 E0.09518
G1 X62.507 Y102.109 E0.12004
G1 X91.434 Y102.1 E1.08215
G1 X96.795 Y101.948 E1.26053
G1 X102.076 Y101.499 E1.43681
G1 X107.323 Y100.752 E1.61309
G1 X112.74 Y99.67 E1.79682
G1 X113.448 Y99.569 E1.8206
G1 X113.985 Y99.546 E1.83848
G1 X120.434 Y99.538 E2.05298
G1 X121.148 Y99.577 E2.07676
G1 X121.732 Y99.669 E2.09642
G1 X125.893 Y100.525 E2.23772
G1 X131.139 Y101.346 E2.41432
G1 X136.451 Y101.87 E2.59186
G1 X139.024 Y102.015 E2.67757
G1 X143.068 Y102.1 E2.8121
G1 X172.493 Y102.11 E3.79078
G1 X173.207 Y102.15 E3.81457
G1 X173.912 Y102.27 E3.83836
G1 X174.6 Y102.467 E3.86216
G1 X175.261 Y102.741 E3.88596
G1 X175.887 Y103.086 E3.90973
G1 X176.472 Y103.498 E3.93353
G1 X177.006 Y103.974 E3.95732
G1 X177.484 Y104.506 E3.98111
G1 X177.899 Y105.088 E4.00488
G1 X178.248 Y105.713 E4.02869
G1 X178.524 Y106.373 E4.05249
G1 X178.724 Y107.059 E4.07625
G1 X178.847 Y107.764 E4.10005
G1 X178.891 Y108.51 E4.12491
G1 X178.891 Y128.491 E4.78948
G1 X178.851 Y129.205 E4.81327
G1 X178.732 Y129.91 E4.83705
G1 X178.534 Y130.598 E4.86086
G1 X178.261 Y131.259 E4.88464
G1 X177.917 Y131.886 E4.90843
G1 X177.504 Y132.47 E4.93222
G1 X177.029 Y133.004 E4.95599
G1 X176.497 Y133.483 E4.9798
G1 X175.915 Y133.898 E5.00358
G1 X175.29 Y134.247 E5.02738
G1 X174.63 Y134.523 E5.05118
G1 X173.944 Y134.724 E5.07495
G1 X173.239 Y134.847 E5.09876
G1 X172.493 Y134.891 E5.12361
G1 X137.007 Y134.9 E6.30388
G1 X131.646 Y135.052 E6.48226
G1 X126.358 Y135.501 E6.65877
G1 X121.654 Y136.147 E6.8167
G1 X120.783 Y136.206 E6.84573
G1 X114.231 Y136.206 E7.06365
G1 X113.4 Y136.152 E7.09135
G1 X107.368 Y135.363 E7.29368
G1 X102.081 Y134.987 E7.46998
G1 X98.012 Y134.9 E7.60534
G1 X62.507 Y134.889 E8.78624
G1 X61.793 Y134.849 E8.81003
G1 X61.088 Y134.729 E8.83381
G1 X60.4 Y134.532 E8.85762
G1 X59.739 Y134.259 E8.8814
G1 X59.113 Y133.913 E8.90519
G1 X58.529 Y133.501 E8.92896
G1 X57.994 Y133.025 E8.95278
G1 X57.516 Y132.493 E8.97657
G1 X57.101 Y131.911 E9.00034
G1 X56.753 Y131.286 E9.02414
G1 X56.476 Y130.626 E9.04794
G1 X56.276 Y129.94 E9.07171
G1 X56.153 Y129.235 E9.09551
G1 X56.109 Y128.489 E9.12037
G1 X56.109 Y108.509 E9.7849
G1 X56.149 Y107.795 E9.80869
G1 X56.268 Y107.09 E9.83247
G1 X56.466 Y106.402 E9.85628
G1 X56.739 Y105.741 E9.88007
G1 X57.083 Y105.114 E9.90385
G1 X57.496 Y104.53 E9.92764
G1 X57.971 Y103.996 E9.95141
G1 X58.503 Y103.517 E9.97522
G1 X59.085 Y103.102 E9.999
M204 S5000
M205 X30 Y30
G0 F3600 X59.468 Y103.336
M204 S500
M205 X20 Y20
G1 F1800 X60.085 Y103.021 E10.02204
G1 X60.733 Y102.778 E10.04506
G1 X61.406 Y102.611 E10.06812
G1 X62.092 Y102.523 E10.09112
G1 X62.507 Y102.509 E10.10494
G1 X91.41 Y102.5 E11.06625
G1 X96.84 Y102.346 E11.24693
G1 X102.113 Y101.898 E11.42294
G1 X107.386 Y101.147 E11.60009
G1 X112.818 Y100.062 E11.78433
G1 X113.504 Y99.966 E11.80737
G1 X113.986 Y99.946 E11.82341
G1 X120.435 Y99.938 E12.03791
G1 X121.126 Y99.977 E12.06093
G1 X121.651 Y100.061 E12.07861
G1 X125.812 Y100.917 E12.2199
G1 X131.089 Y101.743 E12.39756
G1 X136.414 Y102.269 E12.57553
G1 X139.021 Y102.415 E12.66237
G1 X143.06 Y102.5 E12.79674
G1 X172.493 Y102.51 E13.77569
G1 X173.184 Y102.55 E13.79871
G1 X173.867 Y102.67 E13.82177
G1 X174.53 Y102.867 E13.84478
G1 X175.167 Y103.14 E13.86783
G1 X175.768 Y103.484 E13.89086
G1 X176.325 Y103.895 E13.91388
G1 X176.832 Y104.368 E13.93694
G1 X177.28 Y104.895 E13.95995
G1 X177.665 Y105.471 E13.98299
G1 X177.98 Y106.088 E14.00603
G1 X178.223 Y106.736 E14.02905
G1 X178.389 Y107.409 E14.05211
G1 X178.477 Y108.096 E14.07514
G1 X178.491 Y108.51 E14.08892
G1 X178.491 Y128.491 E14.75349
G1 X178.451 Y129.182 E14.77651
G1 X178.332 Y129.865 E14.79957
G1 X178.134 Y130.528 E14.82259
G1 X177.862 Y131.165 E14.84562
G1 X177.518 Y131.766 E14.86866
G1 X177.107 Y132.324 E14.89171
G1 X176.635 Y132.83 E14.91472
G1 X176.107 Y133.279 E14.93777
G1 X175.532 Y133.664 E14.96079
G1 X174.915 Y133.979 E14.98383
G1 X174.267 Y134.222 E15.00685
G1 X173.594 Y134.389 E15.02991
G1 X172.908 Y134.477 E15.05291
G1 X172.493 Y134.491 E15.06673
G1 X137.031 Y134.5 E16.2462
G1 X131.601 Y134.654 E16.42687
G1 X126.307 Y135.104 E16.60359
G1 X121.599 Y135.75 E16.76164
G1 X120.783 Y135.806 E16.78885
G1 X114.231 Y135.806 E17.00677
G1 X113.452 Y135.755 E17.03273
G1 X107.414 Y134.965 E17.23527
G1 X102.099 Y134.587 E17.41249
G1 X98.02 Y134.5 E17.54819
G1 X62.507 Y134.489 E18.72936
G1 X61.816 Y134.449 E18.75238
G1 X61.134 Y134.329 E18.77541
G1 X60.47 Y134.132 E18.79845
G1 X59.833 Y133.859 E18.8215
G1 X59.232 Y133.515 E18.84453
G1 X58.675 Y133.104 E18.86755
G1 X58.169 Y132.632 E18.89057
G1 X57.72 Y132.104 E18.91362
G1 X57.336 Y131.528 E18.93665
G1 X57.02 Y130.912 E18.95967
G1 X56.777 Y130.263 E18.98272
G1 X56.611 Y129.591 E19.00574
G1 X56.523 Y128.904 E19.02878
G1 X56.509 Y128.489 E19.04259
G1 X56.509 Y108.509 E19.70713
G1 X56.549 Y107.818 E19.73015
G1 X56.668 Y107.135 E19.75321
G1 X56.866 Y106.472 E19.77622
G1 X57.138 Y105.835 E19.79926
G1 X57.482 Y105.234 E19.82229
G1 X57.893 Y104.676 E19.84534
G1 X58.365 Y104.17 E19.86836
G1 X58.893 Y103.721 E19.89141
G1 X59.468 Y103.336 E19.91443
M204 S5000
M205 X30 Y30
G0 F3600 X59.28 Y103.933
M204 S500
M205 X20 Y20
G1 F1800 X59.849 Y103.581 E19.93668
G1 X60.456 Y103.299 E19.95894
G1 X61.092 Y103.091 E19.9812
G1 X61.748 Y102.961 E20.00344
G1 X62.507 Y102.909 E20.02874
G1 X91.422 Y102.9 E20.99046
G1 X96.85 Y102.746 E21.17107
G1 X102.169 Y102.294 E21.34862
G1 X107.446 Y101.542 E21.5259
G1 X112.896 Y100.454 E21.71075
G1 X113.559 Y100.363 E21.73301
G1 X113.986 Y100.346 E21.74722
G1 X120.435 Y100.338 E21.96171
G1 X121.103 Y100.377 E21.98397
G1 X121.571 Y100.453 E21.99974
G1 X125.736 Y101.31 E22.14117
G1 X131.042 Y102.14 E22.31979
G1 X136.398 Y102.669 E22.4988
G1 X138.991 Y102.815 E22.58518
G1 X143.05 Y102.9 E22.72022
G1 X172.493 Y102.91 E23.69949
G1 X173.161 Y102.95 E23.72175
G1 X173.819 Y103.07 E23.744
G1 X174.458 Y103.267 E23.76624
G1 X175.07 Y103.539 E23.78851
G1 X175.644 Y103.882 E23.81075
G1 X176.173 Y104.291 E23.83299
G1 X176.65 Y104.76 E23.85524
G1 X177.068 Y105.283 E23.87751
G1 X177.42 Y105.852 E23.89976
G1 X177.702 Y106.459 E23.92203
G1 X177.909 Y107.095 E23.94427
G1 X178.039 Y107.751 E23.96651
G1 X178.091 Y108.51 E23.99182
G1 X178.091 Y128.491 E24.65639
G1 X178.051 Y129.159 E24.67865
G1 X177.932 Y129.817 E24.70089
G1 X177.735 Y130.457 E24.72316
G1 X177.463 Y131.068 E24.7454
G1 X177.12 Y131.642 E24.76764
G1 X176.711 Y132.172 E24.78991
G1 X176.242 Y132.649 E24.81216
G1 X175.72 Y133.067 E24.8344
G1 X175.151 Y133.419 E24.85665
G1 X174.544 Y133.701 E24.87892
G1 X173.908 Y133.909 E24.90117
G1 X173.252 Y134.039 E24.92341
G1 X172.492 Y134.091 E24.94875
G1 X137.019 Y134.1 E26.12859
G1 X131.591 Y134.254 E26.3092
G1 X126.259 Y134.707 E26.48718
G1 X121.545 Y135.354 E26.64544
G1 X120.783 Y135.406 E26.67084
G1 X114.231 Y135.406 E26.88876
G1 X113.504 Y135.359 E26.91299
G1 X107.445 Y134.566 E27.11623
G1 X102.115 Y134.187 E27.29396
G1 X98.029 Y134.1 E27.42989
G1 X62.507 Y134.089 E28.61136
G1 X61.839 Y134.049 E28.63361
G1 X61.181 Y133.929 E28.65586
G1 X60.542 Y133.732 E28.6781
G1 X59.931 Y133.46 E28.70034
G1 X59.356 Y133.117 E28.72261
G1 X58.827 Y132.708 E28.74485
G1 X58.35 Y132.239 E28.7671
G1 X57.932 Y131.716 E28.78937
G1 X57.58 Y131.147 E28.81162
G1 X57.298 Y130.541 E28.83386
G1 X57.091 Y129.905 E28.8561
G1 X56.961 Y129.248 E28.87838
G1 X56.909 Y128.489 E28.90368
G1 X56.909 Y108.509 E29.56822
G1 X56.949 Y107.841 E29.59048
G1 X57.068 Y107.183 E29.61272
G1 X57.265 Y106.543 E29.63499
G1 X57.537 Y105.932 E29.65723
G1 X57.88 Y105.358 E29.67947
G1 X58.289 Y104.828 E29.70174
G1 X58.758 Y104.351 E29.72399
G1 X59.28 Y103.933 E29.74623
M204 S5000
M205 X30 Y30
G0 F3600 X59.666 Y104.155
M204 S500
M205 X20 Y20
G1 F1800 X60.227 Y103.836 E29.76769
G1 X60.823 Y103.59 E29.78914
G1 X61.444 Y103.419 E29.81056
G1 X62.082 Y103.327 E29.832
G1 X62.507 Y103.309 E29.84615
G1 X91.433 Y103.3 E30.80823
G1 X96.878 Y103.146 E30.98941
G1 X102.205 Y102.693 E31.16722
G1 X107.53 Y101.934 E31.34612
G1 X112.975 Y100.847 E31.5308
G1 X113.614 Y100.76 E31.55225
G1 X113.987 Y100.746 E31.56466
G1 X120.436 Y100.738 E31.77916
G1 X121.079 Y100.777 E31.80058
G1 X121.49 Y100.845 E31.81444
G1 X125.652 Y101.701 E31.95577
G1 X130.995 Y102.537 E32.13564
G1 X136.361 Y103.067 E32.31498
G1 X138.987 Y103.215 E32.40246
G1 X143.042 Y103.3 E32.53736
G1 X172.493 Y103.31 E33.5169
G1 X173.136 Y103.35 E33.53833
G1 X173.77 Y103.47 E33.55979
G1 X174.384 Y103.667 E33.58124
G1 X174.968 Y103.938 E33.60265
G1 X175.515 Y104.28 E33.62411
G1 X176.015 Y104.686 E33.64553
G1 X176.461 Y105.152 E33.66698
G1 X176.846 Y105.669 E33.68842
G1 X177.164 Y106.23 E33.70987
G1 X177.411 Y106.825 E33.7313
G1 X177.581 Y107.447 E33.75275
G1 X177.674 Y108.085 E33.77419
G1 X177.691 Y108.51 E33.78834
G1 X177.691 Y128.491 E34.45291
G1 X177.651 Y129.134 E34.47434
G1 X177.532 Y129.768 E34.49579
G1 X177.335 Y130.382 E34.51724
G1 X177.064 Y130.967 E34.53868
G1 X176.722 Y131.514 E34.56014
G1 X176.316 Y132.014 E34.58156
G1 X175.851 Y132.46 E34.60299
G1 X175.334 Y132.845 E34.62443
G1 X174.773 Y133.164 E34.64589
G1 X174.177 Y133.41 E34.66734
G1 X173.556 Y133.581 E34.68876
G1 X172.918 Y133.673 E34.7102
G1 X172.492 Y133.691 E34.72438
G1 X137.008 Y133.7 E35.90459
G1 X131.563 Y133.854 E36.08576
G1 X126.227 Y134.308 E36.26388
G1 X121.49 Y134.958 E36.42291
G1 X120.783 Y135.006 E36.44648
G1 X114.231 Y135.006 E36.6644
G1 X113.556 Y134.962 E36.68689
G1 X107.492 Y134.168 E36.89031
G1 X102.132 Y133.787 E37.06903
G1 X98.037 Y133.7 E37.20526
G1 X62.507 Y133.689 E38.38699
G1 X61.864 Y133.649 E38.40842
G1 X61.23 Y133.529 E38.42988
G1 X60.617 Y133.332 E38.4513
G1 X60.032 Y133.061 E38.47274
G1 X59.485 Y132.719 E38.4942
G1 X58.985 Y132.313 E38.51562
G1 X58.539 Y131.847 E38.53707
G1 X58.154 Y131.33 E38.55851
G1 X57.836 Y130.77 E38.57993
G1 X57.589 Y130.174 E38.60139
G1 X57.419 Y129.552 E38.62284
G1 X57.326 Y128.914 E38.64428
G1 X57.309 Y128.489 E38.65843
G1 X57.309 Y108.509 E39.32297
G1 X57.349 Y107.866 E39.34439
G1 X57.468 Y107.232 E39.36585
G1 X57.665 Y106.618 E39.3873
G1 X57.936 Y106.033 E39.40874
G1 X58.278 Y105.486 E39.4302
G1 X58.684 Y104.986 E39.45162
G1 X59.149 Y104.54 E39.47305
G1 X59.666 Y104.155 E39.49449
M204 S5000
M205 X30 Y30
G0 F3600 X113.782 Y106.467
M204 S500
M205 X20 Y20
;TYPE:SUPPORT
G1 F1800 X114.117 Y106.128 E39.51034
G1 X120.367 Y106.128 E39.71822
G1 X120.79 Y106.555 E39.73821
G1 X120.787 Y107.6 E39.77296
G1 X117.744 Y107.6 E39.87417
G1 X117.5 Y107.845 E39.88567
G1 X117.256 Y107.6 E39.89717
G1 X113.792 Y107.6 E40.01239
G1 X113.782 Y106.467 E40.05007
M204 S5000
M205 X30 Y30
G0 F3600 X116 Y106.288
M204 S500
M205 X20 Y20
G1 F1800 X116 Y107.44 E40.08839
M204 S5000
M205 X30 Y30
G0 F3600 X120 Y107.44
M204 S500
M205 X20 Y20
G1 F1800 X120 Y106.288 E40.1267
M204 S5000
M205 X30 Y30
G1 F2400 E35.1267
G0 F3600 X172.657 Y107.839
G0 X173.161 Y108.343
G0 X173.161 Y128.657
G0 X172.657 Y129.161
G0 X117.5 Y129.155
M204 S500
M205 X20 Y20
G1 F2400 E40.1267
G1 F1800 X117.744 Y129.4 E40.13821
G1 X120.742 Y129.4 E40.23792
G1 X120.652 Y129.616 E40.2457
G1 X114.355 Y129.616 E40.45514
G1 X114.265 Y129.4 E40.46292
G1 X117.256 Y129.4 E40.5624
G1 X117.5 Y129.155 E40.57391
M204 S5000
M205 X30 Y30
G1 F2400 E35.57391
;MESH:External Support.stl
G0 F3600 X118.614 Y127.886
G0 X118.67 Y124.83
G0 X118.6 Y124.9
M204 S500
M205 X20 Y20
;TYPE:WALL-INNER
G1 F2400 E40.57391
G1 F1800 X116.4 Y124.9 E40.64708
G1 X116.4 Y127.9 E40.74686
G1 X63.1 Y127.9 E42.51962
G1 X63.1 Y109.1 E43.14491
G1 X116.4 Y109.1 E44.91768
G1 X116.4 Y112.1 E45.01746
G1 X118.6 Y112.1 E45.09063
G1 X118.6 Y109.1 E45.19041
G1 X171.9 Y109.1 E46.96318
G1 X171.9 Y127.9 E47.58847
G1 X118.6 Y127.9 E49.36123
G1 X118.6 Y124.9 E49.46101
M204 S5000
M205 X30 Y30
G0 F3600 X118.2 Y125.3
M204 S500
M205 X20 Y20
;TYPE:WALL-OUTER
G1 F1800 X116.8 Y125.3 E49.50758
G1 X116.8 Y128.3 E49.60736
G1 X62.7 Y128.3 E51.40673
G1 X62.7 Y108.7 E52.05863
G1 X116.8 Y108.7 E53.858
G1 X116.8 Y111.7 E53.95778
G1 X118.2 Y111.7 E54.00435
G1 X118.2 Y108.7 E54.10413
G1 X172.3 Y108.7 E55.9035
G1 X172.3 Y128.3 E56.5554
G1 X118.2 Y128.3 E58.35477
G1 X118.2 Y125.3 E58.45455
M204 S5000
M205 X30 Y30
G0 F3600 X118 Y125.3
G0 X118 Y124.8
G0 X118.99 Y124.51
M204 S500
M205 X20 Y20
;TYPE:SKIN
G1 F1800 X116.01 Y124.51 E58.55367
G1 X116.01 Y127.51 E58.65345
G1 X63.49 Y127.51 E60.40027
G1 X63.49 Y109.49 E60.99962
G1 X116.01 Y109.49 E62.74644
G1 X116.01 Y112.49 E62.84622
G1 X118.99 Y112.49 E62.94534
G1 X118.99 Y109.49 E63.04512
G1 X171.51 Y109.49 E64.79194
G1 X171.51 Y127.51 E65.39129
G1 X118.99 Y127.51 E67.13811
G1 X118.99 Y124.51 E67.23789
M204 S5000
M205 X30 Y30
G0 F3600 X171.329 Y110.235
M204 S500
M205 X20 Y20
G1 F1800 X170.764 Y109.67 E67.26447
M204 S5000
M205 X30 Y30
G0 F3600 X170.198 Y109.67
M204 S500
M205 X20 Y20
G1 F1800 X171.329 Y110.801 E67.31767
M204 S5000
M205 X30 Y30
G0 F3600 X171.329 Y111.367
M204 S500
M205 X20 Y20
G1 F1800 X169.632 Y109.67 E67.39749
M204 S5000
M205 X30 Y30
G0 F3600 X169.067 Y109.67
M204 S500
M205 X20 Y20
G1 F1800 X171.329 Y111.932 E67.50388
M204 S5000
M205 X30 Y30
G0 F3600 X171.329 Y112.498
M204 S500
M205 X20 Y20
G1 F1800 X168.501 Y109.67 E67.6369
M204 S5000
M205 X30 Y30
G0 F3600 X167.935 Y109.67
M204 S500
M205 X20 Y20
G1 F1800 X171.329 Y113.064 E67.79655
M204 S5000
M205 X30 Y30
G0 F3600 X171.329 Y113.629
M204 S500
M205 X20 Y20
G1 F1800 X167.37 Y109.67 E67.98277
M204 S5000
M205 X30 Y30
G0 F3600 X166.804 Y109.67
M204 S500
M205 X20 Y20
G1 F1800 X171.329 Y114.195 E68.19561
M204 S5000
M205 X30 Y30
G0 F3600 X171.329 Y114.761
M204 S500
M205 X20 Y20
G1 F1800 X166.238 Y109.67 E68.43507
M204 S5000
M205 X30 Y30
G0 F3600 X165.672 Y109.67
M204 S500
M205 X20 Y20
G1 F1800 X171.329 Y115.326 E68.70114
M204 S5000
M205 X30 Y30
G0 F3600 X171.329 Y115.892
M204 S500
M205 X20 Y20
G1 F1800 X165.107 Y109.67 E68.9938
M204 S5000
M205 X30 Y30
G0 F3600 X164.541 Y109.67
M204 S500
M205 X20 Y20
G1 F1800 X171.329 Y116.458 E69.31309
M204 S5000
M205 X30 Y30
G0 F3600 X171.329 Y117.024
M204 S500
M205 X20 Y20
G1 F1800 X163.975 Y109.67 E69.659
M204 S5000
M205 X30 Y30
G0 F3600 X163.41 Y109.67
M204 S500
M205 X20 Y20
G1 F1800 X171.329 Y117.589 E70.03148
M204 S5000
M205 X30 Y30
G0 F3600 X171.329 Y118.155
M204 S500
M205 X20 Y20
G1 F1800 X162.844 Y109.67 E70.43059
M204 S5000
M205 X30 Y30
G0 F3600 X162.278 Y109.67
M204 S500
M205 X20 Y20
G1 F1800 X171.329 Y118.721 E70.85632
M204 S5000
M205 X30 Y30
G0 F3600 X171.329 Y119.286
M204 S500
M205 X20 Y20
G1 F1800 X161.713 Y109.67 E71.30863
M204 S5000
M205 X30 Y30
G0 F3600 X161.147 Y109.67
M204 S500
M205 X20 Y20
G1 F1800 X171.329 Y119.852 E71.78756
M204 S5000
M205 X30 Y30
G0 F3600 X171.329 Y120.418
M204 S500
M205 X20 Y20
G1 F1800 X160.581 Y109.67 E72.29311
M204 S5000
M205 X30 Y30
G0 F3600 X160.016 Y109.67
M204 S500
M205 X20 Y20
G1 F1800 X171.329 Y120.983 E72.82524
M204 S5000
M205 X30 Y30
G0 F3600 X171.329 Y121.549
M204 S500
M205 X20 Y20
G1 F1800 X159.45 Y109.67 E73.38399
M204 S5000
M205 X30 Y30
G0 F3600 X158.884 Y109.67
M204 S500
M205 X20 Y20
G1 F1800 X171.329 Y122.115 E73.96937
M204 S5000
M205 X30 Y30
G0 F3600 X171.329 Y122.68
M204 S500
M205 X20 Y20
G1 F1800 X158.319 Y109.67 E74.58132
M204 S5000
M205 X30 Y30
G0 F3600 X157.753 Y109.67
M204 S500
M205 X20 Y20
G1 F1800 X171.329 Y123.246 E75.21989
M204 S5000
