;FLAVOR:Marlin
;TIME:605
;Filament used: 0.260207m
;Layer height: 0.1
;Generated with Cura_SteamEngine 4.0.0
M140 S60
M105
M190 S60
M104 S200
M105
M109 S200
M82 ;absolute extrusion mode
; Ender 3 Custom Start G-code
G28 ; Home all axes
G92 E0 ; Reset Extruder
G1 Z2.0 F3000 ; Move Z Axis up little to prevent scratching of Heat Bed
G1 X0.1 Y20 Z0.3 F5000.0 ; Move to start position
G1 X0.1 Y200.0 Z0.3 F1500.0 E15 ; Draw the first line
G1 X0.4 Y200.0 Z0.3 F5000.0 ; Move to side a little
G1 X0.4 Y20 Z0.3 F1500.0 E30 ; Draw the second line
G92 E0 ; Reset Extruder
G1 Z2.0 F3000 ; Move Z Axis up little to prevent scratching of Heat Bed
; End of custom start GCode
G92 E0
G1 F2400 E-5
;LAYER_COUNT:40
;LAYER:0
M107
M204 S5000
M205 X30 Y30
G0 F3600 X108.112 Y91.421 Z0.2
M204 S500
M205 X20 Y20
;TYPE:SKIRT
G1 F2400 E0
G1 F1800 X108.387 Y91.129 E0.01334
G1 X109.121 Y90.395 E0.04787
G1 X109.654 Y89.918 E0.07166
G1 X109.973 Y89.679 E0.08491
G1 X110.835 Y89.075 E0.11992
G1 X111.443 Y88.698 E0.14372
G1 X111.804 Y88.515 E0.15718
G1 X112.765 Y88.067 E0.19244
G1 X113.429 Y87.802 E0.21622
G1 X114.19 Y87.597 E0.24243
G1 X115.798 Y87.269 E0.29702
G1 X116.506 Y87.166 E0.32081
G1 X117.187 Y87.141 E0.34348
G1 X118.233 Y87.159 E0.37828
G1 X118.946 Y87.211 E0.40205
G1 X119.334 Y87.274 E0.41513
G1 X120.33 Y87.466 E0.44886
G1 X121.024 Y87.64 E0.47266
G1 X121.378 Y87.762 E0.48511
G1 X122.348 Y88.128 E0.5196
G1 X123.002 Y88.418 E0.54339
G1 X123.349 Y88.608 E0.55655
G1 X124.231 Y89.13 E0.59064
G1 X124.825 Y89.528 E0.61442
G1 X125.135 Y89.777 E0.62764
G1 X125.937 Y90.464 E0.66277
G1 X126.453 Y90.959 E0.68655
G1 X126.724 Y91.27 E0.70027
G1 X127.385 Y92.077 E0.73496
G1 X127.807 Y92.654 E0.75874
G1 X128.016 Y93.001 E0.77221
G1 X128.523 Y93.905 E0.80669
G1 X128.838 Y94.548 E0.8305
G1 X129.03 Y95.066 E0.84888
G1 X129.482 Y96.463 E0.89771
G1 X129.664 Y97.155 E0.92151
G1 X129.766 Y97.846 E0.94474
G1 X129.861 Y98.877 E0.97918
G1 X129.873 Y99.908 E1.01347
G1 X129.657 Y103.019 E1.11719
G1 X129.498 Y108.34 E1.29425
G1 X129.64 Y113.689 E1.47222
G1 X129.778 Y115.631 E1.53698
G1 X129.779 Y115.648 E1.53754
G1 X129.873 Y117.029 E1.58358
G1 X129.882 Y117.745 E1.6074
G1 X129.823 Y118.375 E1.62844
G1 X129.585 Y120.03 E1.68405
G1 X129.444 Y120.731 E1.70784
G1 X129.238 Y121.378 E1.73042
G1 X128.872 Y122.348 E1.7649
G1 X128.582 Y123.002 E1.7887
G1 X128.392 Y123.349 E1.80185
G1 X127.87 Y124.231 E1.83594
G1 X127.472 Y124.825 E1.85972
G1 X127.222 Y125.135 E1.87297
G1 X126.534 Y125.938 E1.90814
G1 X126.039 Y126.454 E1.93192
G1 X125.726 Y126.728 E1.94576
G1 X124.918 Y127.389 E1.98048
G1 X124.34 Y127.81 E2.00426
G1 X124.001 Y128.014 E2.01742
G1 X123.097 Y128.522 E2.05191
G1 X122.455 Y128.837 E2.0757
G1 X121.929 Y129.033 E2.09437
G1 X120.533 Y129.484 E2.14316
G1 X119.842 Y129.666 E2.16693
G1 X119.143 Y129.768 E2.19042
G1 X118.105 Y129.862 E2.22509
G1 X117.39 Y129.887 E2.24888
G1 X117.006 Y129.867 E2.26167
G1 X115.967 Y129.782 E2.29634
G1 X115.259 Y129.684 E2.32012
G1 X114.858 Y129.592 E2.3338
G1 X113.841 Y129.324 E2.36878
G1 X113.161 Y129.103 E2.39256
G1 X112.788 Y128.945 E2.40604
G1 X111.844 Y128.509 E2.44062
G1 X111.213 Y128.173 E2.4644
G1 X110.875 Y127.954 E2.47779
G1 X110.012 Y127.354 E2.51275
G1 X109.448 Y126.913 E2.53656
G1 X109.158 Y126.643 E2.54974
G1 X108.424 Y125.915 E2.58413
G1 X107.945 Y125.384 E2.60791
G1 X107.702 Y125.061 E2.62136
G1 X107.1 Y124.208 E2.65608
G1 X106.721 Y123.602 E2.67985
G1 X106.541 Y123.248 E2.69306
G1 X106.092 Y122.296 E2.72807
G1 X105.823 Y121.633 E2.75187
G1 X105.705 Y121.246 E2.76533
G1 X105.434 Y120.25 E2.79966
G1 X105.245 Y119.25 E2.83351
G1 X105.177 Y118.614 E2.85478
G1 X105.148 Y117.644 E2.88706
G1 X105.491 Y110.075 E3.13906
G1 X105.429 Y104.737 E3.31662
G1 X105.126 Y99.954 E3.47602
G1 X105.136 Y99.01 E3.50742
G1 X105.229 Y97.912 E3.54407
G1 X105.329 Y97.204 E3.56785
G1 X105.426 Y96.789 E3.58202
G1 X105.694 Y95.793 E3.61633
G1 X105.918 Y95.114 E3.64011
G1 X106.073 Y94.753 E3.65318
G1 X106.518 Y93.798 E3.68822
G1 X106.856 Y93.167 E3.71203
G1 X107.076 Y92.83 E3.72541
G1 X107.669 Y91.983 E3.7598
G1 X108.112 Y91.421 E3.7836
M204 S5000
M205 X30 Y30
G0 F3600 X108.426 Y91.669
M204 S500
M205 X20 Y20
G1 F1800 X108.669 Y91.411 E3.79539
G1 X109.403 Y90.677 E3.82992
G1 X109.92 Y90.217 E3.85293
G1 X110.203 Y90.006 E3.86468
G1 X111.065 Y89.402 E3.89968
G1 X111.654 Y89.038 E3.92271
G1 X111.973 Y88.878 E3.93458
G1 X112.934 Y88.43 E3.96985
G1 X113.577 Y88.174 E3.99287
G1 X114.27 Y87.989 E4.01672
G1 X115.878 Y87.661 E4.07131
G1 X116.563 Y87.562 E4.09433
G1 X117.18 Y87.541 E4.11486
G1 X118.226 Y87.559 E4.14966
G1 X119.259 Y87.666 E4.1842
G1 X120.255 Y87.858 E4.21793
G1 X121.237 Y88.136 E4.25188
G1 X122.207 Y88.502 E4.28636
G1 X122.84 Y88.784 E4.30941
G1 X123.145 Y88.953 E4.32101
G1 X124.027 Y89.475 E4.3551
G1 X124.602 Y89.861 E4.37813
G1 X124.874 Y90.081 E4.38977
G1 X125.676 Y90.768 E4.42489
G1 X126.175 Y91.248 E4.44792
G1 X126.415 Y91.523 E4.46006
G1 X127.076 Y92.33 E4.49475
G1 X127.483 Y92.89 E4.51778
G1 X127.667 Y93.197 E4.52968
G1 X128.174 Y94.101 E4.56416
G1 X128.477 Y94.724 E4.5872
G1 X128.65 Y95.189 E4.6037
G1 X129.102 Y96.586 E4.65254
G1 X129.276 Y97.256 E4.67556
G1 X129.368 Y97.882 E4.6966
G1 X129.463 Y98.913 E4.73104
G1 X129.474 Y99.88 E4.7632
G1 X129.257 Y103.004 E4.86736
G1 X129.097 Y108.34 E5.04492
G1 X129.241 Y113.705 E5.22342
G1 X129.379 Y115.659 E5.28857
G1 X129.38 Y115.676 E5.28914
G1 X129.474 Y117.057 E5.33518
G1 X129.481 Y117.749 E5.35819
G1 X129.427 Y118.318 E5.3772
G1 X129.189 Y119.973 E5.43282
G1 X129.051 Y120.652 E5.45586
G1 X128.864 Y121.237 E5.47629
G1 X128.498 Y122.207 E5.51077
G1 X128.216 Y122.84 E5.53382
G1 X128.047 Y123.145 E5.54542
G1 X127.525 Y124.027 E5.57951
G1 X127.139 Y124.602 E5.60254
G1 X126.918 Y124.875 E5.61422
G1 X126.23 Y125.678 E5.64939
G1 X125.75 Y126.177 E5.67242
G1 X125.473 Y126.418 E5.68463
G1 X124.665 Y127.079 E5.71935
G1 X124.105 Y127.486 E5.74238
G1 X123.805 Y127.666 E5.75402
G1 X122.901 Y128.174 E5.7885
G1 X122.279 Y128.478 E5.81153
G1 X121.807 Y128.652 E5.82826
G1 X120.411 Y129.103 E5.87706
G1 X119.74 Y129.278 E5.90012
G1 X119.107 Y129.37 E5.9214
G1 X118.069 Y129.464 E5.95606
G1 X117.039 Y129.468 E5.99032
G1 X116 Y129.383 E6.02499
G1 X115.314 Y129.287 E6.04803
G1 X114.96 Y129.205 E6.06012
G1 X113.943 Y128.937 E6.0951
G1 X113.285 Y128.722 E6.11812
G1 X112.956 Y128.582 E6.13001
G1 X112.012 Y128.146 E6.1646
G1 X111.401 Y127.82 E6.18763
G1 X111.103 Y127.625 E6.19948
G1 X110.24 Y127.025 E6.23444
G1 X109.695 Y126.598 E6.25746
G1 X109.44 Y126.359 E6.26909
G1 X108.706 Y125.631 E6.30347
G1 X108.243 Y125.116 E6.32651
G1 X108.029 Y124.831 E6.33836
G1 X107.427 Y123.978 E6.37308
G1 X107.061 Y123.39 E6.39612
G1 X106.902 Y123.077 E6.4078
G1 X106.453 Y122.125 E6.44281
G1 X106.195 Y121.483 E6.46582
G1 X106.09 Y121.141 E6.47772
G1 X105.819 Y120.145 E6.51205
G1 X105.643 Y119.208 E6.54376
G1 X105.575 Y118.572 E6.56503
G1 X105.547 Y117.662 E6.59531
G1 X105.891 Y110.07 E6.84808
G1 X105.829 Y104.726 E7.02584
G1 X105.525 Y99.929 E7.18571
G1 X105.534 Y99.044 E7.21514
G1 X105.627 Y97.946 E7.25179
G1 X105.726 Y97.26 E7.27485
G1 X105.812 Y96.893 E7.28738
G1 X106.08 Y95.897 E7.32169
G1 X106.435 Y94.922 E7.3562
G1 X106.88 Y93.967 E7.39124
G1 X107.209 Y93.357 E7.41429
G1 X107.404 Y93.06 E7.42611
G1 X107.997 Y92.213 E7.4605
G1 X108.426 Y91.669 E7.48354
M204 S5000
M205 X30 Y30
G0 F3600 X108.952 Y91.694
M204 S500
M205 X20 Y20
G1 F1800 X109.686 Y90.96 E7.51807
G1 X110.432 Y90.334 E7.55046
G1 X111.294 Y89.73 E7.58547
G1 X112.142 Y89.24 E7.61804
G1 X113.103 Y88.792 E7.65331
G1 X113.725 Y88.546 E7.67555
G1 X114.35 Y88.381 E7.69705
G1 X115.958 Y88.053 E7.75164
G1 X116.62 Y87.959 E7.77388
G1 X117.173 Y87.941 E7.79228
G1 X118.219 Y87.959 E7.82707
G1 X119.183 Y88.059 E7.85931
G1 X120.179 Y88.251 E7.89305
G1 X121.096 Y88.511 E7.92475
G1 X122.066 Y88.877 E7.95923
G1 X122.941 Y89.297 E7.99151
G1 X123.823 Y89.819 E8.0256
G1 X124.614 Y90.385 E8.05795
G1 X125.416 Y91.072 E8.09307
G1 X126.105 Y91.777 E8.12586
G1 X126.766 Y92.584 E8.16056
G1 X127.318 Y93.393 E8.19313
G1 X127.825 Y94.297 E8.2276
G1 X128.117 Y94.899 E8.24986
G1 X128.269 Y95.312 E8.26449
G1 X128.721 Y96.709 E8.31333
G1 X128.889 Y97.357 E8.3356
G1 X128.969 Y97.919 E8.35448
G1 X129.064 Y98.95 E8.38891
G1 X129.075 Y99.852 E8.41892
G1 X128.857 Y102.989 E8.5235
G1 X128.697 Y108.34 E8.70156
G1 X128.841 Y113.721 E8.8806
G1 X128.98 Y115.687 E8.94615
G1 X128.981 Y115.703 E8.94668
G1 X129.075 Y117.084 E8.99272
G1 X129.081 Y117.753 E9.01497
G1 X129.031 Y118.261 E9.03195
G1 X128.793 Y119.916 E9.08756
G1 X128.658 Y120.571 E9.1098
G1 X128.489 Y121.096 E9.12815
G1 X128.123 Y122.066 E9.16263
G1 X127.703 Y122.941 E9.19491
G1 X127.181 Y123.823 E9.229
G1 X126.615 Y124.615 E9.26138
G1 X125.927 Y125.418 E9.29655
G1 X125.22 Y126.108 E9.32941
G1 X124.412 Y126.769 E9.36413
G1 X123.609 Y127.317 E9.39646
G1 X122.705 Y127.825 E9.43095
G1 X122.104 Y128.117 E9.45317
G1 X121.684 Y128.272 E9.46807
G1 X120.288 Y128.723 E9.51686
G1 X119.64 Y128.89 E9.53912
G1 X119.071 Y128.971 E9.55823
G1 X118.033 Y129.065 E9.5929
G1 X117.071 Y129.069 E9.62489
G1 X116.032 Y128.984 E9.65957
G1 X115.062 Y128.818 E9.6923
G1 X114.045 Y128.55 E9.72728
G1 X113.124 Y128.219 E9.75983
G1 X112.18 Y127.783 E9.79441
G1 X111.331 Y127.297 E9.82695
G1 X110.468 Y126.697 E9.86191
G1 X109.721 Y126.075 E9.89424
G1 X108.987 Y125.347 E9.92862
G1 X108.356 Y124.6 E9.96115
G1 X107.754 Y123.747 E9.99587
G1 X107.264 Y122.907 E10.02822
G1 X106.815 Y121.955 E10.06323
G1 X106.476 Y121.036 E10.09581
G1 X106.205 Y120.04 E10.13014
G1 X106.041 Y119.165 E10.15975
G1 X105.973 Y118.529 E10.18102
G1 X105.947 Y117.68 E10.20927
G1 X106.291 Y110.084 E10.46217
G1 X106.229 Y104.716 E10.64073
G1 X105.924 Y99.904 E10.8011
G1 X105.933 Y99.077 E10.8286
G1 X106.026 Y97.979 E10.86525
G1 X106.198 Y96.997 E10.89841
G1 X106.466 Y96.001 E10.93272
G1 X106.798 Y95.091 E10.96494
G1 X107.243 Y94.136 E10.99998
G1 X107.732 Y93.289 E11.03251
G1 X108.325 Y92.442 E11.0669
G1 X108.952 Y91.694 E11.09936
M204 S5000
M205 X30 Y30
G0 F3600 X109.235 Y91.977
M204 S500
M205 X20 Y20
G1 F1800 X109.969 Y91.243 E11.13388
G1 X110.662 Y90.661 E11.16398
G1 X111.524 Y90.057 E11.19899
G1 X112.311 Y89.603 E11.22921
G1 X113.272 Y89.155 E11.26448
G1 X113.872 Y88.919 E11.28592
G1 X114.43 Y88.773 E11.3051
G1 X116.038 Y88.445 E11.35969
G1 X116.676 Y88.355 E11.38112
G1 X117.166 Y88.341 E11.39742
G1 X118.212 Y88.359 E11.43222
G1 X119.107 Y88.452 E11.46215
G1 X120.103 Y88.644 E11.49588
G1 X120.955 Y88.885 E11.52533
G1 X121.925 Y89.251 E11.55981
G1 X122.737 Y89.641 E11.58978
G1 X123.619 Y90.163 E11.62386
G1 X124.354 Y90.689 E11.65393
G1 X125.156 Y91.376 E11.68905
G1 X125.796 Y92.03 E11.71948
G1 X126.457 Y92.837 E11.75418
G1 X126.969 Y93.588 E11.78441
G1 X127.476 Y94.492 E11.81888
G1 X127.756 Y95.073 E11.84033
G1 X127.888 Y95.435 E11.85315
G1 X128.34 Y96.832 E11.90199
G1 X128.501 Y97.457 E11.92345
G1 X128.571 Y97.956 E11.94021
G1 X128.666 Y98.987 E11.97465
G1 X128.675 Y99.825 E12.00252
G1 X128.459 Y102.926 E12.10591
G1 X128.297 Y108.356 E12.28659
G1 X128.441 Y113.738 E12.46566
G1 X128.581 Y115.716 E12.53162
G1 X128.582 Y115.73 E12.53208
G1 X128.676 Y117.111 E12.57812
G1 X128.68 Y117.756 E12.59958
G1 X128.635 Y118.204 E12.61455
G1 X128.397 Y119.859 E12.67016
G1 X128.266 Y120.49 E12.6916
G1 X128.115 Y120.955 E12.70786
G1 X127.749 Y121.925 E12.74234
G1 X127.359 Y122.737 E12.7723
G1 X126.837 Y123.619 E12.80639
G1 X126.311 Y124.354 E12.83645
G1 X125.623 Y125.157 E12.87162
G1 X124.967 Y125.799 E12.90215
G1 X124.159 Y126.46 E12.93687
G1 X123.413 Y126.968 E12.96689
G1 X122.509 Y127.476 E13.00138
G1 X121.929 Y127.757 E13.02281
G1 X121.561 Y127.891 E13.03584
G1 X120.165 Y128.342 E13.08463
G1 X119.54 Y128.502 E13.10609
G1 X119.035 Y128.573 E13.12305
G1 X117.997 Y128.667 E13.15772
G1 X117.104 Y128.671 E13.18742
G1 X116.065 Y128.586 E13.22209
G1 X115.164 Y128.431 E13.2525
G1 X114.147 Y128.163 E13.28748
G1 X113.292 Y127.856 E13.3177
G1 X112.348 Y127.42 E13.35228
G1 X111.56 Y126.969 E13.38248
G1 X110.697 Y126.369 E13.41744
G1 X110.003 Y125.791 E13.44748
G1 X109.269 Y125.063 E13.48186
G1 X108.682 Y124.369 E13.51209
G1 X108.08 Y123.516 E13.54682
G1 X107.626 Y122.736 E13.57684
G1 X107.177 Y121.784 E13.61185
G1 X106.862 Y120.931 E13.64209
G1 X106.591 Y119.935 E13.67642
G1 X106.438 Y119.123 E13.7039
G1 X106.37 Y118.487 E13.72518
G1 X106.346 Y117.699 E13.7514
G1 X106.691 Y110.08 E14.00507
G1 X106.629 Y104.706 E14.18382
G1 X106.323 Y99.879 E14.34469
G1 X106.332 Y99.111 E14.37023
G1 X106.425 Y98.013 E14.40688
G1 X106.585 Y97.101 E14.43768
G1 X106.853 Y96.105 E14.47199
G1 X107.161 Y95.26 E14.5019
G1 X107.606 Y94.305 E14.53694
G1 X108.059 Y93.519 E14.56711
G1 X108.652 Y92.672 E14.6015
G1 X109.235 Y91.977 E14.63168
M204 S5000
M205 X30 Y30
G1 F2400 E9.63168
;MESH:Separator.stl(2)
G0 F3600 X112.491 Y95.117
G0 X113.395 Y96.028
G0 X114.353 Y96.005
G0 X114.419 Y96.079
M204 S500
M205 X20 Y20
;TYPE:WALL-INNER
G1 F2400 E14.63168
G1 F1800 X113.776 Y96.795 E14.66368
G1 X113.295 Y97.627 E14.69565
G1 X112.997 Y98.542 E14.72765
G1 X112.897 Y99.5 E14.75969
G1 X112.997 Y100.458 E14.79173
G1 X113.295 Y101.373 E14.82373
G1 X113.776 Y102.205 E14.8557
G1 X114.419 Y102.921 E14.8877
G1 X115.199 Y103.486 E14.91974
G1 X116.078 Y103.877 E14.95174
G1 X117.019 Y104.078 E14.98374
G1 X117.981 Y104.078 E15.01574
G1 X118.922 Y103.877 E15.04774
G1 X119.801 Y103.486 E15.07974
G1 X120.581 Y102.921 E15.11177
G1 X121.224 Y102.205 E15.14378
G1 X121.705 Y101.373 E15.17574
G1 X122.003 Y100.458 E15.20775
G1 X122.103 Y99.5 E15.23979
G1 X122.003 Y98.542 E15.27182
G1 X121.705 Y97.627 E15.30383
G1 X121.224 Y96.795 E15.33579
G1 X120.581 Y96.079 E15.3678
G1 X119.801 Y95.514 E15.39983
G1 X118.922 Y95.123 E15.43183
G1 X117.981 Y94.922 E15.46384
G1 X117.019 Y94.922 E15.49583
G1 X116.078 Y95.123 E15.52784
G1 X115.199 Y95.514 E15.55983
G1 X114.419 Y96.079 E15.59187
M204 S5000
M205 X30 Y30
G0 F3600 X114.353 Y96.005
G0 X115.18 Y95.48
G0 X115.681 Y95.257
G0 X118.418 Y94.281
G0 X118.435 Y94.183
M204 S500
M205 X20 Y20
G1 F1800 X119.347 Y94.427 E15.62327
G1 X120.195 Y94.823 E15.6544
G1 X120.973 Y95.368 E15.68599
G1 X121.629 Y96.024 E15.71685
G1 X122.178 Y96.808 E15.74868
G1 X122.573 Y97.653 E15.7797
G1 X122.817 Y98.565 E15.8111
G1 X122.899 Y99.5 E15.84232
G1 X122.817 Y100.435 E15.87354
G1 X122.573 Y101.347 E15.90494
G1 X122.177 Y102.195 E15.93607
G1 X121.632 Y102.973 E15.96766
G1 X120.973 Y103.632 E15.99866
G1 X120.195 Y104.177 E16.03025
G1 X119.347 Y104.573 E16.06138
G1 X118.435 Y104.817 E16.09278
G1 X117.5 Y104.899 E16.124
G1 X116.565 Y104.817 E16.15522
G1 X115.653 Y104.573 E16.18662
G1 X114.805 Y104.177 E16.21774
G1 X114.027 Y103.632 E16.24934
G1 X113.368 Y102.973 E16.28034
G1 X112.823 Y102.195 E16.31193
G1 X112.427 Y101.347 E16.34306
G1 X112.184 Y100.44 E16.37429
G1 X112.103 Y99.497 E16.40577
G1 X112.19 Y98.542 E16.43766
G1 X112.438 Y97.634 E16.46897
G1 X112.841 Y96.78 E16.50038
G1 X113.38 Y96.016 E16.53148
G1 X114.051 Y95.351 E16.5629
G1 X114.823 Y94.816 E16.59414
G1 X115.679 Y94.421 E16.62549
G1 X116.565 Y94.183 E16.65601
G1 X117.5 Y94.101 E16.68722
G1 X118.435 Y94.183 E16.71844
M204 S5000
M205 X30 Y30
G0 F3600 X118.506 Y93.788
M204 S500
M205 X20 Y20
;TYPE:WALL-OUTER
G1 F1800 X119.483 Y94.05 E16.75208
G1 X120.398 Y94.477 E16.78567
G1 X121.232 Y95.061 E16.81953
G1 X121.938 Y95.767 E16.85274
G1 X122.523 Y96.602 E16.88665
G1 X122.95 Y97.517 E16.92023
G1 X123.212 Y98.494 E16.95388
G1 X123.3 Y99.5 E16.98746
G1 X123.212 Y100.506 E17.02105
G1 X122.95 Y101.483 E17.05469
G1 X122.523 Y102.398 E17.08828
G1 X121.939 Y103.232 E17.12214
G1 X121.232 Y103.939 E17.1554
G1 X120.398 Y104.523 E17.18926
G1 X119.483 Y104.95 E17.22284
G1 X118.506 Y105.212 E17.25649
G1 X117.5 Y105.3 E17.29007
G1 X116.494 Y105.212 E17.32366
G1 X115.517 Y104.95 E17.35731
G1 X114.602 Y104.523 E17.39089
G1 X113.768 Y103.939 E17.42475
G1 X113.061 Y103.232 E17.45801
G1 X112.477 Y102.398 E17.49187
G1 X112.05 Y101.483 E17.52546
G1 X111.788 Y100.506 E17.5591
G1 X111.701 Y99.501 E17.59265
G1 X111.795 Y98.471 E17.62705
G1 X112.062 Y97.493 E17.66077
G1 X112.494 Y96.578 E17.69442
G1 X113.073 Y95.757 E17.72784
