;FLAVOR:Marlin
;TIME:11008
;Filament used: 10.113m
;Layer height: 0.28
;MINX:61.982
;MINY:60.5
;MINZ:0.28
;MAXX:179.984
;MAXY:159.5
;MAXZ:5.88
;Generated with Cura_SteamEngine 4.8.0
M140 S60
M105
M190 S60
M104 S205
M105
M109 S205
M82 ;absolute extrusion mode
; Ender 3 Custom Start G-code
G92 E0 ; Reset Extruder
G28 ; Home all axes
G1 Z2.0 F3000 ; Move Z Axis up little to prevent scratching of Heat Bed
G1 X0.1 Y20 Z0.3 F5000.0 ; Move to start position
G1 X0.1 Y200.0 Z0.3 F1500.0 E15 ; Draw the first line
G1 X0.4 Y200.0 Z0.3 F5000.0 ; Move to side a little
G1 X0.4 Y20 Z0.3 F1500.0 E30 ; Draw the second line
G92 E0 ; Reset Extruder
G1 Z2.0 F3000 ; Move Z Axis up little to prevent scratching of Heat Bed
G1 X5 Y20 Z0.3 F5000.0 ; Move over to prevent blob squish
G92 E0
G92 E0
G1 F2400 E-6.5
;LAYER_COUNT:21
;LAYER:0
M107
G0 F6000 X66.51 Y68.303 Z0.28
;TYPE:SKIRT
G1 F2400 E0
G1 F1200 X66.832 Y67.99 E0.02091
G1 X67.532 Y67.366 E0.06458
G1 X68.238 Y66.834 E0.10574
G1 X68.597 Y66.592 E0.1259
G1 X68.851 Y66.428 E0.13998
G1 X69.094 Y66.275 E0.15335
G1 X69.524 Y66.013 E0.17679
G1 X70.345 Y65.56 E0.22046
G1 X71.455 Y65.082 E0.27673
G1 X71.866 Y64.931 E0.29712
G1 X72.195 Y64.816 E0.31335
G1 X72.632 Y64.671 E0.33479
G1 X73.534 Y64.414 E0.37846
G1 X74.128 Y64.288 E0.40674
G1 X74.183 Y64.278 E0.40934
G1 X74.787 Y64.186 E0.43779
G1 X75.139 Y64.142 E0.45431
G1 X75.445 Y64.108 E0.46864
G1 X75.921 Y64.062 E0.49091
G1 X76.472 Y64.023 E0.51663
G1 X76.89 Y64.009 E0.53611
G1 X77.372 Y64.002 E0.55855
G1 X79.978 Y63.929 E0.67995
G1 X82.507 Y63.787 E0.79789
G1 X84.996 Y63.577 E0.9142
G1 X87.498 Y63.293 E1.03145
G1 X90.014 Y62.935 E1.14979
G1 X92.49 Y62.513 E1.26675
G1 X94.917 Y62.027 E1.382
G1 X97.409 Y61.454 E1.50107
G1 X99.158 Y61.003 E1.58517
G1 X99.524 Y60.915 E1.6027
G1 X100.32 Y60.754 E1.64051
G1 X100.787 Y60.686 E1.66249
G1 X101.139 Y60.642 E1.67901
G1 X101.464 Y60.606 E1.69423
G1 X101.97 Y60.558 E1.7179
G1 X102.865 Y60.51 E1.75964
G1 X103.696 Y60.5 E1.79833
G1 X153.182 Y60.505 E4.10261
G1 X154.296 Y60.5 E4.15448
G1 X164.435 Y60.501 E4.6266
G1 X165.133 Y60.511 E4.6591
G1 X165.723 Y60.535 E4.6866
G1 X166.111 Y60.567 E4.70472
G1 X166.503 Y60.606 E4.72307
G1 X166.802 Y60.64 E4.73708
G1 X167.266 Y60.699 E4.75886
G1 X168.19 Y60.857 E4.80251
G1 X169.381 Y61.184 E4.86002
G1 X169.771 Y61.315 E4.87918
G1 X170.071 Y61.42 E4.89398
G1 X170.527 Y61.588 E4.91661
G1 X171.392 Y61.95 E4.96027
G1 X172.45 Y62.518 E5.01618
G1 X172.783 Y62.721 E5.03434
G1 X173.025 Y62.873 E5.04765
G1 X173.443 Y63.143 E5.07082
G1 X174.209 Y63.685 E5.11452
G1 X174.751 Y64.133 E5.14726
G1 X175.208 Y64.556 E5.17626
G1 X175.463 Y64.806 E5.19288
G1 X175.968 Y65.32 E5.22644
G1 X176.594 Y66.018 E5.2701
G1 X177.314 Y66.999 E5.32676
G1 X177.548 Y67.358 E5.34671
G1 X177.747 Y67.675 E5.36414
G1 X177.993 Y68.082 E5.38628
G1 X178.443 Y68.905 E5.42996
G1 X178.736 Y69.549 E5.46291
G1 X178.92 Y70.018 E5.48637
G1 X179.049 Y70.37 E5.50382
G1 X179.157 Y70.676 E5.51893
G1 X179.309 Y71.132 E5.54131
G1 X179.567 Y72.034 E5.585
G1 X179.78 Y73.181 E5.63932
G1 X179.831 Y73.57 E5.65759
G1 X179.87 Y73.916 E5.6738
G1 X179.92 Y74.421 E5.69743
G1 X179.973 Y75.351 E5.74081
G1 X179.984 Y76.218 E5.78118
G1 X179.983 Y91.949 E6.51368
G1 X179.973 Y92.652 E6.54642
G1 X179.959 Y93.068 E6.5658
G1 X179.883 Y95.755 E6.69097
G1 X179.883 Y98.244 E6.80687
G1 X179.957 Y100.867 E6.92906
G1 X179.963 Y101 E6.93526
G1 X179.973 Y101.332 E6.95072
G1 X179.984 Y102.218 E6.99198
G1 X179.983 Y117.949 E7.72448
G1 X179.973 Y118.652 E7.75722
G1 X179.959 Y119.068 E7.7766
G1 X179.883 Y121.755 E7.90177
G1 X179.883 Y124.244 E8.01767
G1 X179.957 Y126.867 E8.13985
G1 X179.963 Y127 E8.14605
G1 X179.973 Y127.332 E8.16152
G1 X179.984 Y128.218 E8.20278
G1 X179.983 Y143.961 E8.93584
G1 X179.972 Y144.681 E8.96937
G1 X179.919 Y145.605 E9.01247
G1 X179.876 Y146.036 E9.03263
G1 X179.843 Y146.327 E9.04627
G1 X179.787 Y146.769 E9.06702
G1 X179.629 Y147.693 E9.11067
G1 X179.315 Y148.849 E9.16645
G1 X179.182 Y149.25 E9.18612
G1 X179.065 Y149.584 E9.2026
G1 X178.898 Y150.038 E9.22512
G1 X178.537 Y150.904 E9.26881
G1 X177.972 Y151.957 E9.32445
G1 X177.764 Y152.299 E9.34309
G1 X177.595 Y152.568 E9.35789
G1 X177.333 Y152.972 E9.38031
G1 X176.79 Y153.737 E9.42399
G1 X176.007 Y154.638 E9.47957
G1 X175.703 Y154.952 E9.49992
G1 X175.468 Y155.188 E9.51543
G1 X175.145 Y155.502 E9.53641
G1 X174.445 Y156.127 E9.58011
G1 X173.486 Y156.829 E9.63545
G1 X173.118 Y157.069 E9.6559
G1 X172.831 Y157.249 E9.67168
G1 X172.437 Y157.489 E9.69316
G1 X171.616 Y157.943 E9.73685
G1 X170.5 Y158.423 E9.79341
G1 X170.088 Y158.574 E9.81385
G1 X169.782 Y158.682 E9.82896
G1 X169.347 Y158.827 E9.85031
G1 X168.445 Y159.085 E9.89399
G1 X167.255 Y159.303 E9.95033
G1 X166.83 Y159.357 E9.97027
G1 X166.486 Y159.395 E9.98639
G1 X166.003 Y159.441 E10.00898
G1 X165.104 Y159.49 E10.05091
G1 X164.272 Y159.5 E10.08965
G1 X103.533 Y159.499 E12.91791
G1 X102.835 Y159.489 E12.95042
G1 X102.245 Y159.465 E12.97791
G1 X101.857 Y159.433 E12.99604
G1 X101.465 Y159.394 E13.01438
G1 X101.161 Y159.359 E13.02863
G1 X100.691 Y159.299 E13.0507
G1 X99.468 Y159.072 E13.10862
G1 X98.789 Y158.905 E13.14118
G1 X97.373 Y158.538 E13.20929
G1 X94.891 Y157.968 E13.32787
G1 X92.436 Y157.475 E13.44447
G1 X89.983 Y157.059 E13.56032
G1 X87.453 Y156.701 E13.6793
G1 X84.978 Y156.421 E13.79528
G1 X82.465 Y156.208 E13.91272
G1 X79.951 Y156.068 E14.02996
G1 X77.39 Y155.997 E14.14926
G1 X76.837 Y155.989 E14.17501
G1 X76.245 Y155.965 E14.2026
G1 X75.857 Y155.933 E14.22073
G1 X75.465 Y155.894 E14.23907
G1 X75.161 Y155.859 E14.25332
G1 X74.699 Y155.8 E14.27501
G1 X73.774 Y155.642 E14.3187
G1 X72.598 Y155.319 E14.37549
G1 X72.183 Y155.18 E14.39587
G1 X71.912 Y155.086 E14.40923
G1 X71.492 Y154.933 E14.43004
G1 X70.32 Y154.427 E14.48948
G1 X69.503 Y153.974 E14.53298
G1 X69.143 Y153.754 E14.55263
G1 X68.903 Y153.603 E14.56583
G1 X68.529 Y153.361 E14.58657
G1 X67.764 Y152.819 E14.63023
G1 X67.251 Y152.395 E14.66122
G1 X67.194 Y152.345 E14.66475
G1 X66.752 Y151.935 E14.69282
G1 X66.511 Y151.699 E14.70853
G1 X66.309 Y151.496 E14.72187
G1 X65.961 Y151.137 E14.74515
G1 X65.337 Y150.437 E14.78881
G1 X64.626 Y149.46 E14.84508
G1 X64.378 Y149.077 E14.86632
G1 X64.199 Y148.791 E14.88203
G1 X63.977 Y148.424 E14.90201
G1 X63.526 Y147.602 E14.94567
G1 X63.07 Y146.542 E14.9994
G1 X62.923 Y146.144 E15.01915
G1 X62.804 Y145.804 E15.03593
G1 X62.656 Y145.359 E15.05776
G1 X62.398 Y144.458 E15.1014
G1 X62.238 Y143.664 E15.13912
G1 X62.169 Y143.194 E15.16124
G1 X62.123 Y142.825 E15.17855
G1 X62.088 Y142.496 E15.19396
G1 X62.042 Y142.008 E15.21678
G1 X61.994 Y141.12 E15.25819
G1 X61.984 Y140.29 E15.29684
G1 X61.982 Y129.982 E15.77683
G1 X61.984 Y128.735 E15.83489
G1 X61.985 Y79.549 E18.1252
G1 X61.995 Y78.851 E18.15771
G1 X62.019 Y78.261 E18.1852
G1 X62.051 Y77.873 E18.20333
G1 X62.09 Y77.481 E18.22167
G1 X62.122 Y77.194 E18.23512
G1 X62.18 Y76.734 E18.25671
G1 X62.337 Y75.809 E18.3004
G1 X62.666 Y74.61 E18.35829
G1 X62.81 Y74.181 E18.37936
G1 X62.903 Y73.914 E18.39253
G1 X63.051 Y73.508 E18.41265
G1 X63.41 Y72.641 E18.45634
G1 X63.736 Y71.995 E18.49004
G1 X64.024 Y71.495 E18.51691
G1 X64.21 Y71.19 E18.53354
G1 X64.365 Y70.942 E18.54716
G1 X64.627 Y70.537 E18.56962
G1 X65.17 Y69.772 E18.6133
G1 X66 Y68.82 E18.67211
G1 X66.314 Y68.499 E18.69302
G1 X66.51 Y68.303 E18.70593
G0 F6000 X66.789 Y68.59
G1 F1200 X67.111 Y68.277 E18.72684
G1 X67.798 Y67.665 E18.76968
G1 X68.465 Y67.163 E18.80855
G1 X68.814 Y66.928 E18.82814
G1 X69.068 Y66.764 E18.84222
G1 X69.303 Y66.617 E18.85513
G1 X69.733 Y66.355 E18.87858
G1 X70.539 Y65.91 E18.92145
G1 X71.592 Y65.457 E18.97482
G1 X72.003 Y65.306 E18.99521
G1 X72.321 Y65.195 E19.0109
G1 X72.758 Y65.05 E19.03234
G1 X73.643 Y64.799 E19.07517
G1 X74.255 Y64.672 E19.10428
G1 X74.836 Y64.583 E19.13164
G1 X75.188 Y64.539 E19.14816
G1 X75.483 Y64.506 E19.16198
G1 X75.959 Y64.46 E19.18425
G1 X76.49 Y64.422 E19.20904
G1 X76.896 Y64.409 E19.22796
G1 X77.388 Y64.402 E19.25087
G1 X80.011 Y64.329 E19.37305
G1 X82.53 Y64.187 E19.49053
G1 X85.039 Y63.975 E19.60778
G1 X87.528 Y63.693 E19.72442
G1 X90.065 Y63.332 E19.84374
G1 X92.564 Y62.905 E19.96179
G1 X95.02 Y62.414 E20.07842
G1 X97.485 Y61.848 E20.19619
G1 X99.075 Y61.436 E20.27267
G1 X99.618 Y61.304 E20.29869
G1 X100.384 Y61.149 E20.33508
G1 X100.836 Y61.083 E20.35635
G1 X101.188 Y61.039 E20.37287
G1 X101.502 Y61.004 E20.38758
G1 X102.008 Y60.956 E20.41125
G1 X102.87 Y60.91 E20.45144
G1 X103.696 Y60.9 E20.48991
G1 X153.183 Y60.905 E22.79423
G1 X154.297 Y60.9 E22.8461
G1 X164.429 Y60.901 E23.31789
G1 X165.127 Y60.911 E23.3504
G1 X165.697 Y60.935 E23.37696
G1 X166.071 Y60.965 E23.39443
G1 X166.463 Y61.004 E23.41278
G1 X166.751 Y61.037 E23.42627
G1 X167.215 Y61.096 E23.44805
G1 X168.122 Y61.251 E23.4909
G1 X169.253 Y61.563 E23.54553
G1 X169.643 Y61.694 E23.56469
G1 X169.932 Y61.796 E23.57896
G1 X170.388 Y61.964 E23.60159
G1 X171.238 Y62.319 E23.64448
G1 X172.241 Y62.859 E23.69752
G1 X172.574 Y63.062 E23.71568
G1 X172.808 Y63.209 E23.72855
G1 X173.226 Y63.479 E23.75172
G1 X173.977 Y64.012 E23.7946
G1 X174.487 Y64.434 E23.82543
G1 X174.928 Y64.842 E23.8534
G1 X175.345 Y65.254 E23.8807
G1 X175.682 Y65.599 E23.90315
G1 X176.296 Y66.285 E23.94602
G1 X176.979 Y67.218 E23.99986
G1 X177.213 Y67.577 E24.01982
G1 X177.405 Y67.882 E24.0366
G1 X177.651 Y68.289 E24.05875
G1 X178.092 Y69.097 E24.10161
G1 X178.367 Y69.704 E24.13264
G1 X178.545 Y70.156 E24.15526
G1 X178.674 Y70.508 E24.17271
G1 X178.777 Y70.803 E24.18726
G1 X178.929 Y71.259 E24.20965
G1 X179.182 Y72.144 E24.25251
G1 X179.383 Y73.233 E24.30407
G1 X179.434 Y73.622 E24.32234
G1 X179.472 Y73.956 E24.33799
G1 X179.522 Y74.461 E24.36162
G1 X179.573 Y75.356 E24.40337
G1 X179.584 Y76.218 E24.44351
G1 X179.583 Y91.944 E25.17578
G1 X179.573 Y92.647 E25.20851
G1 X179.565 Y92.942 E25.22225
G1 X179.557 Y93.14 E25.23148
G1 X179.483 Y95.744 E25.35278
G1 X179.483 Y98.255 E25.46971
G1 X179.556 Y100.831 E25.5897
G1 X179.564 Y101.017 E25.59837
G1 X179.573 Y101.337 E25.61328
G1 X179.584 Y102.218 E25.65431
G1 X179.583 Y117.944 E26.38657
G1 X179.573 Y118.647 E26.41931
G1 X179.565 Y118.942 E26.43305
G1 X179.557 Y119.14 E26.44228
G1 X179.483 Y121.744 E26.56358
G1 X179.483 Y124.255 E26.68051
G1 X179.556 Y126.831 E26.8005
G1 X179.564 Y127.017 E26.80917
G1 X179.573 Y127.337 E26.82408
G1 X179.584 Y128.218 E26.8651
G1 X179.583 Y143.955 E27.59789
G1 X179.572 Y144.675 E27.63142
G1 X179.521 Y145.565 E27.67293
G1 X179.478 Y145.996 E27.69309
G1 X179.446 Y146.276 E27.70622
G1 X179.39 Y146.718 E27.72696
G1 X179.235 Y147.626 E27.76986
G1 X178.935 Y148.723 E27.82281
G1 X178.802 Y149.124 E27.84248
G1 X178.689 Y149.446 E27.85837
G1 X178.522 Y149.9 E27.8809
G1 X178.167 Y150.75 E27.92379
G1 X177.631 Y151.749 E27.97658
G1 X177.423 Y152.091 E27.99522
G1 X177.26 Y152.351 E28.00951
G1 X176.998 Y152.755 E28.03193
G1 X176.464 Y153.505 E28.0748
G1 X175.72 Y154.36 E28.12758
G1 X175.416 Y154.674 E28.14793
G1 X175.189 Y154.901 E28.16288
G1 X174.866 Y155.215 E28.18385
G1 X174.178 Y155.828 E28.22676
G1 X173.267 Y156.494 E28.27931
G1 X172.899 Y156.734 E28.29977
G1 X172.623 Y156.908 E28.31496
G1 X172.229 Y157.148 E28.33644
G1 X171.423 Y157.592 E28.37929
G1 X170.363 Y158.048 E28.43302
G1 X169.951 Y158.199 E28.45345
G1 X169.655 Y158.302 E28.46805
G1 X169.22 Y158.447 E28.4894
G1 X168.335 Y158.7 E28.53226
G1 X167.204 Y158.906 E28.58579
G1 X166.779 Y158.96 E28.60574
G1 X166.448 Y158.997 E28.62125
G1 X165.965 Y159.043 E28.64384
G1 X165.099 Y159.09 E28.68422
G1 X164.272 Y159.1 E28.72273
G1 X103.539 Y159.099 E31.55072
G1 X102.841 Y159.089 E31.58322
G1 X102.271 Y159.065 E31.60979
G1 X101.897 Y159.035 E31.62726
G1 X101.505 Y158.996 E31.6456
G1 X101.212 Y158.963 E31.65933
G1 X100.742 Y158.903 E31.68139
G1 X99.563 Y158.684 E31.73723
G1 X98.889 Y158.518 E31.76955
G1 X97.457 Y158.147 E31.83843
G1 X94.98 Y157.578 E31.95678
G1 X92.516 Y157.083 E32.0738
G1 X90.034 Y156.662 E32.19103
G1 X87.517 Y156.306 E32.3094
G1 X84.986 Y156.019 E32.42801
G1 X82.488 Y155.808 E32.54474
G1 X79.984 Y155.668 E32.66152
G1 X77.406 Y155.597 E32.7816
G1 X76.843 Y155.589 E32.80782
G1 X76.271 Y155.565 E32.83448
G1 X75.897 Y155.535 E32.85195
G1 X75.505 Y155.496 E32.87029
G1 X75.211 Y155.463 E32.88407
G1 X74.749 Y155.404 E32.90576
G1 X73.842 Y155.247 E32.94862
G1 X72.725 Y154.94 E33.00256
G1 X72.31 Y154.801 E33.02294
G1 X72.049 Y154.71 E33.03581
G1 X71.629 Y154.557 E33.05662
G1 X70.499 Y154.069 E33.11394
G1 X69.712 Y153.633 E33.15583
G1 X69.352 Y153.413 E33.17548
G1 X69.121 Y153.267 E33.1882
G1 X68.747 Y153.025 E33.20895
G1 X67.996 Y152.492 E33.25183
G1 X67.515 Y152.095 E33.28087
G1 X67.458 Y152.045 E33.2844
G1 X67.032 Y151.649 E33.31148
G1 X66.791 Y151.413 E33.32719
G1 X66.596 Y151.218 E33.34003
G1 X66.248 Y150.859 E33.36331
G1 X65.636 Y150.171 E33.40619
G1 X64.961 Y149.242 E33.45966
G1 X64.713 Y148.859 E33.48091
G1 X64.541 Y148.584 E33.49601
G1 X64.319 Y148.217 E33.51598
G1 X63.877 Y147.41 E33.55883
G1 X63.446 Y146.404 E33.60979
G1 X63.299 Y146.006 E33.62954
G1 X63.184 Y145.678 E33.64573
G1 X63.036 Y145.233 E33.66756
G1 X62.783 Y144.348 E33.71043
G1 X62.633 Y143.6 E33.74595
G1 X62.566 Y143.144 E33.76741
G1 X62.52 Y142.775 E33.78472
G1 X62.486 Y142.459 E33.79952
G1 X62.44 Y141.971 E33.82235
G1 X62.394 Y141.115 E33.86226
G1 X62.384 Y140.29 E33.90068
G1 X62.382 Y129.983 E34.38062
G1 X62.384 Y128.736 E34.43869
G1 X62.385 Y79.555 E36.72876
G1 X62.395 Y78.857 E36.76126
G1 X62.419 Y78.287 E36.78783
G1 X62.449 Y77.913 E36.8053
G1 X62.488 Y77.521 E36.82364
G1 X62.519 Y77.244 E36.83662
G1 X62.577 Y76.784 E36.85821
G1 X62.732 Y75.876 E36.9011
G1 X63.045 Y74.737 E36.95611
G1 X63.189 Y74.308 E36.97718
G1 X63.279 Y74.051 E36.98986
G1 X63.427 Y73.645 E37.00998
G1 X63.78 Y72.794 E37.05288
G1 X64.087 Y72.187 E37.08455
G1 X64.365 Y71.703 E37.11054
G1 X64.551 Y71.398 E37.12718
G1 X64.701 Y71.159 E37.14032
G1 X64.963 Y70.754 E37.16278
G1 X65.496 Y70.004 E37.20562
G1 X66.286 Y69.1 E37.26152
G1 X66.6 Y68.779 E37.28243
G1 X66.789 Y68.59 E37.29488
G0 F6000 X67.067 Y68.877
G1 F1200 X67.389 Y68.564 E37.31579
G1 X68.064 Y67.964 E37.35784
G1 X68.693 Y67.492 E37.39446
G1 X69.031 Y67.264 E37.41344
G1 X69.285 Y67.1 E37.42752
G1 X69.511 Y66.959 E37.43993
G1 X69.941 Y66.697 E37.46337
G1 X70.732 Y66.261 E37.50543
G1 X71.73 Y65.833 E37.55599
G1 X72.141 Y65.682 E37.57638
G1 X72.447 Y65.575 E37.59148
G1 X72.884 Y65.43 E37.61292
G1 X73.753 Y65.184 E37.65497
G1 X74.326 Y65.066 E37.68221
G1 X74.886 Y64.98 E37.70859
G1 X75.238 Y64.936 E37.72511
G1 X75.522 Y64.904 E37.73842
G1 X75.998 Y64.858 E37.76069
G1 X76.574 Y64.819 E37.78757
G1 X76.902 Y64.809 E37.80285
G1 X77.404 Y64.802 E37.82623
G1 X80.01 Y64.729 E37.94762
G1 X82.55 Y64.586 E38.06608
G1 X85.081 Y64.372 E38.18436
G1 X87.593 Y64.087 E38.30208
G1 X90.117 Y63.729 E38.42078
G1 X92.645 Y63.297 E38.5402
G1 X95.076 Y62.811 E38.65564
G1 X97.603 Y62.23 E38.77638
G1 X99.175 Y61.823 E38.85199
G1 X99.711 Y61.693 E38.87767
G1 X100.449 Y61.544 E38.91273
G1 X100.886 Y61.48 E38.93329
G1 X101.238 Y61.436 E38.94981
G1 X101.54 Y61.403 E38.96396
G1 X102.046 Y61.355 E38.98763
G1 X102.875 Y61.31 E39.02628
G1 X103.696 Y61.3 E39.06452
G1 X153.185 Y61.305 E41.36893
G1 X154.299 Y61.3 E41.4208
G1 X164.423 Y61.301 E41.89222
G1 X165.121 Y61.311 E41.92473
G1 X165.672 Y61.334 E41.95041
G1 X166.032 Y61.363 E41.96722
G1 X166.424 Y61.402 E41.98557
G1 X166.701 Y61.433 E41.99854
G1 X167.165 Y61.492 E42.02032
G1 X168.055 Y61.646 E42.06238
G1 X169.126 Y61.942 E42.11412
G1 X169.516 Y62.073 E42.13328
G1 X169.794 Y62.171 E42.147
G1 X170.25 Y62.339 E42.16963
G1 X171.083 Y62.688 E42.21169
G1 X172.033 Y63.201 E42.26196
G1 X172.366 Y63.404 E42.28012
G1 X172.591 Y63.545 E42.29249
G1 X173.009 Y63.815 E42.31566
G1 X173.746 Y64.338 E42.35774
G1 X174.224 Y64.735 E42.38667
G1 X174.648 Y65.127 E42.41356
G1 X174.903 Y65.377 E42.43019
G1 X175.396 Y65.879 E42.46295
G1 X175.997 Y66.552 E42.50496
G1 X176.644 Y67.436 E42.55597
G1 X176.878 Y67.795 E42.57593
G1 X177.062 Y68.089 E42.59208
G1 X177.308 Y68.496 E42.61422
G1 X177.741 Y69.289 E42.65629
G1 X177.998 Y69.858 E42.68537
G1 X178.169 Y70.293 E42.70713
G1 X178.298 Y70.645 E42.72459
