;FLAVOR:Marlin
;TIME:16566
;Filament used: 9.5377m
;Layer height: 0.2
;MINX:52.936
;MINY:64.402
;MINZ:0.2
;MAXX:179.76
;MAXY:173.308
;MAXZ:6
;Generated with Cura_SteamEngine 4.6.1
M140 S50
M105
M190 S50
M104 S205
M105
M109 S205
M82 ;absolute extrusion mode
; Ender 3 Custom Start G-code
G92 E0 ; Reset Extruder
G28 ; Home all axes
G1 Z2.0 F3000 ; Move Z Axis up little to prevent scratching of Heat Bed
G1 X0.1 Y20 Z0.3 F5000.0 ; Move to start position
G1 X0.1 Y200.0 Z0.3 F1500.0 E15 ; Draw the first line
G1 X0.4 Y200.0 Z0.3 F5000.0 ; Move to side a little
G1 X0.4 Y20 Z0.3 F1500.0 E30 ; Draw the second line
G92 E0 ; Reset Extruder
G1 Z2.0 F3000 ; Move Z Axis up little to prevent scratching of Heat Bed
G1 X5 Y20 Z0.3 F5000.0 ; Move over to prevent blob squish
G92 E0
G92 E0
G1 F2700 E-5
;LAYER_COUNT:30
;LAYER:0
M107
G0 F6000 X164.368 Y65.213 Z0.2
;TYPE:SKIRT
G1 F2700 E0
G1 F1200 X165.159 Y65.255 E0.02635
G1 X165.571 Y65.293 E0.04011
G1 X165.905 Y65.329 E0.05128
G1 X166.351 Y65.385 E0.06623
G1 X167.241 Y65.538 E0.09627
G1 X168.131 Y65.773 E0.12688
G1 X168.501 Y65.889 E0.13978
G1 X168.923 Y66.032 E0.1546
G1 X169.42 Y66.212 E0.17218
G1 X170.255 Y66.556 E0.20222
G1 X171.176 Y67.044 E0.23688
G1 X171.516 Y67.247 E0.25005
G1 X171.787 Y67.415 E0.26066
G1 X172.204 Y67.682 E0.27713
G1 X172.942 Y68.202 E0.30716
G1 X173.785 Y68.93 E0.3442
G1 X174.304 Y69.436 E0.36831
G1 X174.622 Y69.761 E0.38343
G1 X175.224 Y70.434 E0.41347
G1 X175.822 Y71.243 E0.44693
G1 X176.045 Y71.578 E0.46031
G1 X176.236 Y71.876 E0.47208
G1 X176.495 Y72.296 E0.4885
G1 X176.934 Y73.085 E0.51853
G1 X177.367 Y74.079 E0.55459
G1 X177.521 Y74.491 E0.56922
G1 X177.632 Y74.803 E0.58023
G1 X177.777 Y75.233 E0.59532
G1 X178.028 Y76.1 E0.62535
G1 X178.216 Y77.095 E0.65902
G1 X178.272 Y77.5 E0.67262
G1 X178.314 Y77.853 E0.68445
G1 X178.361 Y78.31 E0.69973
G1 X178.414 Y79.19 E0.72905
G1 X178.428 Y80.159 E0.76128
G1 X178.43 Y95.821 E1.2822
G1 X178.406 Y97.501 E1.33808
G1 X178.406 Y100.105 E1.42469
G1 X178.478 Y102.649 E1.50934
G1 X178.621 Y105.194 E1.59412
G1 X178.894 Y108.305 E1.69799
G1 X178.946 Y109.183 E1.72725
G1 X178.958 Y110.055 E1.75625
G1 X178.96 Y125.782 E2.27933
G1 X178.95 Y126.498 E2.30315
G1 X178.924 Y127.096 E2.32306
G1 X178.793 Y128.9 E2.38322
G1 X178.657 Y131.438 E2.46775
G1 X178.591 Y134.013 E2.55343
G1 X178.6 Y136.549 E2.63777
G1 X178.678 Y139.071 E2.7217
G1 X178.726 Y139.919 E2.74995
G1 X178.776 Y141.111 E2.78963
G1 X178.788 Y142.007 E2.81943
G1 X178.79 Y157.713 E3.34181
G1 X178.78 Y158.446 E3.3662
G1 X178.735 Y159.276 E3.39384
G1 X178.663 Y159.978 E3.41731
G1 X178.604 Y160.447 E3.43304
G1 X178.452 Y161.337 E3.46307
G1 X178.19 Y162.309 E3.49655
G1 X178.055 Y162.727 E3.51116
G1 X177.929 Y163.093 E3.52403
G1 X177.766 Y163.539 E3.53983
G1 X177.419 Y164.373 E3.56987
G1 X176.914 Y165.316 E3.60545
G1 X176.706 Y165.66 E3.61882
G1 X176.531 Y165.939 E3.62977
G1 X176.262 Y166.353 E3.64619
G1 X175.737 Y167.088 E3.67624
G1 X175.06 Y167.868 E3.71059
G1 X174.781 Y168.158 E3.72397
G1 X174.545 Y168.395 E3.7351
G1 X174.205 Y168.726 E3.75088
G1 X173.531 Y169.326 E3.78089
G1 X172.715 Y169.925 E3.81456
G1 X172.352 Y170.165 E3.82903
G1 X172.018 Y170.378 E3.84221
G1 X171.629 Y170.614 E3.85734
G1 X170.837 Y171.047 E3.88736
G1 X169.925 Y171.442 E3.92042
G1 X169.523 Y171.593 E3.9347
G1 X169.187 Y171.712 E3.94656
G1 X168.732 Y171.865 E3.96253
G1 X167.864 Y172.115 E3.99257
G1 X166.794 Y172.312 E4.02875
G1 X166.378 Y172.366 E4.04271
G1 X166.069 Y172.401 E4.05305
G1 X165.614 Y172.446 E4.06826
G1 X164.776 Y172.495 E4.09618
G1 X163.874 Y172.508 E4.12618
G1 X103.298 Y172.508 E6.14095
G1 X103.152 Y172.507 E6.1458
G1 X102.454 Y172.497 E6.16902
G1 X101.609 Y172.45 E6.19717
G1 X100.846 Y172.371 E6.22268
G1 X100.428 Y172.318 E6.2367
G1 X99.538 Y172.165 E6.26673
G1 X98.515 Y171.885 E6.30201
G1 X98.121 Y171.755 E6.31581
G1 X97.801 Y171.644 E6.32707
G1 X97.21 Y171.426 E6.34802
G1 X94.598 Y170.427 E6.44104
G1 X92.234 Y169.599 E6.52435
G1 X89.798 Y168.822 E6.60939
G1 X87.373 Y168.124 E6.69332
G1 X84.894 Y167.486 E6.77846
G1 X82.39 Y166.915 E6.86388
G1 X79.97 Y166.438 E6.94592
G1 X77.42 Y166.008 E7.03193
G1 X74.922 Y165.659 E7.11582
G1 X72.369 Y165.375 E7.20126
G1 X69.884 Y165.17 E7.28419
G1 X67.417 Y165.034 E7.36637
G1 X67.068 Y165.008 E7.37801
G1 X66.622 Y164.968 E7.3929
G1 X66.262 Y164.93 E7.40494
G1 X65.816 Y164.874 E7.41989
G1 X64.926 Y164.721 E7.44993
G1 X64.036 Y164.486 E7.48054
G1 X63.666 Y164.37 E7.49344
G1 X63.242 Y164.227 E7.50832
G1 X62.748 Y164.048 E7.5258
G1 X61.914 Y163.703 E7.55582
G1 X61.013 Y163.227 E7.58971
G1 X60.668 Y163.022 E7.60306
G1 X60.37 Y162.838 E7.61471
G1 X59.957 Y162.573 E7.63103
G1 X59.219 Y162.052 E7.66107
G1 X58.406 Y161.351 E7.69678
G1 X57.928 Y160.886 E7.71896
G1 X57.563 Y160.515 E7.73627
G1 X56.959 Y159.844 E7.7663
G1 X56.319 Y158.977 E7.80214
G1 X55.897 Y158.328 E7.82789
G1 X55.665 Y157.95 E7.84264
G1 X55.227 Y157.16 E7.87268
G1 X54.811 Y156.205 E7.90733
G1 X54.644 Y155.761 E7.9231
G1 X54.527 Y155.433 E7.93469
G1 X54.398 Y155.051 E7.9481
G1 X54.147 Y154.184 E7.97812
G1 X53.969 Y153.261 E8.00938
G1 X53.902 Y152.802 E8.02481
G1 X53.847 Y152.363 E8.03953
G1 X53.803 Y151.931 E8.05397
G1 X53.754 Y151.129 E8.08069
G1 X53.736 Y150.238 E8.11033
G1 X53.736 Y89.564 E10.12836
G1 X53.737 Y89.418 E10.13322
G1 X53.747 Y88.72 E10.15643
G1 X53.792 Y87.895 E10.18391
G1 X53.834 Y87.456 E10.19858
G1 X53.869 Y87.147 E10.20893
G1 X53.923 Y86.72 E10.22324
G1 X54.075 Y85.83 E10.25327
G1 X54.318 Y84.919 E10.28463
G1 X54.433 Y84.556 E10.29729
G1 X54.564 Y84.17 E10.31085
G1 X54.744 Y83.672 E10.32846
G1 X55.089 Y82.837 E10.35851
G1 X55.595 Y81.883 E10.39443
G1 X55.797 Y81.547 E10.40747
G1 X55.966 Y81.277 E10.41807
G1 X56.238 Y80.855 E10.43476
G1 X56.76 Y80.118 E10.4648
G1 X57.438 Y79.332 E10.49933
G1 X57.721 Y79.036 E10.51295
G1 X57.969 Y78.786 E10.52466
G1 X58.305 Y78.458 E10.54028
G1 X58.978 Y77.857 E10.57029
G1 X59.755 Y77.282 E10.60244
G1 X60.091 Y77.057 E10.61589
G1 X60.425 Y76.842 E10.6291
G1 X60.848 Y76.582 E10.64561
G1 X61.637 Y76.144 E10.67563
G1 X62.613 Y75.719 E10.71103
G1 X62.995 Y75.576 E10.7246
G1 X63.302 Y75.467 E10.73544
G1 X63.769 Y75.309 E10.75183
G1 X64.637 Y75.058 E10.78189
G1 X65.736 Y74.854 E10.81906
G1 X66.412 Y74.771 E10.84172
G1 X66.818 Y74.73 E10.85529
G1 X69.387 Y74.432 E10.94131
G1 X71.932 Y74.064 E11.02683
G1 X74.39 Y73.636 E11.10982
G1 X76.912 Y73.125 E11.1954
G1 X79.353 Y72.558 E11.27875
G1 X81.822 Y71.91 E11.36365
G1 X84.294 Y71.185 E11.44934
G1 X86.674 Y70.414 E11.53254
G1 X89.098 Y69.552 E11.61811
G1 X91.422 Y68.651 E11.70102
G1 X93.793 Y67.652 E11.78659
G1 X96.283 Y66.523 E11.87752
G1 X96.936 Y66.254 E11.90101
G1 X97.636 Y65.998 E11.9258
G1 X98.039 Y65.862 E11.93995
G1 X98.906 Y65.612 E11.96996
G1 X99.851 Y65.43 E12.00197
G1 X100.304 Y65.365 E12.01719
G1 X100.727 Y65.314 E12.03136
G1 X101.192 Y65.267 E12.04691
G1 X101.982 Y65.218 E12.07323
G1 X102.779 Y65.202 E12.09975
G1 X163.524 Y65.202 E14.12013
G1 X163.67 Y65.203 E14.12499
G1 X164.368 Y65.213 E14.14821
G0 F6000 X164.374 Y64.813
G1 F1200 X165.196 Y64.857 E14.17558
G1 X165.608 Y64.895 E14.18935
G1 X165.955 Y64.933 E14.20096
G1 X166.401 Y64.989 E14.21591
G1 X167.308 Y65.143 E14.24651
G1 X168.251 Y65.391 E14.27894
G1 X168.621 Y65.507 E14.29183
G1 X169.06 Y65.656 E14.30725
G1 X169.557 Y65.836 E14.32483
G1 X170.408 Y66.186 E14.35544
G1 X171.381 Y66.701 E14.39205
G1 X172.003 Y67.078 E14.41625
G1 X172.42 Y67.345 E14.43271
G1 X173.173 Y67.875 E14.46334
G1 X174.062 Y68.642 E14.50239
G1 X174.589 Y69.157 E14.5269
G1 X174.907 Y69.482 E14.54202
G1 X175.522 Y70.167 E14.57264
G1 X176.155 Y71.021 E14.608
G1 X176.378 Y71.356 E14.62138
G1 X176.576 Y71.666 E14.63362
G1 X176.835 Y72.086 E14.65003
G1 X177.284 Y72.89 E14.68066
G1 X177.742 Y73.939 E14.71873
G1 X177.896 Y74.351 E14.73336
G1 X178.011 Y74.675 E14.74479
G1 X178.156 Y75.105 E14.75989
G1 X178.412 Y75.989 E14.7905
G1 X178.612 Y77.04 E14.82608
G1 X178.668 Y77.445 E14.83968
G1 X178.712 Y77.813 E14.852
G1 X178.759 Y78.27 E14.86729
G1 X178.814 Y79.183 E14.89771
G1 X178.828 Y80.159 E14.93017
G1 X178.83 Y95.826 E15.45126
G1 X178.806 Y97.506 E15.50714
G1 X178.806 Y100.094 E15.59322
G1 X178.878 Y102.649 E15.67823
G1 X179.018 Y105.137 E15.76111
G1 X179.292 Y108.265 E15.86555
G1 X179.346 Y109.177 E15.89594
G1 X179.358 Y110.055 E15.92514
G1 X179.36 Y125.788 E16.44842
G1 X179.35 Y126.504 E16.47224
G1 X179.323 Y127.125 E16.49291
G1 X179.194 Y128.897 E16.55201
G1 X179.057 Y131.471 E16.63774
G1 X178.992 Y134.022 E16.72261
G1 X179 Y136.535 E16.8062
G1 X179.079 Y139.073 E16.89065
G1 X179.126 Y139.901 E16.91824
G1 X179.176 Y141.105 E16.95832
G1 X179.188 Y142.007 E16.98832
G1 X179.19 Y157.719 E17.5109
G1 X179.18 Y158.452 E17.53528
G1 X179.133 Y159.314 E17.564
G1 X179.06 Y160.028 E17.58787
G1 X179.001 Y160.497 E17.60359
G1 X178.847 Y161.405 E17.63422
G1 X178.571 Y162.432 E17.66959
G1 X178.436 Y162.85 E17.6842
G1 X178.305 Y163.231 E17.6976
G1 X178.142 Y163.677 E17.7134
G1 X177.789 Y164.527 E17.74401
G1 X177.257 Y165.523 E17.78156
G1 X177.049 Y165.867 E17.79493
G1 X176.866 Y166.157 E17.80634
G1 X176.597 Y166.571 E17.82276
G1 X176.063 Y167.321 E17.85338
G1 X175.348 Y168.145 E17.88967
G1 X175.069 Y168.435 E17.90305
G1 X174.824 Y168.681 E17.9146
G1 X174.484 Y169.012 E17.93038
G1 X173.797 Y169.625 E17.96101
G1 X172.936 Y170.259 E17.99657
G1 X172.573 Y170.499 E18.01104
G1 X172.225 Y170.72 E18.02475
G1 X171.836 Y170.956 E18.03989
G1 X171.029 Y171.398 E18.07049
G1 X170.065 Y171.816 E18.10544
G1 X169.663 Y171.967 E18.11972
G1 X169.315 Y172.091 E18.13201
G1 X168.86 Y172.244 E18.14797
G1 X167.975 Y172.499 E18.17861
G1 X166.846 Y172.709 E18.2168
G1 X166.108 Y172.8 E18.24153
G1 X165.653 Y172.845 E18.25674
G1 X164.783 Y172.895 E18.28572
G1 X163.874 Y172.908 E18.31596
G1 X103.298 Y172.908 E20.33073
G1 X103.146 Y172.907 E20.33578
G1 X102.448 Y172.897 E20.359
G1 X101.57 Y172.848 E20.38825
G1 X100.796 Y172.768 E20.41413
G1 X100.378 Y172.715 E20.42814
G1 X99.47 Y172.559 E20.45879
G1 X98.39 Y172.265 E20.49601
G1 X97.996 Y172.135 E20.50981
G1 X97.663 Y172.019 E20.52154
G1 X97.067 Y171.8 E20.54266
G1 X94.471 Y170.807 E20.63511
G1 X92.075 Y169.968 E20.71954
G1 X89.704 Y169.212 E20.80231
G1 X87.236 Y168.501 E20.88774
G1 X84.82 Y167.879 E20.97071
G1 X82.328 Y167.311 E21.05572
G1 X79.856 Y166.824 E21.13952
G1 X77.37 Y166.404 E21.22338
G1 X74.859 Y166.054 E21.3077
G1 X72.363 Y165.777 E21.39123
G1 X69.829 Y165.567 E21.4758
G1 X67.395 Y165.433 E21.55688
G1 X67.032 Y165.407 E21.56898
G1 X66.586 Y165.367 E21.58388
G1 X66.212 Y165.326 E21.59639
G1 X65.766 Y165.27 E21.61134
G1 X64.859 Y165.116 E21.64194
G1 X63.916 Y164.868 E21.67437
G1 X63.546 Y164.752 E21.68727
G1 X63.106 Y164.603 E21.70272
G1 X62.612 Y164.424 E21.72019
G1 X61.761 Y164.073 E21.75081
G1 X60.808 Y163.571 E21.78664
G1 X60.463 Y163.366 E21.79998
G1 X60.154 Y163.174 E21.81208
G1 X59.741 Y162.909 E21.8284
G1 X58.988 Y162.379 E21.85903
G1 X58.13 Y161.64 E21.89669
G1 X57.643 Y161.167 E21.91927
G1 X57.278 Y160.796 E21.93658
G1 X56.661 Y160.112 E21.96722
G1 X55.985 Y159.198 E22.00503
G1 X55.741 Y158.828 E22.01977
G1 X55.556 Y158.537 E22.03124
G1 X55.324 Y158.159 E22.046
G1 X54.877 Y157.354 E22.07662
G1 X54.437 Y156.346 E22.1132
G1 X54.27 Y155.902 E22.12898
G1 X54.148 Y155.561 E22.14102
G1 X54.019 Y155.179 E22.15444
G1 X53.763 Y154.295 E22.18505
G1 X53.573 Y153.319 E22.21812
G1 X53.506 Y152.86 E22.23354
G1 X53.45 Y152.403 E22.24886
G1 X53.406 Y151.971 E22.2633
G1 X53.354 Y151.138 E22.29106
G1 X53.336 Y150.238 E22.321
G1 X53.336 Y89.564 E24.33903
G1 X53.337 Y89.412 E24.34408
G1 X53.347 Y88.714 E24.3673
G1 X53.394 Y87.856 E24.39588
G1 X53.436 Y87.417 E24.41055
G1 X53.472 Y87.097 E24.42126
G1 X53.526 Y86.67 E24.43557
G1 X53.681 Y85.763 E24.46618
G1 X53.937 Y84.799 E24.49935
G1 X54.052 Y84.436 E24.51202
G1 X54.188 Y84.034 E24.52613
G1 X54.368 Y83.536 E24.54374
G1 X54.718 Y82.684 E24.57438
G1 X55.252 Y81.677 E24.61229
G1 X55.454 Y81.341 E24.62533
G1 X55.629 Y81.06 E24.63634
G1 X55.901 Y80.638 E24.65304
G1 X56.433 Y79.887 E24.68365
G1 X57.149 Y79.056 E24.72013
G1 X57.432 Y78.76 E24.73375
G1 X57.69 Y78.5 E24.74594
G1 X58.026 Y78.172 E24.76155
G1 X58.712 Y77.558 E24.79217
G1 X59.532 Y76.949 E24.82615
G1 X59.868 Y76.724 E24.8396
G1 X60.215 Y76.501 E24.85332
G1 X60.638 Y76.241 E24.86983
G1 X61.443 Y75.794 E24.90045
G1 X62.473 Y75.345 E24.93783
G1 X62.855 Y75.202 E24.95139
G1 X63.174 Y75.088 E24.96266
G1 X63.641 Y74.93 E24.97906
G1 X64.525 Y74.673 E25.00968
G1 X65.685 Y74.458 E25.04892
G1 X66.371 Y74.373 E25.07191
G1 X66.798 Y74.33 E25.08618
G1 X69.325 Y74.037 E25.17079
G1 X71.844 Y73.672 E25.25545
G1 X74.349 Y73.237 E25.34001
G1 X76.806 Y72.739 E25.42339
G1 X79.275 Y72.165 E25.5077
G1 X81.713 Y71.525 E25.59154
G1 X84.164 Y70.806 E25.67649
G1 X86.554 Y70.033 E25.76004
G1 X88.955 Y69.178 E25.84481
G1 X91.301 Y68.268 E25.9285
G1 X93.622 Y67.291 E26.01226
G1 X96.118 Y66.159 E26.10342
G1 X96.797 Y65.879 E26.12785
G1 X97.508 Y65.619 E26.15302
G1 X97.911 Y65.483 E26.16717
G1 X98.795 Y65.227 E26.19778
G1 X99.794 Y65.034 E26.23162
G1 X100.247 Y64.969 E26.24684
G1 X100.687 Y64.916 E26.26158
G1 X101.152 Y64.869 E26.27713
G1 X101.972 Y64.818 E26.30445
G1 X102.779 Y64.802 E26.3313
G1 X163.524 Y64.802 E28.35169
G1 X163.676 Y64.803 E28.35674
G1 X164.374 Y64.813 E28.37996
G0 F6000 X164.38 Y64.413
G1 F1200 X165.232 Y64.458 E28.40834
G1 X165.644 Y64.496 E28.4221
G1 X166.004 Y64.536 E28.43415
G1 X166.45 Y64.592 E28.4491
G1 X167.375 Y64.748 E28.4803
G1 X168.371 Y65.01 E28.51455
G1 X168.741 Y65.126 E28.52745
G1 X169.196 Y65.279 E28.54341
G1 X169.693 Y65.459 E28.561
G1 X170.56 Y65.816 E28.59218
G1 X171.586 Y66.357 E28.63076
G1 X171.926 Y66.56 E28.64393
G1 X172.218 Y66.741 E28.65536
G1 X172.635 Y67.008 E28.67183
G1 X173.403 Y67.547 E28.70303
G1 X174.34 Y68.354 E28.74416
G1 X174.649 Y68.652 E28.75844
G1 X174.875 Y68.877 E28.76905
G1 X175.193 Y69.202 E28.78417
G1 X175.82 Y69.9 E28.81538
G1 X176.488 Y70.8 E28.85266
G1 X176.711 Y71.135 E28.86604
G1 X176.917 Y71.456 E28.87873
G1 X177.176 Y71.876 E28.89514
G1 X177.634 Y72.695 E28.92635
G1 X178.117 Y73.799 E28.96643
G1 X178.271 Y74.211 E28.98106
G1 X178.39 Y74.547 E28.99291
G1 X178.535 Y74.977 E29.00801
G1 X178.797 Y75.878 E29.03921
G1 X179.008 Y76.985 E29.0767
G1 X179.064 Y77.39 E29.0903
G1 X179.11 Y77.772 E29.10309
G1 X179.157 Y78.229 E29.11837
G1 X179.214 Y79.177 E29.14996
G1 X179.228 Y80.159 E29.18262
G1 X179.23 Y95.832 E29.70391
G1 X179.206 Y97.512 E29.75979
G1 X179.206 Y100.083 E29.84531
G1 X179.278 Y102.616 E29.92959
G1 X179.42 Y105.147 E30.0139
G1 X179.69 Y108.224 E30.11664
G1 X179.746 Y109.17 E30.14815
G1 X179.758 Y110.055 E30.17759
G1 X179.76 Y125.794 E30.70107
G1 X179.75 Y126.51 E30.72489
G1 X179.722 Y127.154 E30.74633
G1 X179.591 Y128.948 E30.80616
G1 X179.455 Y131.502 E30.89122
G1 X179.391 Y133.995 E30.97417
G1 X179.399 Y136.522 E31.05822
G1 X179.479 Y139.072 E31.14307
G1 X179.526 Y139.882 E31.17006
G1 X179.566 Y140.76 E31.19929
G1 X179.576 Y141.099 E31.21057
G1 X179.588 Y142.007 E31.24077
G1 X179.59 Y157.724 E31.76352
G1 X179.58 Y158.457 E31.78791
G1 X179.531 Y159.352 E31.81772
G1 X179.457 Y160.078 E31.84199
G1 X179.398 Y160.547 E31.85771
G1 X179.241 Y161.472 E31.88892
G1 X178.952 Y162.555 E31.9262
G1 X178.817 Y162.973 E31.94081
G1 X178.681 Y163.368 E31.9547
G1 X178.518 Y163.814 E31.9705
G1 X178.158 Y164.68 E32.00169
G1 X177.599 Y165.73 E32.04125
G1 X177.391 Y166.074 E32.05462
G1 X177.202 Y166.375 E32.06645
G1 X176.933 Y166.789 E32.08287
G1 X176.389 Y167.553 E32.11406
G1 X175.636 Y168.422 E32.15231
G1 X175.357 Y168.712 E32.16569
G1 X175.103 Y168.968 E32.17768
G1 X174.763 Y169.299 E32.19347
G1 X174.064 Y169.924 E32.22465
G1 X173.157 Y170.593 E32.26214
G1 X172.794 Y170.833 E32.27661
G1 X172.433 Y171.062 E32.29083
G1 X172.044 Y171.298 E32.30597
G1 X171.222 Y171.749 E32.33715
G1 X170.206 Y172.191 E32.374
G1 X169.804 Y172.342 E32.38828
G1 X169.442 Y172.47 E32.40105
G1 X168.987 Y172.623 E32.41702
G1 X168.086 Y172.884 E32.44822
G1 X166.897 Y173.105 E32.48844
G1 X166.148 Y173.198 E32.51355
G1 X165.693 Y173.243 E32.52875
G1 X164.789 Y173.295 E32.55887
G1 X163.874 Y173.308 E32.58931
G1 X103.298 Y173.308 E34.60407
