;FLAVOR:Marlin
;TIME:10977
;Filament used: 10.1699m
;Layer height: 0.28
;MINX:58.899
;MINY:60.5
;MINZ:0.28
;MAXX:176.901
;MAXY:159.5
;MAXZ:5.88
;Generated with Cura_SteamEngine 4.8.0
M140 S60
M105
M190 S60
M104 S205
M105
M109 S205
M82 ;absolute extrusion mode
; Ender 3 Custom Start G-code
G92 E0 ; Reset Extruder
G28 ; Home all axes
G1 Z2.0 F3000 ; Move Z Axis up little to prevent scratching of Heat Bed
G1 X0.1 Y20 Z0.3 F5000.0 ; Move to start position
G1 X0.1 Y200.0 Z0.3 F1500.0 E15 ; Draw the first line
G1 X0.4 Y200.0 Z0.3 F5000.0 ; Move to side a little
G1 X0.4 Y20 Z0.3 F1500.0 E30 ; Draw the second line
G92 E0 ; Reset Extruder
G1 Z2.0 F3000 ; Move Z Axis up little to prevent scratching of Heat Bed
G1 X5 Y20 Z0.3 F5000.0 ; Move over to prevent blob squish
G92 E0
G92 E0
G1 F2400 E-6.5
;LAYER_COUNT:21
;LAYER:0
M107
G0 F6000 X63.734 Y68.004 Z0.28
;TYPE:SKIRT
G1 F2400 E0
G1 F1200 X64.433 Y67.379 E0.04366
G1 X65.131 Y66.852 E0.08439
G1 X65.486 Y66.612 E0.10434
G1 X65.77 Y66.428 E0.1201
G1 X66.042 Y66.257 E0.13506
G1 X66.462 Y66.002 E0.15794
G1 X67.284 Y65.55 E0.20162
G1 X68.373 Y65.081 E0.25683
G1 X68.778 Y64.932 E0.27692
G1 X69.112 Y64.816 E0.29339
G1 X69.549 Y64.671 E0.31483
G1 X70.451 Y64.414 E0.3585
G1 X71.045 Y64.288 E0.38677
G1 X71.1 Y64.278 E0.38938
G1 X71.704 Y64.186 E0.41783
G1 X72.056 Y64.142 E0.43434
G1 X72.357 Y64.108 E0.44845
G1 X72.831 Y64.062 E0.47062
G1 X73.402 Y64.022 E0.49728
G1 X73.807 Y64.009 E0.51615
G1 X74.289 Y64.002 E0.53859
G1 X76.895 Y63.929 E0.65999
G1 X79.424 Y63.787 E0.77793
G1 X81.913 Y63.577 E0.89424
G1 X84.415 Y63.293 E1.01149
G1 X86.931 Y62.935 E1.12983
G1 X89.407 Y62.513 E1.24679
G1 X91.834 Y62.027 E1.36204
G1 X94.326 Y61.454 E1.48111
G1 X96.075 Y61.003 E1.56521
G1 X96.441 Y60.915 E1.58274
G1 X97.237 Y60.754 E1.62055
G1 X97.704 Y60.686 E1.64253
G1 X98.056 Y60.642 E1.65905
G1 X98.379 Y60.606 E1.67418
G1 X98.884 Y60.558 E1.6978
G1 X99.781 Y60.51 E1.73963
G1 X100.613 Y60.5 E1.77837
G1 X150.099 Y60.505 E4.08265
G1 X151.213 Y60.5 E4.13452
G1 X161.352 Y60.501 E4.60664
G1 X162.05 Y60.511 E4.63914
G1 X162.64 Y60.535 E4.66664
G1 X163.028 Y60.567 E4.68477
G1 X163.42 Y60.606 E4.70311
G1 X163.724 Y60.641 E4.71736
G1 X164.186 Y60.7 E4.73905
G1 X165.111 Y60.858 E4.78274
G1 X166.287 Y61.181 E4.83953
G1 X166.702 Y61.32 E4.85991
G1 X167.011 Y61.428 E4.87515
G1 X167.448 Y61.589 E4.89684
G1 X168.313 Y61.951 E4.9405
G1 X169.388 Y62.529 E4.99733
G1 X169.749 Y62.75 E5.01704
G1 X169.988 Y62.901 E5.0302
G1 X170.363 Y63.144 E5.05101
G1 X171.127 Y63.687 E5.09466
G1 X171.659 Y64.127 E5.1268
G1 X171.71 Y64.172 E5.12997
G1 X172.116 Y64.548 E5.15574
G1 X172.367 Y64.793 E5.17207
G1 X172.553 Y64.98 E5.18435
G1 X172.886 Y65.321 E5.20655
G1 X173.512 Y66.019 E5.2502
G1 X174.098 Y66.8 E5.29567
G1 X174.295 Y67.094 E5.31215
G1 X174.476 Y67.374 E5.32767
G1 X174.621 Y67.605 E5.34037
G1 X174.878 Y68.025 E5.3633
G1 X175.333 Y68.845 E5.40697
G1 X175.82 Y69.972 E5.46413
G1 X175.967 Y70.372 E5.48398
G1 X176.082 Y70.702 E5.50025
G1 X176.23 Y71.148 E5.52213
G1 X176.487 Y72.049 E5.56576
G1 X176.616 Y72.663 E5.59497
G1 X176.715 Y73.302 E5.62508
G1 X176.759 Y73.654 E5.6416
G1 X176.792 Y73.948 E5.65538
G1 X176.839 Y74.429 E5.67788
G1 X176.89 Y75.345 E5.7206
G1 X176.901 Y76.212 E5.76098
G1 X176.9 Y91.953 E6.49394
G1 X176.89 Y92.642 E6.52603
G1 X176.882 Y92.938 E6.53982
G1 X176.874 Y93.135 E6.549
G1 X176.8 Y95.744 E6.67053
G1 X176.8 Y98.248 E6.78713
G1 X176.869 Y100.766 E6.90442
G1 X176.882 Y101.079 E6.91901
G1 X176.891 Y101.39 E6.9335
G1 X176.901 Y102.212 E6.97177
G1 X176.9 Y117.953 E7.70474
G1 X176.89 Y118.642 E7.73683
G1 X176.882 Y118.938 E7.75062
G1 X176.874 Y119.135 E7.7598
G1 X176.8 Y121.744 E7.88133
G1 X176.8 Y124.248 E7.99793
G1 X176.869 Y126.766 E8.11522
G1 X176.882 Y127.079 E8.12981
G1 X176.891 Y127.39 E8.1443
G1 X176.901 Y128.212 E8.18257
G1 X176.9 Y143.951 E8.91545
G1 X176.89 Y144.648 E8.94791
G1 X176.841 Y145.535 E8.98927
G1 X176.799 Y145.975 E9.00985
G1 X176.761 Y146.318 E9.02592
G1 X176.702 Y146.782 E9.0477
G1 X176.544 Y147.706 E9.09135
G1 X176.223 Y148.88 E9.14802
G1 X176.087 Y149.287 E9.16801
G1 X175.977 Y149.602 E9.18354
G1 X175.815 Y150.042 E9.20538
G1 X175.453 Y150.907 E9.24904
G1 X174.872 Y151.987 E9.30614
G1 X174.649 Y152.351 E9.32602
G1 X174.508 Y152.575 E9.33834
G1 X174.267 Y152.948 E9.35902
G1 X173.725 Y153.713 E9.40268
G1 X173.25 Y154.286 E9.43734
G1 X173.202 Y154.34 E9.4407
G1 X172.852 Y154.715 E9.46459
G1 X172.608 Y154.965 E9.48085
G1 X172.41 Y155.163 E9.49389
G1 X172.068 Y155.496 E9.51612
G1 X171.369 Y156.121 E9.55978
G1 X170.671 Y156.648 E9.6005
G1 X170.316 Y156.888 E9.62046
G1 X170.032 Y157.072 E9.63622
G1 X169.787 Y157.226 E9.64969
G1 X169.373 Y157.479 E9.67228
G1 X168.553 Y157.934 E9.71595
G1 X167.43 Y158.418 E9.77289
G1 X167.019 Y158.569 E9.79328
G1 X166.69 Y158.684 E9.80951
G1 X166.253 Y158.829 E9.83095
G1 X165.351 Y159.086 E9.87462
G1 X164.757 Y159.212 E9.90289
G1 X164.702 Y159.222 E9.9055
G1 X164.098 Y159.314 E9.93395
G1 X163.746 Y159.358 E9.95046
G1 X163.423 Y159.394 E9.9656
G1 X162.918 Y159.442 E9.98922
G1 X162.021 Y159.49 E10.03105
G1 X161.189 Y159.5 E10.06979
G1 X100.45 Y159.499 E12.89805
G1 X99.752 Y159.489 E12.93056
G1 X99.162 Y159.465 E12.95805
G1 X98.774 Y159.433 E12.97618
G1 X98.382 Y159.394 E12.99453
G1 X98.078 Y159.359 E13.00877
G1 X97.608 Y159.299 E13.03084
G1 X96.385 Y159.072 E13.08876
G1 X95.706 Y158.905 E13.12132
G1 X94.29 Y158.538 E13.18943
G1 X91.808 Y157.968 E13.30801
G1 X89.353 Y157.475 E13.42461
G1 X86.9 Y157.059 E13.54046
G1 X84.37 Y156.701 E13.65944
G1 X81.895 Y156.421 E13.77542
G1 X79.382 Y156.208 E13.89286
G1 X76.868 Y156.068 E14.0101
G1 X74.307 Y155.997 E14.1294
G1 X73.754 Y155.989 E14.15515
G1 X73.162 Y155.965 E14.18274
G1 X72.774 Y155.933 E14.20087
G1 X72.382 Y155.894 E14.21921
G1 X72.078 Y155.859 E14.23346
G1 X71.616 Y155.8 E14.25515
G1 X70.691 Y155.642 E14.29885
G1 X69.515 Y155.319 E14.35563
G1 X69.1 Y155.18 E14.37601
G1 X68.829 Y155.086 E14.38937
G1 X68.409 Y154.933 E14.41018
G1 X67.237 Y154.427 E14.46962
G1 X66.42 Y153.974 E14.51312
G1 X66.06 Y153.754 E14.53277
G1 X65.82 Y153.603 E14.54597
G1 X65.446 Y153.361 E14.56672
G1 X64.681 Y152.819 E14.61037
G1 X64.168 Y152.395 E14.64136
G1 X64.111 Y152.345 E14.64489
G1 X63.667 Y151.933 E14.6731
G1 X63.42 Y151.691 E14.6892
G1 X63.237 Y151.507 E14.70128
G1 X62.905 Y151.166 E14.72344
G1 X62.28 Y150.467 E14.76711
G1 X61.753 Y149.77 E14.80779
G1 X61.518 Y149.423 E14.82731
G1 X61.333 Y149.138 E14.84313
G1 X61.159 Y148.861 E14.85836
G1 X60.905 Y148.443 E14.88114
G1 X60.453 Y147.622 E14.92478
G1 X59.979 Y146.521 E14.98059
G1 X59.83 Y146.115 E15.00073
G1 X59.724 Y145.811 E15.01572
G1 X59.578 Y145.374 E15.03718
G1 X59.319 Y144.472 E15.08087
G1 X59.155 Y143.664 E15.11927
G1 X59.086 Y143.19 E15.14157
G1 X59.042 Y142.836 E15.15818
G1 X59.008 Y142.524 E15.17279
G1 X58.96 Y142.021 E15.19632
G1 X58.911 Y141.12 E15.23834
G1 X58.901 Y140.29 E15.27699
G1 X58.899 Y129.982 E15.75697
G1 X58.901 Y128.735 E15.81504
G1 X58.902 Y79.549 E18.10535
G1 X58.912 Y78.851 E18.13785
G1 X58.936 Y78.261 E18.16535
G1 X58.968 Y77.873 E18.18347
G1 X59.007 Y77.481 E18.20182
G1 X59.039 Y77.194 E18.21526
G1 X59.097 Y76.734 E18.23685
G1 X59.254 Y75.809 E18.28054
G1 X59.583 Y74.609 E18.33848
G1 X59.723 Y74.192 E18.35896
G1 X59.813 Y73.934 E18.37169
G1 X59.965 Y73.516 E18.3924
G1 X60.474 Y72.336 E18.45224
G1 X60.927 Y71.519 E18.49574
G1 X61.147 Y71.159 E18.51538
G1 X61.298 Y70.919 E18.52859
G1 X61.54 Y70.545 E18.54933
G1 X62.082 Y69.78 E18.59298
G1 X62.536 Y69.233 E18.62608
G1 X62.582 Y69.181 E18.62932
G1 X62.949 Y68.785 E18.65446
G1 X63.194 Y68.534 E18.67079
G1 X63.392 Y68.337 E18.6838
G1 X63.734 Y68.004 E18.70602
G0 F6000 X64.013 Y68.29
G1 F1200 X64.7 Y67.677 E18.7489
G1 X65.359 Y67.18 E18.78733
G1 X65.703 Y66.948 E18.80665
G1 X65.987 Y66.764 E18.82241
G1 X66.25 Y66.599 E18.83686
G1 X66.67 Y66.344 E18.85974
G1 X67.477 Y65.901 E18.90261
G1 X68.511 Y65.457 E18.95501
G1 X68.916 Y65.308 E18.9751
G1 X69.238 Y65.195 E18.99099
G1 X69.675 Y65.05 E19.01243
G1 X70.56 Y64.799 E19.05527
G1 X71.172 Y64.672 E19.08437
G1 X71.753 Y64.583 E19.11174
G1 X72.105 Y64.539 E19.12826
G1 X72.396 Y64.507 E19.14189
G1 X72.87 Y64.461 E19.16407
G1 X73.42 Y64.422 E19.18974
G1 X73.813 Y64.409 E19.20805
G1 X74.305 Y64.402 E19.23096
G1 X76.928 Y64.329 E19.35315
G1 X79.447 Y64.187 E19.47063
G1 X81.956 Y63.975 E19.58788
G1 X84.445 Y63.693 E19.70452
G1 X86.982 Y63.332 E19.82384
G1 X89.481 Y62.905 E19.94189
G1 X91.937 Y62.414 E20.05851
G1 X94.402 Y61.848 E20.17628
G1 X95.992 Y61.436 E20.25276
G1 X96.535 Y61.304 E20.27878
G1 X97.301 Y61.149 E20.31518
G1 X97.753 Y61.083 E20.33645
G1 X98.105 Y61.039 E20.35296
G1 X98.417 Y61.005 E20.36758
G1 X98.922 Y60.957 E20.3912
G1 X99.786 Y60.91 E20.43149
G1 X100.613 Y60.9 E20.47
G1 X150.1 Y60.905 E22.77432
G1 X151.214 Y60.9 E22.8262
G1 X161.346 Y60.901 E23.29798
G1 X162.044 Y60.911 E23.33049
G1 X162.614 Y60.935 E23.35705
G1 X162.988 Y60.965 E23.37453
G1 X163.38 Y61.004 E23.39287
G1 X163.674 Y61.037 E23.40664
G1 X164.136 Y61.096 E23.42833
G1 X165.043 Y61.253 E23.47119
G1 X166.16 Y61.56 E23.52513
G1 X166.575 Y61.699 E23.54551
G1 X166.872 Y61.804 E23.56018
G1 X167.309 Y61.965 E23.58187
G1 X168.159 Y62.32 E23.62476
G1 X169.179 Y62.871 E23.67874
G1 X169.54 Y63.092 E23.69845
G1 X169.77 Y63.236 E23.71109
G1 X170.145 Y63.479 E23.7319
G1 X170.896 Y64.013 E23.7748
G1 X171.394 Y64.427 E23.80496
G1 X171.445 Y64.472 E23.80813
G1 X171.836 Y64.835 E23.83297
G1 X172.267 Y65.259 E23.86112
G1 X172.6 Y65.6 E23.88332
G1 X173.214 Y66.286 E23.92619
G1 X173.768 Y67.026 E23.96923
G1 X173.959 Y67.311 E23.9852
G1 X174.14 Y67.591 E24.00073
G1 X174.28 Y67.813 E24.01295
G1 X174.537 Y68.233 E24.03588
G1 X174.983 Y69.039 E24.07877
G1 X175.444 Y70.11 E24.13307
G1 X175.591 Y70.51 E24.15291
G1 X175.703 Y70.828 E24.16861
G1 X175.851 Y71.274 E24.19049
G1 X176.102 Y72.159 E24.23332
G1 X176.223 Y72.736 E24.26078
G1 X176.318 Y73.351 E24.28975
G1 X176.362 Y73.703 E24.30627
G1 X176.394 Y73.987 E24.31958
G1 X176.441 Y74.468 E24.34208
G1 X176.49 Y75.35 E24.38322
G1 X176.501 Y76.212 E24.42336
G1 X176.5 Y91.947 E25.15604
G1 X176.49 Y92.636 E25.18813
G1 X176.482 Y92.922 E25.20145
G1 X176.474 Y93.108 E25.21012
G1 X176.4 Y95.733 E25.3324
G1 X176.4 Y98.259 E25.45002
G1 X176.468 Y100.725 E25.56489
G1 X176.483 Y101.096 E25.58218
G1 X176.491 Y101.396 E25.59616
G1 X176.501 Y102.212 E25.63416
G1 X176.5 Y117.947 E26.36684
G1 X176.49 Y118.636 E26.39893
G1 X176.482 Y118.922 E26.41225
G1 X176.474 Y119.108 E26.42092
G1 X176.4 Y121.733 E26.5432
G1 X176.4 Y124.259 E26.66082
G1 X176.468 Y126.725 E26.77569
G1 X176.483 Y127.096 E26.79298
G1 X176.491 Y127.396 E26.80696
G1 X176.501 Y128.212 E26.84496
G1 X176.5 Y143.945 E27.57755
G1 X176.49 Y144.642 E27.61001
G1 X176.443 Y145.497 E27.64988
G1 X176.401 Y145.937 E27.67046
G1 X176.364 Y146.267 E27.68593
G1 X176.305 Y146.731 E27.70771
G1 X176.15 Y147.638 E27.75055
G1 X175.844 Y148.753 E27.80439
G1 X175.708 Y149.16 E27.82437
G1 X175.601 Y149.463 E27.83933
G1 X175.439 Y149.903 E27.86117
G1 X175.084 Y150.753 E27.90406
G1 X174.531 Y151.778 E27.95829
G1 X174.308 Y152.142 E27.97817
G1 X174.172 Y152.358 E27.99005
G1 X173.931 Y152.731 E28.01073
G1 X173.399 Y153.481 E28.05355
G1 X172.951 Y154.02 E28.08619
G1 X172.903 Y154.074 E28.08955
G1 X172.566 Y154.436 E28.11258
G1 X172.322 Y154.686 E28.12885
G1 X172.131 Y154.877 E28.14142
G1 X171.789 Y155.21 E28.16365
G1 X171.102 Y155.823 E28.20652
G1 X170.443 Y156.32 E28.24496
G1 X170.099 Y156.552 E28.26428
G1 X169.815 Y156.736 E28.28004
G1 X169.578 Y156.885 E28.29307
G1 X169.164 Y157.138 E28.31566
G1 X168.359 Y157.583 E28.35849
G1 X167.293 Y158.043 E28.41256
G1 X166.882 Y158.194 E28.43294
G1 X166.564 Y158.305 E28.44863
G1 X166.127 Y158.45 E28.47007
G1 X165.242 Y158.701 E28.5129
G1 X164.63 Y158.828 E28.54201
G1 X164.049 Y158.917 E28.56938
G1 X163.697 Y158.961 E28.58589
G1 X163.385 Y158.995 E28.60051
G1 X162.88 Y159.043 E28.62413
G1 X162.016 Y159.09 E28.66442
G1 X161.189 Y159.1 E28.70293
G1 X100.456 Y159.099 E31.53091
G1 X99.758 Y159.089 E31.56342
G1 X99.188 Y159.065 E31.58998
G1 X98.814 Y159.035 E31.60745
G1 X98.422 Y158.996 E31.6258
G1 X98.129 Y158.963 E31.63953
G1 X97.659 Y158.903 E31.66159
G1 X96.48 Y158.684 E31.71743
G1 X95.806 Y158.518 E31.74975
G1 X94.374 Y158.147 E31.81863
G1 X91.897 Y157.578 E31.93698
G1 X89.433 Y157.083 E32.054
G1 X86.951 Y156.662 E32.17123
G1 X84.434 Y156.306 E32.28959
G1 X81.903 Y156.019 E32.4082
G1 X79.405 Y155.808 E32.52493
G1 X76.901 Y155.668 E32.64171
G1 X74.323 Y155.597 E32.7618
G1 X73.76 Y155.589 E32.78802
G1 X73.188 Y155.565 E32.81468
G1 X72.814 Y155.535 E32.83215
G1 X72.422 Y155.496 E32.85049
G1 X72.128 Y155.463 E32.86427
G1 X71.666 Y155.404 E32.88596
G1 X70.759 Y155.247 E32.92882
G1 X69.642 Y154.94 E32.98276
G1 X69.227 Y154.801 E33.00314
G1 X68.966 Y154.71 E33.01601
G1 X68.546 Y154.557 E33.03682
G1 X67.416 Y154.069 E33.09414
G1 X66.629 Y153.633 E33.13603
G1 X66.269 Y153.413 E33.15568
G1 X66.038 Y153.267 E33.1684
G1 X65.664 Y153.025 E33.18914
G1 X64.913 Y152.492 E33.23203
G1 X64.432 Y152.095 E33.26107
G1 X64.375 Y152.045 E33.2646
G1 X63.947 Y151.648 E33.29178
G1 X63.7 Y151.406 E33.30788
G1 X63.523 Y151.228 E33.31957
G1 X63.191 Y150.887 E33.34173
G1 X62.578 Y150.201 E33.38457
G1 X62.081 Y149.542 E33.423
G1 X61.854 Y149.205 E33.44192
G1 X61.669 Y148.92 E33.45775
G1 X61.501 Y148.654 E33.47239
G1 X61.247 Y148.236 E33.49517
G1 X60.804 Y147.429 E33.53804
G1 X60.355 Y146.383 E33.59104
G1 X60.206 Y145.977 E33.61118
G1 X60.103 Y145.684 E33.62564
G1 X59.957 Y145.247 E33.6471
G1 X59.704 Y144.362 E33.68996
G1 X59.55 Y143.6 E33.72615
G1 X59.483 Y143.14 E33.7478
G1 X59.439 Y142.786 E33.76441
G1 X59.406 Y142.486 E33.77846
G1 X59.358 Y141.983 E33.80199
G1 X59.311 Y141.115 E33.84247
G1 X59.301 Y140.29 E33.88089
G1 X59.299 Y129.983 E34.36082
G1 X59.301 Y128.736 E34.41889
G1 X59.302 Y79.555 E36.70896
G1 X59.312 Y78.857 E36.74147
G1 X59.336 Y78.287 E36.76803
G1 X59.366 Y77.913 E36.7855
G1 X59.405 Y77.521 E36.80385
G1 X59.436 Y77.244 E36.81683
G1 X59.494 Y76.784 E36.83842
G1 X59.649 Y75.876 E36.88131
G1 X59.962 Y74.736 E36.93636
G1 X60.102 Y74.319 E36.95684
G1 X60.189 Y74.071 E36.96908
G1 X60.341 Y73.653 E36.98979
G1 X60.832 Y72.515 E37.0475
G1 X61.268 Y71.728 E37.08939
G1 X61.488 Y71.368 E37.10904
G1 X61.634 Y71.137 E37.12176
G1 X61.876 Y70.763 E37.14251
G1 X62.409 Y70.012 E37.18539
G1 X62.836 Y69.498 E37.2165
G1 X62.882 Y69.446 E37.21974
G1 X63.236 Y69.065 E37.24395
G1 X63.481 Y68.814 E37.26028
G1 X63.671 Y68.623 E37.27283
G1 X64.013 Y68.29 E37.29506
G0 F6000 X64.292 Y68.577
G1 F1200 X64.967 Y67.976 E37.33714
G1 X65.587 Y67.509 E37.37328
G1 X65.921 Y67.284 E37.39204
G1 X66.205 Y67.1 E37.40779
G1 X66.457 Y66.941 E37.42167
G1 X66.877 Y66.686 E37.44455
G1 X67.669 Y66.252 E37.4866
G1 X68.649 Y65.832 E37.53625
G1 X69.054 Y65.683 E37.55634
G1 X69.364 Y65.575 E37.57163
G1 X69.801 Y65.43 E37.59307
G1 X70.67 Y65.184 E37.63512
G1 X71.243 Y65.066 E37.66236
G1 X71.803 Y64.98 E37.68874
G1 X72.155 Y64.936 E37.70526
G1 X72.435 Y64.905 E37.71838
G1 X72.909 Y64.859 E37.74055
G1 X73.438 Y64.821 E37.76525
G1 X73.819 Y64.809 E37.783
G1 X74.321 Y64.802 E37.80638
G1 X76.927 Y64.729 E37.92777
G1 X79.467 Y64.586 E38.04623
G1 X81.998 Y64.372 E38.16451
G1 X84.51 Y64.087 E38.28223
G1 X87.034 Y63.729 E38.40093
G1 X89.562 Y63.297 E38.52035
G1 X91.993 Y62.811 E38.63579
G1 X94.52 Y62.23 E38.75653
G1 X96.092 Y61.823 E38.83214
G1 X96.628 Y61.693 E38.85782
G1 X97.366 Y61.544 E38.89288
G1 X97.803 Y61.48 E38.91344
G1 X98.155 Y61.436 E38.92996
G1 X98.455 Y61.403 E38.94402
G1 X98.96 Y61.355 E38.96764
G1 X99.792 Y61.31 E39.00643
G1 X100.613 Y61.3 E39.04467
G1 X150.102 Y61.305 E41.34908
G1 X151.216 Y61.3 E41.40095
G1 X161.34 Y61.301 E41.87237
G1 X162.038 Y61.311 E41.90488
G1 X162.589 Y61.334 E41.93055
G1 X162.949 Y61.363 E41.94737
G1 X163.341 Y61.402 E41.96572
G1 X163.623 Y61.434 E41.97893
G1 X164.085 Y61.493 E42.00062
G1 X164.975 Y61.647 E42.04268
G1 X166.033 Y61.939 E42.09378
G1 X166.448 Y62.078 E42.11416
G1 X166.734 Y62.179 E42.12829
G1 X167.171 Y62.34 E42.14997
G1 X168.004 Y62.689 E42.19203
G1 X168.971 Y63.212 E42.24322
G1 X169.332 Y63.433 E42.26293
