;FLAVOR:Marlin
;TIME:4088
;Filament used: 2.39655m
;Layer height: 0.2
;MINX:76.762
;MINY:96.357
;MINZ:0.2
;MAXX:168.761
;MAXY:143.357
;MAXZ:6
;Generated with Cura_SteamEngine 4.6.1
M140 S50
M105
M190 S50
M104 S205
M105
M109 S205
M82 ;absolute extrusion mode
; Ender 3 Custom Start G-code
G92 E0 ; Reset Extruder
G28 ; Home all axes
G1 Z2.0 F3000 ; Move Z Axis up little to prevent scratching of Heat Bed
G1 X0.1 Y20 Z0.3 F5000.0 ; Move to start position
G1 X0.1 Y200.0 Z0.3 F1500.0 E15 ; Draw the first line
G1 X0.4 Y200.0 Z0.3 F5000.0 ; Move to side a little
G1 X0.4 Y20 Z0.3 F1500.0 E30 ; Draw the second line
G92 E0 ; Reset Extruder
G1 Z2.0 F3000 ; Move Z Axis up little to prevent scratching of Heat Bed
G1 X5 Y20 Z0.3 F5000.0 ; Move over to prevent blob squish
G92 E0
G92 E0
G1 F2700 E-5
;LAYER_COUNT:30
;LAYER:0
M107
G0 F6000 X153.899 Y97.168 Z0.2
;TYPE:SKIRT
G1 F2700 E0
G1 F1200 X154.69 Y97.21 E0.02635
G1 X155.102 Y97.248 E0.04011
G1 X155.436 Y97.284 E0.05128
G1 X155.882 Y97.34 E0.06623
G1 X156.772 Y97.493 E0.09627
G1 X157.662 Y97.728 E0.12688
G1 X158.032 Y97.844 E0.13978
G1 X158.454 Y97.987 E0.1546
G1 X158.951 Y98.167 E0.17218
G1 X159.786 Y98.511 E0.20222
G1 X160.699 Y98.994 E0.23657
G1 X161.033 Y99.193 E0.2495
G1 X161.343 Y99.386 E0.26165
G1 X161.749 Y99.648 E0.27772
G1 X162.485 Y100.17 E0.30773
G1 X163.191 Y100.774 E0.33863
G1 X163.507 Y101.07 E0.35303
G1 X163.813 Y101.369 E0.36726
G1 X164.133 Y101.695 E0.38246
G1 X164.737 Y102.367 E0.41251
G1 X165.318 Y103.148 E0.44488
G1 X165.548 Y103.49 E0.45859
G1 X165.781 Y103.853 E0.47294
G1 X166.042 Y104.279 E0.48956
G1 X166.48 Y105.07 E0.51963
G1 X166.884 Y105.997 E0.55326
G1 X167.029 Y106.38 E0.56688
G1 X167.146 Y106.705 E0.57837
G1 X167.293 Y107.137 E0.59355
G1 X167.546 Y108.004 E0.62359
G1 X167.732 Y108.964 E0.65611
G1 X167.794 Y109.393 E0.67053
G1 X167.846 Y109.812 E0.68457
G1 X167.895 Y110.29 E0.70055
G1 X167.947 Y111.176 E0.73007
G1 X167.959 Y112.056 E0.75934
G1 X167.961 Y127.784 E1.28246
G1 X167.951 Y128.499 E1.30624
G1 X167.906 Y129.323 E1.33369
G1 X167.834 Y130.028 E1.35726
G1 X167.775 Y130.497 E1.37298
G1 X167.623 Y131.387 E1.40301
G1 X167.362 Y132.355 E1.43636
G1 X167.222 Y132.789 E1.45153
G1 X167.091 Y133.171 E1.46496
G1 X166.938 Y133.588 E1.47973
G1 X166.589 Y134.422 E1.5098
G1 X166.11 Y135.32 E1.54365
G1 X165.878 Y135.707 E1.55866
G1 X165.697 Y135.997 E1.57003
G1 X165.456 Y136.37 E1.5848
G1 X164.933 Y137.107 E1.61486
G1 X164.245 Y137.901 E1.6498
G1 X163.953 Y138.205 E1.66382
G1 X163.712 Y138.448 E1.6752
G1 X163.372 Y138.779 E1.69099
G1 X162.698 Y139.379 E1.721
G1 X161.84 Y140.006 E1.75634
G1 X161.202 Y140.418 E1.7816
G1 X160.84 Y140.639 E1.79571
G1 X160.049 Y141.075 E1.82575
G1 X159.172 Y141.459 E1.85759
G1 X158.728 Y141.629 E1.87341
G1 X158.314 Y141.777 E1.88803
G1 X157.913 Y141.911 E1.90209
G1 X157.044 Y142.159 E1.93215
G1 X156.11 Y142.336 E1.96377
G1 X155.651 Y142.401 E1.97918
G1 X155.211 Y142.454 E1.99393
G1 X154.76 Y142.498 E2.009
G1 X153.926 Y142.545 E2.03678
G1 X153.05 Y142.557 E2.06592
G1 X92.469 Y142.557 E4.08085
G1 X92.323 Y142.556 E4.08571
G1 X91.625 Y142.546 E4.10892
G1 X90.8 Y142.501 E4.1364
G1 X90.055 Y142.425 E4.16131
G1 X89.619 Y142.37 E4.17593
G1 X88.729 Y142.217 E4.20596
G1 X87.75 Y141.953 E4.23969
G1 X87.309 Y141.81 E4.25511
G1 X86.95 Y141.686 E4.26774
G1 X86.54 Y141.536 E4.28226
G1 X85.707 Y141.189 E4.31228
G1 X84.81 Y140.711 E4.34608
G1 X84.422 Y140.479 E4.36112
G1 X84.116 Y140.289 E4.3731
G1 X83.742 Y140.047 E4.38791
G1 X83.006 Y139.523 E4.41796
G1 X82.217 Y138.839 E4.45269
G1 X81.913 Y138.547 E4.46671
G1 X81.67 Y138.306 E4.4781
G1 X81.34 Y137.967 E4.49383
G1 X80.739 Y137.292 E4.52389
G1 X80.129 Y136.461 E4.55818
G1 X79.892 Y136.101 E4.57251
G1 X79.702 Y135.8 E4.58435
G1 X79.457 Y135.398 E4.60001
G1 X79.022 Y134.607 E4.63004
G1 X78.586 Y133.589 E4.66687
G1 X78.344 Y132.914 E4.69072
G1 X78.198 Y132.477 E4.70604
G1 X77.95 Y131.609 E4.73607
G1 X77.757 Y130.556 E4.77167
G1 X77.704 Y130.147 E4.78539
G1 X77.668 Y129.83 E4.796
G1 X77.621 Y129.35 E4.81204
G1 X77.573 Y128.499 E4.84039
G1 X77.562 Y127.645 E4.8688
G1 X77.563 Y111.918 E5.39188
G1 X77.573 Y111.22 E5.4151
G1 X77.615 Y110.426 E5.44155
G1 X77.655 Y109.994 E5.45598
G1 X77.69 Y109.675 E5.46665
G1 X77.744 Y109.241 E5.4812
G1 X77.895 Y108.35 E5.51125
G1 X78.152 Y107.388 E5.54437
G1 X78.276 Y107.001 E5.55789
G1 X78.402 Y106.634 E5.57079
G1 X78.574 Y106.16 E5.58756
G1 X78.919 Y105.325 E5.61761
G1 X79.438 Y104.354 E5.65423
G1 X79.811 Y103.745 E5.67799
G1 X80.054 Y103.367 E5.69293
G1 X80.575 Y102.63 E5.72295
G1 X81.258 Y101.838 E5.75774
G1 X81.534 Y101.549 E5.77103
G1 X81.763 Y101.317 E5.78187
G1 X82.098 Y100.988 E5.79749
G1 X82.77 Y100.384 E5.82754
G1 X83.559 Y99.797 E5.86025
G1 X83.912 Y99.56 E5.87439
G1 X84.258 Y99.337 E5.88808
G1 X84.673 Y99.082 E5.90428
G1 X85.463 Y98.644 E5.93432
G1 X86.455 Y98.214 E5.97028
G1 X87.12 Y97.97 E5.99384
G1 X87.533 Y97.829 E6.00836
G1 X88.4 Y97.575 E6.03841
G1 X89.387 Y97.385 E6.07184
G1 X89.842 Y97.32 E6.08712
G1 X90.258 Y97.269 E6.10106
G1 X90.723 Y97.222 E6.11661
G1 X91.513 Y97.173 E6.14294
G1 X92.31 Y97.157 E6.16945
G1 X153.055 Y97.157 E8.18984
G1 X153.201 Y97.158 E8.19469
G1 X153.899 Y97.168 E8.21791
G0 F6000 X153.905 Y96.768
G1 F1200 X154.727 Y96.812 E8.24529
G1 X155.139 Y96.85 E8.25905
G1 X155.486 Y96.888 E8.27066
G1 X155.932 Y96.944 E8.28561
G1 X156.839 Y97.098 E8.31621
G1 X157.782 Y97.346 E8.34864
G1 X158.152 Y97.462 E8.36154
G1 X158.591 Y97.611 E8.37696
G1 X159.088 Y97.791 E8.39454
G1 X159.939 Y98.141 E8.42514
G1 X160.904 Y98.651 E8.46145
G1 X161.238 Y98.85 E8.47438
G1 X161.56 Y99.05 E8.48698
G1 X161.966 Y99.312 E8.50305
G1 X162.717 Y99.844 E8.53367
G1 X163.465 Y100.482 E8.56636
G1 X163.781 Y100.778 E8.58077
G1 X164.099 Y101.089 E8.59556
G1 X164.419 Y101.415 E8.61075
G1 X165.034 Y102.099 E8.64135
G1 X165.65 Y102.925 E8.67562
G1 X165.88 Y103.267 E8.68933
G1 X166.122 Y103.644 E8.70423
G1 X166.383 Y104.07 E8.72084
G1 X166.83 Y104.876 E8.7515
G1 X167.258 Y105.855 E8.78703
G1 X167.403 Y106.238 E8.80066
G1 X167.525 Y106.576 E8.81261
G1 X167.672 Y107.008 E8.82778
G1 X167.93 Y107.892 E8.85841
G1 X168.128 Y108.907 E8.89281
G1 X168.19 Y109.336 E8.90723
G1 X168.244 Y109.771 E8.9218
G1 X168.293 Y110.249 E8.93779
G1 X168.347 Y111.17 E8.96847
G1 X168.359 Y112.056 E8.99794
G1 X168.361 Y127.789 E9.52122
G1 X168.351 Y128.504 E9.54501
G1 X168.304 Y129.361 E9.57355
G1 X168.231 Y130.078 E9.59753
G1 X168.172 Y130.547 E9.61325
G1 X168.018 Y131.455 E9.64388
G1 X167.743 Y132.478 E9.67911
G1 X167.603 Y132.912 E9.69428
G1 X167.466 Y133.309 E9.70825
G1 X167.313 Y133.726 E9.72302
G1 X166.959 Y134.576 E9.75365
G1 X166.453 Y135.525 E9.78942
G1 X166.221 Y135.912 E9.80442
G1 X166.033 Y136.215 E9.81628
G1 X165.792 Y136.588 E9.83105
G1 X165.26 Y137.338 E9.86164
G1 X164.534 Y138.178 E9.89857
G1 X164.242 Y138.482 E9.91259
G1 X163.991 Y138.734 E9.92441
G1 X163.651 Y139.065 E9.9402
G1 X162.964 Y139.678 E9.97082
G1 X162.059 Y140.341 E10.00813
G1 X161.689 Y140.583 E10.02284
G1 X161.41 Y140.759 E10.03381
G1 X161.048 Y140.98 E10.04792
G1 X160.242 Y141.425 E10.07854
G1 X159.315 Y141.832 E10.11221
G1 X158.871 Y142.002 E10.12803
G1 X158.441 Y142.157 E10.14323
G1 X158.04 Y142.291 E10.15729
G1 X157.154 Y142.544 E10.18794
G1 X156.166 Y142.732 E10.22139
G1 X155.707 Y142.797 E10.23681
G1 X155.25 Y142.852 E10.25212
G1 X154.799 Y142.896 E10.26719
G1 X153.932 Y142.945 E10.29607
G1 X153.05 Y142.957 E10.32541
G1 X92.469 Y142.957 E12.34034
G1 X92.317 Y142.956 E12.3454
G1 X91.619 Y142.946 E12.36861
G1 X90.761 Y142.899 E12.39719
G1 X90.005 Y142.822 E12.42247
G1 X89.569 Y142.767 E12.43708
G1 X88.662 Y142.612 E12.46769
G1 X87.626 Y142.333 E12.50337
G1 X87.185 Y142.19 E12.51879
G1 X86.813 Y142.062 E12.53188
G1 X86.403 Y141.912 E12.5464
G1 X85.553 Y141.558 E12.57702
G1 X84.605 Y141.055 E12.61272
G1 X84.217 Y140.823 E12.62775
G1 X83.899 Y140.624 E12.64023
G1 X83.525 Y140.382 E12.65505
G1 X82.774 Y139.849 E12.68568
G1 X81.94 Y139.128 E12.72234
G1 X81.636 Y138.836 E12.73636
G1 X81.384 Y138.585 E12.74819
G1 X81.054 Y138.246 E12.76393
G1 X80.441 Y137.559 E12.79455
G1 X79.795 Y136.681 E12.83081
G1 X79.558 Y136.321 E12.84514
G1 X79.361 Y136.008 E12.85744
G1 X79.116 Y135.606 E12.8731
G1 X78.671 Y134.8 E12.90372
G1 X78.21 Y133.726 E12.9426
G1 X77.964 Y133.041 E12.96681
G1 X77.818 Y132.604 E12.98213
G1 X77.565 Y131.719 E13.01274
G1 X77.36 Y130.607 E13.05035
G1 X77.269 Y129.869 E13.07508
G1 X77.222 Y129.389 E13.09113
G1 X77.173 Y128.505 E13.12057
G1 X77.162 Y127.645 E13.14918
G1 X77.163 Y111.912 E13.67246
G1 X77.173 Y111.214 E13.69568
G1 X77.217 Y110.389 E13.72316
G1 X77.257 Y109.957 E13.73759
G1 X77.293 Y109.625 E13.74869
G1 X77.347 Y109.191 E13.76324
G1 X77.5 Y108.283 E13.79387
G1 X77.772 Y107.266 E13.82888
G1 X77.896 Y106.879 E13.8424
G1 X78.026 Y106.497 E13.85582
G1 X78.198 Y106.023 E13.87259
G1 X78.549 Y105.172 E13.90321
G1 X79.096 Y104.147 E13.94185
G1 X79.475 Y103.529 E13.96596
G1 X79.718 Y103.151 E13.98091
G1 X80.249 Y102.399 E14.01153
G1 X80.968 Y101.562 E14.04823
G1 X81.244 Y101.273 E14.06152
G1 X81.483 Y101.031 E14.07283
G1 X81.818 Y100.702 E14.08845
G1 X82.502 Y100.086 E14.11906
G1 X83.336 Y99.464 E14.15367
G1 X83.689 Y99.227 E14.16781
G1 X84.049 Y98.997 E14.18202
G1 X84.464 Y98.742 E14.19822
G1 X85.268 Y98.294 E14.22883
G1 X86.315 Y97.839 E14.2668
G1 X86.991 Y97.592 E14.29074
G1 X87.404 Y97.451 E14.30525
G1 X88.288 Y97.191 E14.3359
G1 X89.33 Y96.989 E14.3712
G1 X89.785 Y96.924 E14.38649
G1 X90.218 Y96.871 E14.401
G1 X90.683 Y96.824 E14.41654
G1 X91.503 Y96.773 E14.44387
G1 X92.31 Y96.757 E14.47071
G1 X153.055 Y96.757 E16.4911
G1 X153.207 Y96.758 E16.49616
G1 X153.905 Y96.768 E16.51937
G0 F6000 X153.911 Y96.368
G1 F1200 X154.763 Y96.413 E16.54775
G1 X155.175 Y96.451 E16.56151
G1 X155.535 Y96.491 E16.57356
G1 X155.981 Y96.547 E16.58851
G1 X156.906 Y96.703 E16.61971
G1 X157.902 Y96.965 E16.65397
G1 X158.272 Y97.081 E16.66686
G1 X158.727 Y97.234 E16.68283
G1 X159.224 Y97.414 E16.70041
G1 X160.091 Y97.771 E16.73159
G1 X161.108 Y98.307 E16.76983
G1 X161.442 Y98.506 E16.78276
G1 X161.776 Y98.713 E16.79583
G1 X162.182 Y98.975 E16.8119
G1 X162.948 Y99.517 E16.84311
G1 X163.738 Y100.19 E16.87763
G1 X164.054 Y100.486 E16.89203
G1 X164.384 Y100.808 E16.90737
G1 X164.704 Y101.134 E16.92256
G1 X165.332 Y101.831 E16.95376
G1 X165.982 Y102.701 E16.98988
G1 X166.212 Y103.043 E17.00359
G1 X166.464 Y103.435 E17.01909
G1 X166.725 Y103.861 E17.03571
G1 X167.18 Y104.681 E17.0669
G1 X167.632 Y105.713 E17.10437
G1 X167.777 Y106.096 E17.11799
G1 X167.904 Y106.447 E17.13041
G1 X168.051 Y106.879 E17.14558
G1 X168.315 Y107.779 E17.17678
G1 X168.524 Y108.85 E17.21307
G1 X168.586 Y109.279 E17.22749
G1 X168.642 Y109.73 E17.24261
G1 X168.691 Y110.208 E17.25859
G1 X168.747 Y111.164 E17.29044
G1 X168.759 Y112.056 E17.32011
G1 X168.761 Y127.795 E17.84359
G1 X168.751 Y128.51 E17.86737
G1 X168.702 Y129.399 E17.89699
G1 X168.628 Y130.128 E17.92136
G1 X168.569 Y130.597 E17.93708
G1 X168.412 Y131.522 E17.96829
G1 X168.124 Y132.601 E18.00543
G1 X167.984 Y133.035 E18.0206
G1 X167.842 Y133.447 E18.03509
G1 X167.689 Y133.864 E18.04987
G1 X167.329 Y134.73 E18.08106
G1 X166.797 Y135.731 E18.11876
G1 X166.565 Y136.118 E18.13377
G1 X166.369 Y136.432 E18.14608
G1 X166.128 Y136.805 E18.16085
G1 X165.586 Y137.57 E18.19203
G1 X164.822 Y138.455 E18.23092
G1 X164.53 Y138.759 E18.24494
G1 X164.27 Y139.021 E18.25722
G1 X163.93 Y139.352 E18.273
G1 X163.231 Y139.977 E18.30419
G1 X162.278 Y140.676 E18.34349
G1 X161.908 Y140.918 E18.3582
G1 X161.619 Y141.101 E18.36958
G1 X161.257 Y141.322 E18.38368
G1 X160.436 Y141.776 E18.41489
G1 X159.458 Y142.206 E18.45042
G1 X159.014 Y142.376 E18.46623
G1 X158.567 Y142.536 E18.48202
G1 X158.166 Y142.67 E18.49609
G1 X157.265 Y142.929 E18.52727
G1 X156.222 Y143.128 E18.56258
G1 X155.763 Y143.193 E18.578
G1 X155.289 Y143.25 E18.59388
G1 X154.838 Y143.294 E18.60895
G1 X153.938 Y143.345 E18.63894
G1 X153.05 Y143.357 E18.66847
G1 X92.469 Y143.357 E20.68341
G1 X92.311 Y143.356 E20.68866
G1 X91.613 Y143.346 E20.71188
G1 X90.723 Y143.297 E20.74152
G1 X89.955 Y143.219 E20.7672
G1 X89.519 Y143.164 E20.78182
G1 X88.595 Y143.007 E20.81299
G1 X87.503 Y142.714 E20.85059
G1 X87.062 Y142.571 E20.86601
G1 X86.676 Y142.437 E20.8796
G1 X86.266 Y142.287 E20.89412
G1 X85.399 Y141.928 E20.92533
G1 X84.4 Y141.398 E20.96295
G1 X84.012 Y141.166 E20.97798
G1 X83.681 Y140.96 E20.99095
G1 X83.307 Y140.718 E21.00577
G1 X82.542 Y140.176 E21.03695
G1 X81.663 Y139.416 E21.0756
G1 X81.359 Y139.124 E21.08962
G1 X81.097 Y138.864 E21.1019
G1 X80.767 Y138.525 E21.11763
G1 X80.142 Y137.826 E21.14882
G1 X79.461 Y136.901 E21.18702
G1 X79.224 Y136.541 E21.20136
G1 X79.019 Y136.217 E21.21411
G1 X78.774 Y135.815 E21.22977
G1 X78.32 Y134.994 E21.26097
G1 X77.834 Y133.863 E21.30191
G1 X77.585 Y133.168 E21.32647
G1 X77.439 Y132.731 E21.34179
G1 X77.18 Y131.829 E21.37301
G1 X76.963 Y130.659 E21.41258
G1 X76.91 Y130.25 E21.4263
G1 X76.871 Y129.908 E21.43775
G1 X76.824 Y129.428 E21.45379
G1 X76.773 Y128.511 E21.48434
G1 X76.762 Y127.645 E21.51314
G1 X76.763 Y111.906 E22.03662
G1 X76.773 Y111.208 E22.05984
G1 X76.819 Y110.352 E22.08835
G1 X76.859 Y109.92 E22.10278
G1 X76.896 Y109.576 E22.11429
G1 X76.95 Y109.142 E22.12884
G1 X77.106 Y108.217 E22.16004
G1 X77.391 Y107.144 E22.19696
G1 X77.515 Y106.757 E22.21048
G1 X77.65 Y106.361 E22.22439
G1 X77.822 Y105.887 E22.24117
G1 X78.179 Y105.02 E22.27235
G1 X78.754 Y103.939 E22.31308
G1 X79.138 Y103.313 E22.3375
G1 X79.381 Y102.935 E22.35245
G1 X79.921 Y102.168 E22.38365
G1 X80.679 Y101.286 E22.42233
G1 X80.955 Y100.997 E22.43562
G1 X81.202 Y100.746 E22.44733
G1 X81.537 Y100.417 E22.46295
G1 X82.234 Y99.789 E22.49415
G1 X83.113 Y99.132 E22.53065
G1 X83.466 Y98.895 E22.54479
G1 X83.839 Y98.656 E22.55953
G1 X84.254 Y98.401 E22.57573
G1 X85.074 Y97.944 E22.60695
G1 X86.176 Y97.464 E22.64693
G1 X86.862 Y97.213 E22.67123
G1 X87.275 Y97.072 E22.68574
G1 X88.175 Y96.807 E22.71694
G1 X89.273 Y96.593 E22.75415
G1 X89.728 Y96.528 E22.76944
G1 X90.178 Y96.473 E22.78452
G1 X90.643 Y96.426 E22.80006
G1 X91.494 Y96.373 E22.82842
G1 X92.31 Y96.357 E22.85557
G1 X153.055 Y96.357 E24.87595
G1 X153.213 Y96.358 E24.88121
G1 X153.911 Y96.368 E24.90443
G1 F2700 E19.90443
G0 F6000 X106.962 Y110.757
G1 F2700 E24.90443
G1 F1200 X138.562 Y110.758 E25.95545
G1 X138.562 Y110.957 E25.96207
G1 X106.962 Y110.957 E27.01309
G1 X106.962 Y110.757 E27.01974
G0 F6000 X106.562 Y110.357
G1 F1200 X138.962 Y110.358 E28.09737
G1 X138.962 Y111.357 E28.13059
G1 X106.562 Y111.357 E29.20822
G1 X106.562 Y110.357 E29.24148
G0 F6000 X106.162 Y109.957
G1 F1200 X139.362 Y109.958 E30.34572
G1 X139.362 Y111.757 E30.40555
G1 X106.162 Y111.757 E31.50979
G1 X106.162 Y109.957 E31.56966
G0 F6000 X105.762 Y109.557
G1 F1200 X139.762 Y109.558 E32.7005
G1 X139.762 Y112.157 E32.78695
G1 X105.762 Y112.157 E33.91779
G1 X105.762 Y109.557 E34.00427
G0 F6000 X105.362 Y109.157
G1 F1200 X140.162 Y109.158 E35.16172
G1 X140.162 Y112.557 E35.27477
G1 X105.362 Y112.557 E36.43222
G1 X105.362 Y109.157 E36.54531
G0 F6000 X104.962 Y108.757
G1 F1200 X140.562 Y108.758 E37.72937
G1 X140.562 Y112.957 E37.86903
G1 X104.962 Y112.957 E39.05309
G1 X104.962 Y108.757 E39.19278
G0 F6000 X104.562 Y108.357
G1 F1200 X140.962 Y108.358 E40.40345
G1 X140.962 Y113.357 E40.56972
G1 X104.562 Y113.357 E41.78039
G1 X104.562 Y108.357 E41.94669
G0 F6000 X104.162 Y107.957
G1 F1200 X141.362 Y107.958 E43.18396
G1 X141.362 Y113.757 E43.37684
G1 X104.162 Y113.757 E44.61412
G1 X104.162 Y107.957 E44.80703
G0 F6000 X103.762 Y107.557
G1 F1200 X141.762 Y107.558 E46.07091
G1 X141.762 Y114.157 E46.29039
G1 X103.762 Y114.157 E47.55428
G1 X103.762 Y107.557 E47.7738
G1 F2700 E42.7738
G0 F6000 X102.919 Y106.696
G0 X91.703 Y106.697
G0 X90.695 Y106.817
G0 X89.706 Y107.169
G0 X88.828 Y107.73
G0 X88.096 Y108.473
G0 X87.544 Y109.362
G0 X87.205 Y110.348
G0 X87.098 Y111.328
G0 X87.099 Y128.399
G0 X87.215 Y129.409
G0 X87.564 Y130.395
G0 X88.123 Y131.28
G0 X88.86 Y132.012
G0 X89.747 Y132.567
G0 X90.737 Y132.911
G0 X91.733 Y133.021
G0 X102.919 Y133.018
G0 X103.423 Y132.514
G0 X103.762 Y125.557
G1 F2700 E47.7738
