;FLAVOR:Marlin
;TIME:2735
;Filament used: 2.54809m
;Layer height: 0.28
;MINX:64
;MINY:86.5
;MINZ:0.28
;MAXX:156
;MAXY:133.5
;MAXZ:5.88
;Generated with Cura_SteamEngine 4.8.0
M140 S60
M105
M190 S60
M104 S205
M105
M109 S205
M82 ;absolute extrusion mode
; Ender 3 Custom Start G-code
G92 E0 ; Reset Extruder
G28 ; Home all axes
G1 Z2.0 F3000 ; Move Z Axis up little to prevent scratching of Heat Bed
G1 X0.1 Y20 Z0.3 F5000.0 ; Move to start position
G1 X0.1 Y200.0 Z0.3 F1500.0 E15 ; Draw the first line
G1 X0.4 Y200.0 Z0.3 F5000.0 ; Move to side a little
G1 X0.4 Y20 Z0.3 F1500.0 E30 ; Draw the second line
G92 E0 ; Reset Extruder
G1 Z2.0 F3000 ; Move Z Axis up little to prevent scratching of Heat Bed
G1 X5 Y20 Z0.3 F5000.0 ; Move over to prevent blob squish
G92 E0
G92 E0
G1 F2400 E-6.5
;LAYER_COUNT:21
;LAYER:0
M107
G0 F6000 X69.532 Y89.879 Z0.28
;TYPE:SKIRT
G1 F2400 E0
G1 F1200 X70.23 Y89.352 E0.04073
G1 X70.585 Y89.112 E0.06068
G1 X70.869 Y88.928 E0.07644
G1 X71.141 Y88.757 E0.0914
G1 X71.561 Y88.502 E0.11428
G1 X72.383 Y88.05 E0.15796
G1 X73.472 Y87.581 E0.21317
G1 X73.877 Y87.432 E0.23326
G1 X74.211 Y87.316 E0.24973
G1 X74.648 Y87.171 E0.27116
G1 X75.55 Y86.914 E0.31484
G1 X76.144 Y86.788 E0.34311
G1 X76.199 Y86.778 E0.34571
G1 X76.803 Y86.686 E0.37416
G1 X77.155 Y86.642 E0.39068
G1 X77.478 Y86.606 E0.40582
G1 X77.983 Y86.558 E0.42944
G1 X78.88 Y86.51 E0.47126
G1 X79.712 Y86.5 E0.51001
G1 X129.189 Y86.503 E2.81386
G1 X130.272 Y86.5 E2.86429
G1 X140.451 Y86.501 E3.33827
G1 X141.149 Y86.511 E3.37078
G1 X141.739 Y86.535 E3.39827
G1 X142.127 Y86.567 E3.4164
G1 X142.519 Y86.606 E3.43474
G1 X142.823 Y86.641 E3.44899
G1 X143.285 Y86.7 E3.47068
G1 X144.21 Y86.858 E3.51438
G1 X145.386 Y87.181 E3.57116
G1 X145.801 Y87.32 E3.59154
G1 X146.104 Y87.426 E3.60649
G1 X146.539 Y87.586 E3.62807
G1 X147.405 Y87.947 E3.67176
G1 X148.481 Y88.526 E3.72866
G1 X148.844 Y88.748 E3.74847
G1 X149.087 Y88.901 E3.76184
G1 X149.462 Y89.144 E3.78265
G1 X150.226 Y89.687 E3.82629
G1 X150.735 Y90.107 E3.85702
G1 X150.784 Y90.15 E3.86006
G1 X151.197 Y90.531 E3.88622
G1 X151.45 Y90.777 E3.90265
G1 X151.663 Y90.99 E3.91668
G1 X151.996 Y91.332 E3.93891
G1 X152.621 Y92.031 E3.98257
G1 X153.197 Y92.8 E4.02731
G1 X153.395 Y93.096 E4.04389
G1 X153.574 Y93.373 E4.05925
G1 X153.716 Y93.599 E4.07167
G1 X153.975 Y94.022 E4.09477
G1 X154.43 Y94.842 E4.13844
G1 X154.919 Y95.972 E4.19577
G1 X155.066 Y96.372 E4.21561
G1 X155.181 Y96.702 E4.23189
G1 X155.329 Y97.148 E4.25377
G1 X155.586 Y98.049 E4.29739
G1 X155.715 Y98.663 E4.32661
G1 X155.814 Y99.302 E4.35672
G1 X155.857 Y99.646 E4.37286
G1 X155.889 Y99.933 E4.38631
G1 X155.937 Y100.421 E4.40914
G1 X155.989 Y101.344 E4.45219
G1 X156 Y102.212 E4.49261
G1 X155.999 Y117.951 E5.22548
G1 X155.989 Y118.648 E5.25794
G1 X155.966 Y119.224 E5.28478
G1 X155.933 Y119.627 E5.30361
G1 X155.894 Y120.019 E5.32195
G1 X155.858 Y120.332 E5.33663
G1 X155.798 Y120.799 E5.35855
G1 X155.639 Y121.723 E5.40221
G1 X155.321 Y122.883 E5.45821
G1 X155.186 Y123.287 E5.47805
G1 X155.076 Y123.602 E5.49359
G1 X154.914 Y124.042 E5.51542
G1 X154.552 Y124.907 E5.55908
G1 X153.971 Y125.987 E5.61619
G1 X153.748 Y126.351 E5.63606
G1 X153.607 Y126.575 E5.64839
G1 X153.366 Y126.948 E5.66907
G1 X152.824 Y127.713 E5.71272
G1 X152.349 Y128.286 E5.74738
G1 X152.301 Y128.34 E5.75074
G1 X151.951 Y128.715 E5.77463
G1 X151.707 Y128.965 E5.7909
G1 X151.509 Y129.163 E5.80393
G1 X151.167 Y129.496 E5.82616
G1 X150.468 Y130.121 E5.86982
G1 X149.77 Y130.648 E5.91055
G1 X149.415 Y130.888 E5.9305
G1 X149.131 Y131.072 E5.94626
G1 X148.886 Y131.226 E5.95973
G1 X148.472 Y131.479 E5.98233
G1 X147.652 Y131.934 E6.02599
G1 X146.529 Y132.418 E6.08293
G1 X146.118 Y132.569 E6.10332
G1 X145.789 Y132.684 E6.11955
G1 X145.352 Y132.829 E6.14099
G1 X144.45 Y133.086 E6.18466
G1 X143.856 Y133.212 E6.21294
G1 X143.801 Y133.222 E6.21554
G1 X143.197 Y133.314 E6.24399
G1 X142.845 Y133.358 E6.26051
G1 X142.522 Y133.394 E6.27564
G1 X142.017 Y133.442 E6.29926
G1 X141.12 Y133.49 E6.34109
G1 X140.288 Y133.5 E6.37983
G1 X90.8 Y133.499 E8.6842
G1 X79.549 Y133.499 E9.2081
G1 X78.851 Y133.489 E9.2406
G1 X78.261 Y133.465 E9.2681
G1 X77.873 Y133.433 E9.28623
G1 X77.481 Y133.394 E9.30457
G1 X77.177 Y133.359 E9.31882
G1 X76.715 Y133.3 E9.3405
G1 X75.79 Y133.142 E9.3842
G1 X74.614 Y132.819 E9.44099
G1 X74.199 Y132.68 E9.46137
G1 X73.934 Y132.588 E9.47443
G1 X73.516 Y132.436 E9.49514
G1 X72.336 Y131.927 E9.55498
G1 X71.519 Y131.474 E9.59848
G1 X71.159 Y131.254 E9.61812
G1 X70.919 Y131.103 E9.63133
G1 X70.545 Y130.861 E9.65207
G1 X69.78 Y130.319 E9.69573
G1 X69.197 Y129.834 E9.73104
G1 X69.132 Y129.776 E9.7351
G1 X68.758 Y129.426 E9.75895
G1 X68.512 Y129.185 E9.77498
G1 X68.326 Y128.998 E9.78726
G1 X68.001 Y128.664 E9.80896
G1 X67.377 Y127.965 E9.8526
G1 X66.677 Y127.011 E9.90769
G1 X66.443 Y126.653 E9.92761
G1 X66.256 Y126.356 E9.94395
G1 X66.01 Y125.952 E9.96598
G1 X65.557 Y125.131 E10.00964
G1 X65.078 Y124.021 E10.06593
G1 X64.929 Y123.615 E10.08607
G1 X64.823 Y123.311 E10.10106
G1 X64.677 Y122.874 E10.12251
G1 X64.418 Y121.972 E10.16621
G1 X64.254 Y121.164 E10.2046
G1 X64.185 Y120.69 E10.22691
G1 X64.141 Y120.336 E10.24352
G1 X64.107 Y120.024 E10.25813
G1 X64.059 Y119.521 E10.28166
G1 X64.01 Y118.62 E10.32368
G1 X64 Y117.788 E10.36242
G1 X64.001 Y102.049 E11.0953
G1 X64.011 Y101.351 E11.1278
G1 X64.036 Y100.747 E11.15595
G1 X64.067 Y100.371 E11.17352
G1 X64.107 Y99.97 E11.19228
G1 X64.139 Y99.686 E11.20559
G1 X64.196 Y99.234 E11.2268
G1 X64.353 Y98.309 E11.27049
G1 X64.684 Y97.103 E11.32872
G1 X64.833 Y96.66 E11.35049
G1 X64.925 Y96.397 E11.36346
G1 X65.068 Y96.005 E11.38289
G1 X65.573 Y94.836 E11.44219
G1 X66.026 Y94.019 E11.48569
G1 X66.246 Y93.659 E11.50533
G1 X66.397 Y93.419 E11.51854
G1 X66.639 Y93.045 E11.53928
G1 X67.181 Y92.28 E11.58293
G1 X67.635 Y91.733 E11.61603
G1 X67.681 Y91.681 E11.61927
G1 X68.048 Y91.285 E11.64441
G1 X68.293 Y91.034 E11.66074
G1 X68.491 Y90.837 E11.67375
G1 X68.833 Y90.504 E11.69597
G1 X69.532 Y89.879 E11.73964
G0 F6000 X69.799 Y90.177
G1 F1200 X70.458 Y89.68 E11.77807
G1 X70.802 Y89.448 E11.79739
G1 X71.086 Y89.264 E11.81315
G1 X71.349 Y89.099 E11.8276
G1 X71.769 Y88.844 E11.85048
G1 X72.576 Y88.401 E11.89335
G1 X73.61 Y87.957 E11.94575
G1 X74.015 Y87.808 E11.96584
G1 X74.337 Y87.695 E11.98173
G1 X74.774 Y87.55 E12.00317
G1 X75.659 Y87.299 E12.04601
G1 X76.271 Y87.172 E12.07511
G1 X76.852 Y87.083 E12.10248
G1 X77.204 Y87.039 E12.119
G1 X77.516 Y87.005 E12.13361
G1 X78.021 Y86.957 E12.15723
G1 X78.885 Y86.91 E12.19752
G1 X79.712 Y86.9 E12.23604
G1 X129.189 Y86.903 E14.53989
G1 X130.275 Y86.9 E14.59046
G1 X140.445 Y86.901 E15.06402
G1 X141.143 Y86.911 E15.09652
G1 X141.713 Y86.935 E15.12309
G1 X142.087 Y86.965 E15.14056
G1 X142.479 Y87.004 E15.1589
G1 X142.773 Y87.037 E15.17268
G1 X143.235 Y87.096 E15.19437
G1 X144.142 Y87.253 E15.23723
G1 X145.259 Y87.56 E15.29117
G1 X145.674 Y87.699 E15.31155
G1 X145.966 Y87.802 E15.32597
G1 X146.401 Y87.962 E15.34755
G1 X147.251 Y88.317 E15.39044
G1 X148.272 Y88.867 E15.44444
G1 X148.635 Y89.089 E15.46426
G1 X148.869 Y89.236 E15.47712
G1 X149.244 Y89.479 E15.49793
G1 X149.995 Y90.013 E15.54084
G1 X150.472 Y90.408 E15.56968
G1 X150.521 Y90.451 E15.57271
G1 X150.918 Y90.818 E15.59789
G1 X151.171 Y91.064 E15.61432
G1 X151.377 Y91.269 E15.62785
G1 X151.71 Y91.611 E15.65008
G1 X152.323 Y92.298 E15.69295
G1 X152.867 Y93.026 E15.73527
G1 X153.059 Y93.313 E15.75135
G1 X153.238 Y93.59 E15.76671
G1 X153.375 Y93.808 E15.77869
G1 X153.634 Y94.231 E15.80179
G1 X154.08 Y95.036 E15.84464
G1 X154.543 Y96.11 E15.8991
G1 X154.69 Y96.51 E15.91895
G1 X154.802 Y96.828 E15.93464
G1 X154.95 Y97.274 E15.95653
G1 X155.201 Y98.159 E15.99936
G1 X155.322 Y98.736 E16.02681
G1 X155.417 Y99.351 E16.05579
G1 X155.46 Y99.695 E16.07193
G1 X155.491 Y99.972 E16.08491
G1 X155.539 Y100.46 E16.10774
G1 X155.589 Y101.35 E16.14925
G1 X155.6 Y102.212 E16.18939
G1 X155.599 Y117.945 E16.92199
G1 X155.589 Y118.642 E16.95445
G1 X155.566 Y119.199 E16.9804
G1 X155.535 Y119.587 E16.99853
G1 X155.496 Y119.979 E17.01687
G1 X155.462 Y120.281 E17.03102
G1 X155.402 Y120.748 E17.05295
G1 X155.245 Y121.655 E17.09581
G1 X154.942 Y122.756 E17.14898
G1 X154.807 Y123.16 E17.16882
G1 X154.7 Y123.463 E17.18378
G1 X154.538 Y123.903 E17.20561
G1 X154.183 Y124.753 E17.2485
G1 X153.63 Y125.778 E17.30274
G1 X153.407 Y126.142 E17.32261
G1 X153.271 Y126.358 E17.3345
G1 X153.03 Y126.731 E17.35518
G1 X152.498 Y127.481 E17.39799
G1 X152.05 Y128.02 E17.43063
G1 X152.002 Y128.074 E17.43399
G1 X151.665 Y128.436 E17.45702
G1 X151.421 Y128.686 E17.47329
G1 X151.23 Y128.877 E17.48587
G1 X150.888 Y129.21 E17.5081
G1 X150.201 Y129.823 E17.55097
G1 X149.542 Y130.32 E17.5894
G1 X149.198 Y130.552 E17.60872
G1 X148.914 Y130.736 E17.62448
G1 X148.677 Y130.885 E17.63752
G1 X148.263 Y131.138 E17.66011
G1 X147.458 Y131.583 E17.70294
G1 X146.392 Y132.043 E17.757
G1 X145.981 Y132.194 E17.77739
G1 X145.663 Y132.305 E17.79307
G1 X145.226 Y132.45 E17.81451
G1 X144.341 Y132.701 E17.85735
G1 X143.729 Y132.828 E17.88645
G1 X143.148 Y132.917 E17.91382
G1 X142.796 Y132.961 E17.93034
G1 X142.484 Y132.995 E17.94495
G1 X141.979 Y133.043 E17.96857
G1 X141.115 Y133.09 E18.00886
G1 X140.288 Y133.1 E18.04738
G1 X90.8 Y133.099 E20.35174
G1 X79.555 Y133.099 E20.87536
G1 X78.857 Y133.089 E20.90786
G1 X78.287 Y133.065 E20.93443
G1 X77.913 Y133.035 E20.9519
G1 X77.521 Y132.996 E20.97024
G1 X77.227 Y132.963 E20.98402
G1 X76.765 Y132.904 E21.00571
G1 X75.858 Y132.747 E21.04857
G1 X74.741 Y132.44 E21.10251
G1 X74.326 Y132.301 E21.12289
G1 X74.071 Y132.212 E21.13546
G1 X73.653 Y132.06 E21.15617
G1 X72.515 Y131.569 E21.21389
G1 X71.728 Y131.133 E21.25578
G1 X71.368 Y130.913 E21.27543
G1 X71.137 Y130.767 E21.28815
G1 X70.763 Y130.525 E21.30889
G1 X70.012 Y129.992 E21.35178
G1 X69.464 Y129.535 E21.385
G1 X69.399 Y129.477 E21.38906
G1 X69.038 Y129.14 E21.41205
G1 X68.792 Y128.899 E21.42809
G1 X68.613 Y128.719 E21.43991
G1 X68.288 Y128.385 E21.46161
G1 X67.675 Y127.698 E21.50448
G1 X67.012 Y126.793 E21.55672
G1 X66.778 Y126.435 E21.57664
G1 X66.597 Y126.148 E21.59244
G1 X66.351 Y125.744 E21.61446
G1 X65.907 Y124.937 E21.65735
G1 X65.454 Y123.883 E21.71077
G1 X65.305 Y123.477 E21.73091
G1 X65.202 Y123.184 E21.74537
G1 X65.056 Y122.747 E21.76682
G1 X64.803 Y121.862 E21.80968
G1 X64.649 Y121.1 E21.84588
G1 X64.582 Y120.64 E21.86753
G1 X64.538 Y120.286 E21.88414
G1 X64.505 Y119.986 E21.89819
G1 X64.457 Y119.483 E21.92172
G1 X64.41 Y118.615 E21.9622
G1 X64.4 Y117.788 E22.00071
G1 X64.401 Y102.055 E22.7333
G1 X64.411 Y101.357 E22.76581
G1 X64.435 Y100.773 E22.79303
G1 X64.465 Y100.411 E22.80994
G1 X64.505 Y100.01 E22.8287
G1 X64.536 Y99.736 E22.84154
G1 X64.593 Y99.284 E22.86276
G1 X64.748 Y98.376 E22.90565
G1 X65.063 Y97.231 E22.96095
G1 X65.212 Y96.788 E22.98271
G1 X65.301 Y96.534 E22.99524
G1 X65.444 Y96.142 E23.01467
G1 X65.931 Y95.015 E23.07184
G1 X66.367 Y94.228 E23.11373
G1 X66.587 Y93.868 E23.13338
G1 X66.733 Y93.637 E23.1461
G1 X66.975 Y93.263 E23.16685
G1 X67.508 Y92.512 E23.20973
G1 X67.935 Y91.998 E23.24084
G1 X67.981 Y91.946 E23.24408
G1 X68.335 Y91.565 E23.26829
G1 X68.58 Y91.314 E23.28463
G1 X68.77 Y91.123 E23.29717
G1 X69.112 Y90.79 E23.3194
G1 X69.799 Y90.177 E23.36227
G0 F6000 X70.066 Y90.476
G1 F1200 X70.686 Y90.009 E23.39841
G1 X71.02 Y89.784 E23.41717
G1 X71.304 Y89.6 E23.43292
G1 X71.556 Y89.441 E23.4468
G1 X71.976 Y89.186 E23.46968
G1 X72.768 Y88.752 E23.51173
G1 X73.748 Y88.332 E23.56138
G1 X74.153 Y88.183 E23.58147
G1 X74.463 Y88.075 E23.59676
G1 X74.9 Y87.93 E23.6182
G1 X75.769 Y87.684 E23.66025
G1 X76.342 Y87.566 E23.68749
G1 X76.902 Y87.48 E23.71387
G1 X77.254 Y87.436 E23.73039
G1 X77.554 Y87.403 E23.74445
G1 X78.059 Y87.355 E23.76807
G1 X78.891 Y87.31 E23.80686
G1 X79.712 Y87.3 E23.8451
G1 X129.19 Y87.303 E26.149
G1 X130.278 Y87.3 E26.19966
G1 X140.439 Y87.301 E26.6728
G1 X141.137 Y87.311 E26.70531
G1 X141.688 Y87.334 E26.73098
G1 X142.048 Y87.363 E26.7478
G1 X142.44 Y87.402 E26.76615
G1 X142.722 Y87.434 E26.77936
G1 X143.184 Y87.493 E26.80105
G1 X144.074 Y87.647 E26.84311
G1 X145.132 Y87.939 E26.89421
G1 X145.547 Y88.078 E26.91459
G1 X145.828 Y88.177 E26.92847
G1 X146.263 Y88.337 E26.95005
G1 X147.096 Y88.686 E26.9921
G1 X148.064 Y89.208 E27.04331
G1 X148.427 Y89.43 E27.06313
G1 X148.652 Y89.572 E27.07551
G1 X149.027 Y89.815 E27.09632
G1 X149.762 Y90.339 E27.13835
G1 X150.208 Y90.708 E27.16531
G1 X150.257 Y90.751 E27.16834
G1 X150.64 Y91.105 E27.19263
G1 X150.893 Y91.351 E27.20906
G1 X151.09 Y91.548 E27.22203
G1 X151.423 Y91.89 E27.24426
G1 X152.024 Y92.565 E27.28634
G1 X152.537 Y93.251 E27.32623
G1 X152.723 Y93.53 E27.34184
G1 X152.902 Y93.807 E27.3572
G1 X153.034 Y94.017 E27.36875
G1 X153.293 Y94.44 E27.39185
G1 X153.73 Y95.23 E27.43389
G1 X154.168 Y96.248 E27.48549
G1 X154.315 Y96.648 E27.50533
G1 X154.422 Y96.954 E27.52043
G1 X154.57 Y97.4 E27.54231
G1 X154.816 Y98.268 E27.58432
G1 X154.928 Y98.809 E27.61004
G1 X155.02 Y99.401 E27.63794
G1 X155.063 Y99.745 E27.65408
G1 X155.093 Y100.012 E27.66659
G1 X155.141 Y100.5 E27.68943
G1 X155.189 Y101.355 E27.7293
G1 X155.2 Y102.212 E27.76921
G1 X155.199 Y117.939 E28.50153
G1 X155.189 Y118.636 E28.53398
G1 X155.167 Y119.174 E28.55906
G1 X155.137 Y119.548 E28.57653
G1 X155.098 Y119.94 E28.59487
G1 X155.065 Y120.23 E28.60846
G1 X155.005 Y120.697 E28.63039
G1 X154.85 Y121.587 E28.67245
G1 X154.562 Y122.63 E28.72284
G1 X154.427 Y123.034 E28.74267
G1 X154.325 Y123.325 E28.75703
G1 X154.163 Y123.765 E28.77886
G1 X153.814 Y124.598 E28.82092
G1 X153.289 Y125.569 E28.87232
G1 X153.066 Y125.933 E28.89219
G1 X152.935 Y126.14 E28.9036
G1 X152.694 Y126.513 E28.92428
G1 X152.171 Y127.25 E28.96636
G1 X151.751 Y127.755 E28.99694
G1 X151.703 Y127.809 E29.00031
G1 X151.379 Y128.156 E29.02241
G1 X151.135 Y128.406 E29.03868
G1 X150.951 Y128.59 E29.0508
G1 X150.609 Y128.923 E29.07302
G1 X149.934 Y129.524 E29.11511
G1 X149.314 Y129.991 E29.15125
G1 X148.98 Y130.216 E29.17
G1 X148.696 Y130.4 E29.18576
G1 X148.469 Y130.543 E29.19825
G1 X148.055 Y130.796 E29.22085
G1 X147.264 Y131.233 E29.26292
G1 X146.254 Y131.667 E29.31411
G1 X145.843 Y131.818 E29.3345
G1 X145.537 Y131.925 E29.3496
G1 X145.1 Y132.07 E29.37104
G1 X144.231 Y132.316 E29.41309
G1 X143.658 Y132.434 E29.44033
G1 X143.098 Y132.52 E29.46671
G1 X142.746 Y132.564 E29.48323
G1 X142.446 Y132.597 E29.49728
G1 X141.941 Y132.645 E29.52091
G1 X141.109 Y132.69 E29.5597
G1 X140.288 Y132.7 E29.59794
G1 X90.8 Y132.699 E31.9023
G1 X79.561 Y132.699 E32.42564
G1 X78.863 Y132.689 E32.45814
G1 X78.312 Y132.666 E32.48382
G1 X77.952 Y132.637 E32.50064
G1 X77.56 Y132.598 E32.51898
G1 X77.278 Y132.566 E32.5322
G1 X76.816 Y132.507 E32.55389
G1 X75.926 Y132.353 E32.59594
G1 X74.868 Y132.061 E32.64705
G1 X74.453 Y131.922 E32.66743
G1 X74.207 Y131.836 E32.67957
G1 X73.789 Y131.684 E32.70028
G1 X72.693 Y131.211 E32.75586
G1 X71.936 Y130.791 E32.79617
G1 X71.576 Y130.571 E32.81582
G1 X71.354 Y130.432 E32.82801
G1 X70.98 Y130.19 E32.84876
G1 X70.244 Y129.666 E32.89083
G1 X69.73 Y129.237 E32.922
G1 X69.665 Y129.179 E32.92606
G1 X69.318 Y128.854 E32.94819
G1 X69.072 Y128.613 E32.96423
G1 X68.9 Y128.44 E32.97559
G1 X68.575 Y128.106 E32.99729
G1 X67.974 Y127.432 E33.03934
G1 X67.347 Y126.574 E33.08882
G1 X67.113 Y126.216 E33.10874
G1 X66.939 Y125.94 E33.12393
G1 X66.693 Y125.536 E33.14595
G1 X66.258 Y124.744 E33.18803
G1 X65.829 Y123.745 E33.23866
G1 X65.68 Y123.339 E33.25879
G1 X65.582 Y123.057 E33.2727
G1 X65.436 Y122.62 E33.29415
G1 X65.188 Y121.752 E33.33618
G1 X65.044 Y121.035 E33.37024
G1 X64.979 Y120.591 E33.39113
G1 X64.935 Y120.237 E33.40774
G1 X64.903 Y119.948 E33.42128
G1 X64.855 Y119.445 E33.44481
G1 X64.81 Y118.609 E33.48379
G1 X64.8 Y117.788 E33.52203
G1 X64.801 Y102.061 E34.25434
G1 X64.811 Y101.363 E34.28685
G1 X64.835 Y100.799 E34.31313
G1 X64.863 Y100.451 E34.32939
G1 X64.903 Y100.05 E34.34815
G1 X64.933 Y99.786 E34.36053
G1 X64.99 Y99.334 E34.38174
G1 X65.143 Y98.444 E34.42379
G1 X65.442 Y97.358 E34.47624
G1 X65.591 Y96.915 E34.498
G1 X65.677 Y96.671 E34.51005
G1 X65.82 Y96.279 E34.52948
G1 X66.289 Y95.193 E34.58456
