;FLAVOR:Marlin
;TIME:10873
;Filament used: 10.129m
;Layer height: 0.28
;MINX:40.211
;MINY:71.501
;MINZ:0.28
;MAXX:191.68
;MAXY:163.5
;MAXZ:5.88
;Generated with Cura_SteamEngine 4.6.1
M140 S50
M105
M190 S50
M104 S210
M105
M109 S210
M82 ;absolute extrusion mode
; Ender 3 Custom Start G-code
G92 E0 ; Reset Extruder
G28 ; Home all axes
G1 Z2.0 F3000 ; Move Z Axis up little to prevent scratching of Heat Bed
G1 X0.1 Y20 Z0.3 F5000.0 ; Move to start position
G1 X0.1 Y200.0 Z0.3 F1500.0 E15 ; Draw the first line
G1 X0.4 Y200.0 Z0.3 F5000.0 ; Move to side a little
G1 X0.4 Y20 Z0.3 F1500.0 E30 ; Draw the second line
G92 E0 ; Reset Extruder
G1 Z2.0 F3000 ; Move Z Axis up little to prevent scratching of Heat Bed
G1 X5 Y20 Z0.3 F5000.0 ; Move over to prevent blob squish
G92 E0
G92 E0
G1 F2700 E-5
;LAYER_COUNT:21
;LAYER:0
M107
G0 F6000 X176.832 Y72.311 Z0.28
;TYPE:SKIRT
G1 F2700 E0
G1 F1200 X177.691 Y72.359 E0.04006
G1 X178.351 Y72.428 E0.07096
G1 X178.82 Y72.487 E0.09297
G1 X179.71 Y72.639 E0.13501
G1 X180.689 Y72.903 E0.18223
G1 X181.106 Y73.038 E0.20264
G1 X181.465 Y73.162 E0.22032
G1 X181.911 Y73.325 E0.24243
G1 X182.745 Y73.672 E0.2845
G1 X183.688 Y74.177 E0.33431
G1 X184.292 Y74.547 E0.36729
G1 X184.705 Y74.814 E0.39019
G1 X185.441 Y75.338 E0.43226
G1 X186.251 Y76.042 E0.48223
G1 X186.763 Y76.542 E0.51555
G1 X187.101 Y76.889 E0.53811
G1 X187.702 Y77.563 E0.58016
G1 X188.326 Y78.417 E0.62941
G1 X188.72 Y79.026 E0.66318
G1 X188.974 Y79.441 E0.68584
G1 X189.411 Y80.232 E0.72792
G1 X189.848 Y81.248 E0.77942
G1 X189.995 Y81.648 E0.79926
G1 X190.102 Y81.954 E0.81436
G1 X190.25 Y82.4 E0.83624
G1 X190.496 Y83.268 E0.87825
G1 X190.68 Y84.264 E0.92541
G1 X190.734 Y84.669 E0.94444
G1 X190.775 Y85.028 E0.96126
G1 X190.821 Y85.5 E0.98334
G1 X190.868 Y86.334 E1.02224
G1 X190.88 Y87.212 E1.06313
G1 X190.879 Y137.727 E3.41532
G1 X190.879 Y147.939 E3.89083
G1 X190.869 Y148.637 E3.92334
G1 X190.824 Y149.462 E3.96181
G1 X190.748 Y150.207 E3.99668
G1 X190.693 Y150.643 E4.01714
G1 X190.54 Y151.533 E4.05919
G1 X190.283 Y152.491 E4.10538
G1 X190.143 Y152.926 E4.12666
G1 X190.009 Y153.314 E4.14577
G1 X189.856 Y153.731 E4.16645
G1 X189.507 Y154.565 E4.20855
G1 X189.028 Y155.463 E4.25594
G1 X188.796 Y155.85 E4.27695
G1 X188.615 Y156.14 E4.29287
G1 X188.374 Y156.513 E4.31355
G1 X187.851 Y157.25 E4.35563
G1 X187.163 Y158.044 E4.40455
G1 X186.871 Y158.348 E4.42418
G1 X186.619 Y158.601 E4.44081
G1 X186.278 Y158.932 E4.46293
G1 X185.603 Y159.532 E4.50499
G1 X184.768 Y160.142 E4.55314
G1 X184.399 Y160.384 E4.57369
G1 X184.109 Y160.567 E4.58965
G1 X183.746 Y160.788 E4.60944
G1 X182.955 Y161.223 E4.65148
G1 X182.096 Y161.599 E4.69514
G1 X181.653 Y161.769 E4.71723
G1 X181.232 Y161.92 E4.73806
G1 X180.831 Y162.054 E4.75775
G1 X179.962 Y162.302 E4.79983
G1 X179.028 Y162.479 E4.84409
G1 X178.569 Y162.544 E4.86568
G1 X178.127 Y162.597 E4.88641
G1 X177.675 Y162.641 E4.90755
G1 X176.843 Y162.688 E4.94636
G1 X175.968 Y162.7 E4.98711
G1 X160.241 Y162.699 E5.71942
G1 X159.543 Y162.689 E5.75193
G1 X158.965 Y162.664 E5.77886
G1 X157.352 Y162.549 E5.85416
G1 X154.78 Y162.411 E5.9741
G1 X152.204 Y162.344 E6.09409
G1 X149.672 Y162.351 E6.21199
G1 X147.137 Y162.429 E6.33009
G1 X144.536 Y162.583 E6.45141
G1 X143.382 Y162.665 E6.50528
G1 X142.789 Y162.69 E6.53292
G1 X141.968 Y162.7 E6.57115
G1 X126.241 Y162.699 E7.30347
G1 X125.543 Y162.689 E7.33597
G1 X124.965 Y162.664 E7.36291
G1 X123.352 Y162.549 E7.43821
G1 X120.78 Y162.411 E7.55814
G1 X118.204 Y162.344 E7.67813
G1 X115.672 Y162.351 E7.79604
G1 X113.137 Y162.429 E7.91413
G1 X110.536 Y162.583 E8.03546
G1 X109.382 Y162.665 E8.08933
G1 X108.789 Y162.69 E8.11696
G1 X107.968 Y162.7 E8.1552
G1 X92.241 Y162.699 E8.88751
G1 X91.543 Y162.689 E8.92002
G1 X90.845 Y162.655 E8.95256
G1 X88.179 Y162.434 E9.07712
G1 X85.651 Y162.293 E9.19502
G1 X83.119 Y162.224 E9.31296
G1 X80.585 Y162.228 E9.43096
G1 X78.017 Y162.303 E9.55059
G1 X75.508 Y162.448 E9.66761
G1 X73.126 Y162.65 E9.77892
G1 X72.451 Y162.684 E9.8104
G1 X71.499 Y162.7 E9.85473
G1 X55.772 Y162.699 E10.58705
G1 X55.074 Y162.689 E10.61955
G1 X54.253 Y162.644 E10.65784
G1 X53.538 Y162.572 E10.6913
G1 X53.081 Y162.515 E10.71274
G1 X52.19 Y162.363 E10.75483
G1 X51.229 Y162.106 E10.80115
G1 X50.914 Y162.005 E10.81656
G1 X50.579 Y161.891 E10.83303
G1 X50.053 Y161.702 E10.85906
G1 X49.217 Y161.359 E10.90114
G1 X48.251 Y160.847 E10.95204
G1 X47.636 Y160.473 E10.98556
G1 X47.238 Y160.218 E11.00757
G1 X46.5 Y159.698 E11.04961
G1 X45.682 Y158.993 E11.09989
G1 X45.157 Y158.483 E11.13397
G1 X44.844 Y158.165 E11.15475
G1 X44.239 Y157.494 E11.19682
G1 X43.608 Y156.641 E11.24623
G1 X43.365 Y156.274 E11.26672
G1 X43.189 Y155.999 E11.28193
G1 X42.949 Y155.61 E11.30321
G1 X42.51 Y154.821 E11.34525
G1 X42.07 Y153.811 E11.39655
G1 X41.913 Y153.389 E11.41752
G1 X41.803 Y153.078 E11.43288
G1 X41.658 Y152.646 E11.4541
G1 X41.409 Y151.778 E11.49614
G1 X41.227 Y150.817 E11.54169
G1 X41.18 Y150.482 E11.55744
G1 X41.137 Y150.13 E11.57395
G1 X41.082 Y149.606 E11.59849
G1 X41.027 Y148.683 E11.64154
G1 X41.011 Y147.466 E11.69821
G1 X41.011 Y87.207 E14.50413
G1 X41.012 Y87.061 E14.51092
G1 X41.022 Y86.363 E14.54343
G1 X41.068 Y85.526 E14.58246
G1 X41.113 Y85.061 E14.60422
G1 X41.195 Y84.383 E14.63602
G1 X41.348 Y83.493 E14.67807
G1 X41.495 Y82.903 E14.70638
G1 X41.558 Y82.679 E14.71721
G1 X41.761 Y82.038 E14.74852
G1 X41.991 Y81.388 E14.78063
G1 X42.33 Y80.551 E14.82268
G1 X42.881 Y79.509 E14.87756
G1 X43.239 Y78.924 E14.9095
G1 X43.485 Y78.539 E14.93077
G1 X44.004 Y77.8 E14.97282
G1 X44.709 Y76.981 E15.02314
G1 X45.208 Y76.465 E15.05657
G1 X45.542 Y76.136 E15.0784
G1 X46.213 Y75.532 E15.12044
G1 X47.063 Y74.902 E15.1697
G1 X47.431 Y74.658 E15.19026
G1 X47.718 Y74.474 E15.20614
G1 X48.106 Y74.235 E15.22736
G1 X48.896 Y73.796 E15.26944
G1 X49.882 Y73.367 E15.31951
G1 X50.613 Y73.098 E15.35578
G1 X51.01 Y72.963 E15.37531
G1 X51.877 Y72.71 E15.41736
G1 X52.899 Y72.516 E15.4658
G1 X53.312 Y72.459 E15.48521
G1 X53.667 Y72.416 E15.50186
G1 X54.116 Y72.37 E15.52288
G1 X54.989 Y72.318 E15.5636
G1 X56.009 Y72.303 E15.6111
G1 X71.635 Y72.301 E16.33871
G1 X72.365 Y72.311 E16.37271
G1 X73.08 Y72.346 E16.40604
G1 X75.648 Y72.562 E16.52604
G1 X78.186 Y72.704 E16.64441
G1 X80.726 Y72.775 E16.76273
G1 X83.26 Y72.773 E16.88072
G1 X85.82 Y72.7 E16.99997
G1 X88.311 Y72.557 E17.11615
G1 X90.045 Y72.405 E17.19721
G1 X90.847 Y72.345 E17.23466
G1 X91.444 Y72.318 E17.26248
G1 X92.478 Y72.303 E17.31064
G1 X108.104 Y72.301 E18.03825
G1 X108.834 Y72.311 E18.07224
G1 X109.416 Y72.336 E18.09937
G1 X110.747 Y72.43 E18.1615
G1 X112.865 Y72.559 E18.2603
G1 X115.411 Y72.647 E18.37893
G1 X117.975 Y72.662 E18.49832
G1 X120.459 Y72.606 E18.61402
G1 X124.059 Y72.405 E18.78191
G1 X124.837 Y72.346 E18.81824
G1 X125.442 Y72.318 E18.84644
G1 X126.478 Y72.303 E18.89469
G1 X142.104 Y72.301 E19.6223
G1 X142.834 Y72.311 E19.65629
G1 X143.416 Y72.336 E19.68342
G1 X144.747 Y72.43 E19.74555
G1 X146.865 Y72.559 E19.84436
G1 X149.411 Y72.647 E19.96298
G1 X151.975 Y72.662 E20.08237
G1 X154.459 Y72.606 E20.19807
G1 X158.059 Y72.405 E20.36596
G1 X158.837 Y72.346 E20.40229
G1 X159.442 Y72.318 E20.43049
G1 X160.478 Y72.303 E20.47874
G1 X176.104 Y72.301 E21.20635
G1 X176.832 Y72.311 E21.24025
G0 F6000 X176.838 Y71.911
G1 F1200 X177.731 Y71.961 E21.2819
G1 X178.401 Y72.031 E21.31326
G1 X178.87 Y72.09 E21.33528
G1 X179.778 Y72.244 E21.37816
G1 X180.812 Y72.522 E21.42802
G1 X181.229 Y72.657 E21.44843
G1 X181.603 Y72.786 E21.46685
G1 X182.049 Y72.949 E21.48896
G1 X182.899 Y73.302 E21.53182
G1 X183.895 Y73.834 E21.5844
G1 X184.509 Y74.211 E21.61794
G1 X184.922 Y74.478 E21.64084
G1 X185.673 Y75.011 E21.68373
G1 X186.529 Y75.754 E21.73651
G1 X186.818 Y76.033 E21.75521
G1 X187.049 Y76.263 E21.77039
G1 X187.387 Y76.61 E21.79295
G1 X188 Y77.297 E21.83582
G1 X188.661 Y78.198 E21.88785
G1 X189.061 Y78.817 E21.92217
G1 X189.315 Y79.232 E21.94483
G1 X189.761 Y80.038 E21.98772
G1 X190.223 Y81.11 E22.04208
G1 X190.482 Y81.828 E22.07762
G1 X190.63 Y82.274 E22.0995
G1 X190.881 Y83.159 E22.14233
G1 X191.076 Y84.211 E22.19215
G1 X191.13 Y84.616 E22.21118
G1 X191.173 Y84.989 E22.22866
G1 X191.219 Y85.461 E22.25074
G1 X191.268 Y86.328 E22.29118
G1 X191.28 Y87.212 E22.33235
G1 X191.279 Y137.727 E24.68454
G1 X191.279 Y147.945 E25.16033
G1 X191.269 Y148.643 E25.19283
G1 X191.222 Y149.501 E25.23285
G1 X191.145 Y150.257 E25.26823
G1 X191.09 Y150.693 E25.28869
G1 X190.935 Y151.6 E25.33154
G1 X190.663 Y152.613 E25.38038
G1 X190.523 Y153.048 E25.40166
G1 X190.384 Y153.452 E25.42155
G1 X190.231 Y153.869 E25.44224
G1 X189.877 Y154.719 E25.48511
G1 X189.371 Y155.668 E25.53519
G1 X189.139 Y156.055 E25.5562
G1 X188.951 Y156.358 E25.5728
G1 X188.71 Y156.731 E25.59348
G1 X188.178 Y157.481 E25.6363
G1 X187.452 Y158.321 E25.688
G1 X187.16 Y158.625 E25.70762
G1 X186.898 Y158.888 E25.72491
G1 X186.557 Y159.219 E25.74704
G1 X185.869 Y159.831 E25.78992
G1 X184.987 Y160.477 E25.84082
G1 X184.618 Y160.719 E25.86137
G1 X184.317 Y160.909 E25.87795
G1 X183.954 Y161.13 E25.89773
G1 X183.148 Y161.574 E25.94058
G1 X182.24 Y161.972 E25.98675
G1 X181.797 Y162.142 E26.00884
G1 X181.359 Y162.3 E26.03052
G1 X180.958 Y162.434 E26.05021
G1 X180.072 Y162.687 E26.09312
G1 X179.084 Y162.875 E26.13995
G1 X178.625 Y162.94 E26.16153
G1 X178.166 Y162.995 E26.18306
G1 X177.714 Y163.039 E26.2042
G1 X176.849 Y163.088 E26.24455
G1 X175.968 Y163.1 E26.28557
G1 X160.235 Y163.099 E27.01817
G1 X159.537 Y163.089 E27.05067
G1 X158.937 Y163.063 E27.07864
G1 X157.36 Y162.951 E27.15226
G1 X154.714 Y162.809 E27.27564
G1 X152.23 Y162.744 E27.39135
G1 X149.685 Y162.751 E27.50985
G1 X147.174 Y162.828 E27.62683
G1 X144.508 Y162.986 E27.75119
G1 X143.411 Y163.064 E27.8024
G1 X142.794 Y163.09 E27.83115
G1 X141.968 Y163.1 E27.86962
G1 X126.235 Y163.099 E28.60221
G1 X125.537 Y163.089 E28.63472
G1 X124.937 Y163.063 E28.66268
G1 X123.36 Y162.951 E28.7363
G1 X120.714 Y162.809 E28.85969
G1 X118.23 Y162.744 E28.97539
G1 X115.685 Y162.751 E29.0939
G1 X113.174 Y162.828 E29.21087
G1 X110.508 Y162.986 E29.33523
G1 X109.411 Y163.064 E29.38644
G1 X108.794 Y163.09 E29.4152
G1 X107.968 Y163.1 E29.45366
G1 X92.235 Y163.099 E30.18626
G1 X91.537 Y163.089 E30.21876
G1 X90.812 Y163.054 E30.25256
G1 X88.16 Y162.834 E30.37647
G1 X85.618 Y162.693 E30.49502
G1 X83.109 Y162.624 E30.61189
G1 X80.562 Y162.628 E30.73049
G1 X78.051 Y162.702 E30.84747
G1 X75.529 Y162.847 E30.9651
G1 X73.16 Y163.048 E31.0758
G1 X72.458 Y163.084 E31.10853
G1 X71.499 Y163.1 E31.1532
G1 X55.766 Y163.099 E31.88579
G1 X55.068 Y163.089 E31.9183
G1 X54.215 Y163.042 E31.95807
G1 X53.488 Y162.968 E31.9921
G1 X53.031 Y162.911 E32.01355
G1 X52.123 Y162.758 E32.05642
G1 X51.107 Y162.487 E32.10539
G1 X50.792 Y162.386 E32.12079
G1 X50.444 Y162.268 E32.1379
G1 X49.918 Y162.079 E32.16393
G1 X49.066 Y161.73 E32.2068
G1 X48.045 Y161.19 E32.26058
G1 X47.421 Y160.81 E32.2946
G1 X47.023 Y160.555 E32.31661
G1 X46.27 Y160.025 E32.35949
G1 X45.405 Y159.282 E32.41258
G1 X45.09 Y158.98 E32.4329
G1 X44.872 Y158.764 E32.44719
G1 X44.559 Y158.446 E32.46797
G1 X43.942 Y157.762 E32.51086
G1 X43.275 Y156.862 E32.56303
G1 X43.032 Y156.495 E32.58352
G1 X42.849 Y156.209 E32.59933
G1 X42.609 Y155.82 E32.62061
G1 X42.16 Y155.016 E32.66349
G1 X41.695 Y153.95 E32.71765
G1 X41.538 Y153.528 E32.73862
G1 X41.424 Y153.205 E32.75456
G1 X41.279 Y152.773 E32.77578
G1 X41.024 Y151.888 E32.81867
G1 X40.831 Y150.873 E32.86678
G1 X40.784 Y150.538 E32.88253
G1 X40.739 Y150.172 E32.8997
G1 X40.684 Y149.648 E32.92423
G1 X40.627 Y148.689 E32.96897
G1 X40.611 Y147.466 E33.02592
G1 X40.611 Y87.207 E35.83183
G1 X40.612 Y87.055 E35.83891
G1 X40.622 Y86.357 E35.87142
G1 X40.67 Y85.488 E35.91194
G1 X40.75 Y84.712 E35.94827
G1 X40.798 Y84.333 E35.96606
G1 X40.953 Y83.426 E36.0089
G1 X41.11 Y82.795 E36.03918
G1 X41.173 Y82.571 E36.05002
G1 X41.384 Y81.905 E36.08255
G1 X41.614 Y81.255 E36.11465
G1 X41.959 Y80.401 E36.15754
G1 X42.539 Y79.302 E36.2154
G1 X42.902 Y78.709 E36.24778
G1 X43.148 Y78.324 E36.26905
G1 X43.677 Y77.57 E36.31194
G1 X44.42 Y76.704 E36.36507
G1 X44.927 Y76.18 E36.39902
G1 X45.261 Y75.851 E36.42086
G1 X45.945 Y75.234 E36.46375
G1 X46.842 Y74.569 E36.51574
G1 X47.21 Y74.325 E36.5363
G1 X47.509 Y74.134 E36.55282
G1 X47.897 Y73.895 E36.57404
G1 X48.701 Y73.446 E36.61692
G1 X49.741 Y72.992 E36.66976
G1 X50.484 Y72.719 E36.70662
G1 X50.881 Y72.584 E36.72615
G1 X51.765 Y72.326 E36.76903
G1 X52.845 Y72.12 E36.82022
G1 X53.258 Y72.063 E36.83964
G1 X53.627 Y72.018 E36.85695
G1 X54.076 Y71.972 E36.87796
G1 X54.982 Y71.918 E36.92022
G1 X56.009 Y71.903 E36.96805
G1 X71.64 Y71.901 E37.6959
G1 X72.37 Y71.911 E37.72989
G1 X73.113 Y71.947 E37.76453
G1 X75.703 Y72.165 E37.88556
G1 X78.183 Y72.304 E38.00122
G1 X80.737 Y72.375 E38.12019
G1 X83.248 Y72.373 E38.23711
G1 X85.786 Y72.3 E38.35534
G1 X88.319 Y72.155 E38.47348
G1 X90.015 Y72.007 E38.55275
G1 X90.817 Y71.947 E38.5902
G1 X91.438 Y71.918 E38.61915
G1 X92.478 Y71.903 E38.66758
G1 X108.109 Y71.901 E39.39543
G1 X108.839 Y71.911 E39.42942
G1 X109.444 Y71.937 E39.45762
G1 X110.794 Y72.033 E39.52064
G1 X112.868 Y72.159 E39.61739
G1 X115.427 Y72.247 E39.73662
G1 X117.968 Y72.262 E39.85494
G1 X120.456 Y72.206 E39.97082
G1 X124.009 Y72.007 E40.13652
G1 X124.807 Y71.947 E40.17379
G1 X125.435 Y71.918 E40.20306
G1 X126.478 Y71.903 E40.25163
G1 X142.109 Y71.901 E40.97948
G1 X142.839 Y71.911 E41.01347
G1 X143.444 Y71.937 E41.04167
G1 X144.794 Y72.033 E41.10469
G1 X146.868 Y72.159 E41.20144
G1 X149.427 Y72.247 E41.32067
G1 X151.968 Y72.262 E41.43899
G1 X154.456 Y72.206 E41.55487
G1 X158.009 Y72.007 E41.72057
G1 X158.807 Y71.947 E41.75784
G1 X159.435 Y71.918 E41.78711
G1 X160.478 Y71.903 E41.83568
G1 X176.11 Y71.901 E42.56357
G1 X176.838 Y71.911 E42.59748
G0 F6000 X176.843 Y71.511
G1 F1200 X177.77 Y71.563 E42.64071
G1 X178.451 Y71.634 E42.67259
G1 X178.92 Y71.693 E42.6946
G1 X179.845 Y71.85 E42.73829
G1 X180.935 Y72.142 E42.79083
G1 X181.352 Y72.277 E42.81124
G1 X181.74 Y72.41 E42.83034
G1 X182.186 Y72.573 E42.85245
G1 X183.052 Y72.933 E42.89612
G1 X184.102 Y73.492 E42.95151
G1 X184.726 Y73.875 E42.98561
G1 X185.139 Y74.142 E43.00851
G1 X185.904 Y74.685 E43.05219
G1 X186.807 Y75.466 E43.10778
G1 X187.096 Y75.745 E43.12649
G1 X187.336 Y75.984 E43.14226
G1 X187.674 Y76.331 E43.16481
G1 X188.299 Y77.03 E43.20848
G1 X188.995 Y77.978 E43.26324
G1 X189.221 Y78.323 E43.28244
G1 X189.402 Y78.609 E43.2982
G1 X189.656 Y79.024 E43.32086
G1 X190.111 Y79.844 E43.36453
G1 X190.599 Y80.972 E43.42175
G1 X190.746 Y81.372 E43.4416
G1 X190.861 Y81.702 E43.45787
G1 X191.009 Y82.148 E43.47975
G1 X191.266 Y83.049 E43.52338
G1 X191.473 Y84.158 E43.57591
G1 X191.527 Y84.563 E43.59494
G1 X191.571 Y84.95 E43.61307
G1 X191.617 Y85.422 E43.63516
G1 X191.668 Y86.322 E43.67713
G1 X191.68 Y87.212 E43.71858
G1 X191.679 Y137.727 E46.07077
G1 X191.679 Y147.951 E46.54684
G1 X191.669 Y148.649 E46.57934
G1 X191.62 Y149.539 E46.62085
G1 X191.542 Y150.307 E46.65679
G1 X191.487 Y150.743 E46.67726
G1 X191.33 Y151.667 E46.7209
G1 X191.044 Y152.736 E46.77243
G1 X190.904 Y153.171 E46.79371
G1 X190.76 Y153.59 E46.81434
G1 X190.607 Y154.007 E46.83502
G1 X190.247 Y154.873 E46.87869
G1 X189.715 Y155.874 E46.93147
G1 X189.483 Y156.261 E46.95248
G1 X189.287 Y156.575 E46.96972
G1 X189.046 Y156.948 E46.9904
G1 X188.504 Y157.713 E47.03405
G1 X187.74 Y158.598 E47.08849
G1 X187.448 Y158.902 E47.10812
G1 X187.177 Y159.175 E47.12603
G1 X186.836 Y159.506 E47.14816
G1 X186.135 Y160.13 E47.19186
G1 X185.206 Y160.811 E47.2455
G1 X184.837 Y161.053 E47.26605
G1 X184.525 Y161.251 E47.28325
G1 X184.162 Y161.472 E47.30304
G1 X183.341 Y161.925 E47.3467
G1 X182.383 Y162.346 E47.39543
G1 X181.94 Y162.516 E47.41753
G1 X181.485 Y162.679 E47.44003
G1 X181.084 Y162.813 E47.45972
G1 X180.183 Y163.072 E47.50337
G1 X179.14 Y163.271 E47.55281
G1 X178.681 Y163.336 E47.5744
G1 X178.205 Y163.393 E47.59672
G1 X177.753 Y163.437 E47.61787
G1 X176.855 Y163.488 E47.65975
G1 X175.968 Y163.5 E47.70106
G1 X160.229 Y163.499 E48.43393
G1 X159.531 Y163.489 E48.46644
G1 X158.908 Y163.462 E48.49547
G1 X157.31 Y163.348 E48.57007
G1 X154.717 Y163.209 E48.69099
