;FLAVOR:Marlin
;TIME:2336
;Filament used: 2.10902m
;Layer height: 0.28
;MINX:64
;MINY:86.5
;MINZ:0.28
;MAXX:156
;MAXY:133.5
;MAXZ:5.88
;Generated with Cura_SteamEngine 4.8.0
M140 S60
M105
M190 S60
M104 S205
M105
M109 S205
M82 ;absolute extrusion mode
; Ender 3 Custom Start G-code
G92 E0 ; Reset Extruder
G28 ; Home all axes
G1 Z2.0 F3000 ; Move Z Axis up little to prevent scratching of Heat Bed
G1 X0.1 Y20 Z0.3 F5000.0 ; Move to start position
G1 X0.1 Y200.0 Z0.3 F1500.0 E15 ; Draw the first line
G1 X0.4 Y200.0 Z0.3 F5000.0 ; Move to side a little
G1 X0.4 Y20 Z0.3 F1500.0 E30 ; Draw the second line
G92 E0 ; Reset Extruder
G1 Z2.0 F3000 ; Move Z Axis up little to prevent scratching of Heat Bed
G1 X5 Y20 Z0.3 F5000.0 ; Move over to prevent blob squish
G92 E0
G92 E0
G1 F2400 E-6.5
;LAYER_COUNT:21
;LAYER:0
M107
G0 F6000 X69.533 Y89.878 Z0.28
;TYPE:SKIRT
G1 F2400 E0
G1 F1200 X70.23 Y89.352 E0.04066
G1 X70.585 Y89.112 E0.06061
G1 X70.869 Y88.928 E0.07637
G1 X71.141 Y88.757 E0.09133
G1 X71.561 Y88.502 E0.11421
G1 X72.383 Y88.05 E0.15789
G1 X73.472 Y87.581 E0.2131
G1 X73.877 Y87.432 E0.2332
G1 X74.211 Y87.316 E0.24966
G1 X74.648 Y87.171 E0.2711
G1 X75.55 Y86.914 E0.31477
G1 X76.144 Y86.788 E0.34305
G1 X76.199 Y86.778 E0.34565
G1 X76.803 Y86.686 E0.3741
G1 X77.155 Y86.642 E0.39062
G1 X77.478 Y86.606 E0.40575
G1 X77.983 Y86.558 E0.42937
G1 X78.88 Y86.51 E0.4712
G1 X79.712 Y86.5 E0.50994
G1 X89.293 Y86.5 E0.95607
G1 X90.151 Y86.511 E0.99603
G1 X91.087 Y86.564 E1.03968
G1 X92.007 Y86.696 E1.08296
G1 X93.224 Y86.923 E1.14061
G1 X93.725 Y87.023 E1.1644
G1 X96.174 Y87.444 E1.28011
G1 X98.712 Y87.807 E1.39949
G1 X101.175 Y88.087 E1.51491
G1 X103.7 Y88.303 E1.63292
G1 X106.185 Y88.445 E1.74882
G1 X108.736 Y88.517 E1.86765
G1 X111.236 Y88.518 E1.98406
G1 X113.751 Y88.449 E2.10121
G1 X116.269 Y88.307 E2.21865
G1 X118.799 Y88.092 E2.33688
G1 X121.256 Y87.814 E2.45202
G1 X123.802 Y87.452 E2.57176
G1 X126.275 Y87.029 E2.68859
G1 X127.914 Y86.711 E2.76633
G1 X128.842 Y86.571 E2.81003
G1 X129.701 Y86.513 E2.85012
G1 X130.02 Y86.504 E2.86498
G1 X130.33 Y86.5 E2.87942
G1 X140.451 Y86.501 E3.35069
G1 X141.148 Y86.511 E3.38315
G1 X141.724 Y86.534 E3.41
G1 X142.127 Y86.567 E3.42882
G1 X142.519 Y86.606 E3.44717
G1 X142.823 Y86.641 E3.46142
G1 X143.285 Y86.7 E3.4831
G1 X144.21 Y86.858 E3.5268
G1 X145.378 Y87.178 E3.58319
G1 X145.785 Y87.314 E3.60317
G1 X146.097 Y87.424 E3.61858
G1 X146.54 Y87.587 E3.64056
G1 X147.406 Y87.948 E3.68424
G1 X148.481 Y88.526 E3.74108
G1 X148.844 Y88.748 E3.76089
G1 X149.087 Y88.901 E3.77426
G1 X149.462 Y89.144 E3.79507
G1 X150.226 Y89.687 E3.83871
G1 X150.735 Y90.107 E3.86944
G1 X150.784 Y90.15 E3.87248
G1 X151.197 Y90.531 E3.89864
G1 X151.45 Y90.777 E3.91507
G1 X151.663 Y90.99 E3.9291
G1 X151.996 Y91.332 E3.95133
G1 X152.621 Y92.031 E3.99499
G1 X153.197 Y92.8 E4.03973
G1 X153.395 Y93.096 E4.05631
G1 X153.574 Y93.373 E4.07167
G1 X153.716 Y93.599 E4.0841
G1 X153.975 Y94.022 E4.10719
G1 X154.43 Y94.842 E4.15086
G1 X154.919 Y95.972 E4.20819
G1 X155.066 Y96.372 E4.22803
G1 X155.181 Y96.702 E4.24431
G1 X155.329 Y97.148 E4.26619
G1 X155.586 Y98.049 E4.30982
G1 X155.715 Y98.663 E4.33903
G1 X155.814 Y99.302 E4.36914
G1 X155.857 Y99.646 E4.38528
G1 X155.889 Y99.933 E4.39873
G1 X155.937 Y100.421 E4.42156
G1 X155.989 Y101.344 E4.46461
G1 X156 Y102.212 E4.50503
G1 X155.999 Y117.951 E5.2379
G1 X155.989 Y118.648 E5.27036
G1 X155.966 Y119.224 E5.29721
G1 X155.933 Y119.627 E5.31603
G1 X155.894 Y120.019 E5.33438
G1 X155.858 Y120.332 E5.34905
G1 X155.798 Y120.799 E5.37097
G1 X155.639 Y121.723 E5.41463
G1 X155.321 Y122.883 E5.47064
G1 X155.186 Y123.287 E5.49047
G1 X155.076 Y123.602 E5.50601
G1 X154.914 Y124.042 E5.52784
G1 X154.552 Y124.907 E5.5715
G1 X153.971 Y125.987 E5.62861
G1 X153.748 Y126.351 E5.64848
G1 X153.607 Y126.575 E5.66081
G1 X153.366 Y126.948 E5.68149
G1 X152.824 Y127.713 E5.72514
G1 X152.349 Y128.286 E5.7598
G1 X152.301 Y128.34 E5.76316
G1 X151.953 Y128.713 E5.78692
G1 X151.715 Y128.957 E5.80279
G1 X151.517 Y129.155 E5.81583
G1 X151.169 Y129.494 E5.83845
G1 X150.47 Y130.12 E5.88214
G1 X149.77 Y130.648 E5.92297
G1 X149.415 Y130.888 E5.94292
G1 X149.131 Y131.072 E5.95868
G1 X148.862 Y131.241 E5.97347
G1 X148.444 Y131.495 E5.99625
G1 X147.623 Y131.947 E6.03989
G1 X146.536 Y132.415 E6.095
G1 X146.129 Y132.565 E6.1152
G1 X145.789 Y132.684 E6.13197
G1 X145.352 Y132.829 E6.15341
G1 X144.45 Y133.086 E6.19708
G1 X143.856 Y133.212 E6.22536
G1 X143.801 Y133.222 E6.22796
G1 X143.197 Y133.314 E6.25641
G1 X142.845 Y133.358 E6.27293
G1 X142.522 Y133.394 E6.28806
G1 X142.017 Y133.442 E6.31168
G1 X141.12 Y133.49 E6.35351
G1 X140.288 Y133.5 E6.39225
G1 X130.55 Y133.499 E6.84569
G1 X129.849 Y133.489 E6.87834
G1 X128.913 Y133.436 E6.92199
G1 X127.993 Y133.304 E6.96527
G1 X126.776 Y133.077 E7.02292
G1 X126.275 Y132.977 E7.04671
G1 X123.826 Y132.556 E7.16241
G1 X121.288 Y132.193 E7.2818
G1 X118.825 Y131.913 E7.39722
G1 X116.3 Y131.697 E7.51523
G1 X113.815 Y131.555 E7.63113
G1 X111.264 Y131.483 E7.74996
G1 X108.764 Y131.482 E7.86637
G1 X106.249 Y131.551 E7.98352
G1 X103.731 Y131.693 E8.10096
G1 X101.201 Y131.908 E8.21919
G1 X98.744 Y132.186 E8.33433
G1 X96.198 Y132.548 E8.45407
G1 X93.725 Y132.971 E8.5709
G1 X92.086 Y133.289 E8.64864
G1 X91.158 Y133.429 E8.69234
G1 X90.299 Y133.487 E8.73243
G1 X89.98 Y133.496 E8.74729
G1 X89.67 Y133.5 E8.76173
G1 X79.549 Y133.499 E9.233
G1 X78.852 Y133.489 E9.26546
G1 X78.276 Y133.466 E9.2923
G1 X77.873 Y133.433 E9.31113
G1 X77.481 Y133.394 E9.32948
G1 X77.177 Y133.359 E9.34372
G1 X76.715 Y133.3 E9.36541
G1 X75.79 Y133.142 E9.40911
G1 X74.614 Y132.819 E9.46589
G1 X74.199 Y132.68 E9.48627
G1 X73.934 Y132.588 E9.49934
G1 X73.516 Y132.436 E9.52005
G1 X72.336 Y131.927 E9.57989
G1 X71.519 Y131.474 E9.62339
G1 X71.159 Y131.254 E9.64303
G1 X70.919 Y131.103 E9.65623
G1 X70.545 Y130.861 E9.67698
G1 X69.78 Y130.319 E9.72063
G1 X69.197 Y129.834 E9.75595
G1 X69.132 Y129.776 E9.76
G1 X68.758 Y129.426 E9.78385
G1 X68.512 Y129.185 E9.79989
G1 X68.326 Y128.998 E9.81217
G1 X68.001 Y128.664 E9.83387
G1 X67.377 Y127.965 E9.8775
G1 X66.677 Y127.011 E9.9326
G1 X66.443 Y126.653 E9.95251
G1 X66.256 Y126.356 E9.96886
G1 X66.01 Y125.952 E9.99088
G1 X65.557 Y125.131 E10.03454
G1 X65.078 Y124.021 E10.09084
G1 X64.929 Y123.615 E10.11098
G1 X64.823 Y123.311 E10.12597
G1 X64.677 Y122.874 E10.14742
G1 X64.418 Y121.972 E10.19112
G1 X64.254 Y121.164 E10.22951
G1 X64.185 Y120.69 E10.25181
G1 X64.141 Y120.336 E10.26843
G1 X64.107 Y120.024 E10.28304
G1 X64.059 Y119.521 E10.30657
G1 X64.01 Y118.62 E10.34858
G1 X64 Y117.788 E10.38733
G1 X64.001 Y102.049 E11.1202
G1 X64.011 Y101.351 E11.15271
G1 X64.036 Y100.747 E11.18086
G1 X64.067 Y100.371 E11.19842
G1 X64.107 Y99.97 E11.21719
G1 X64.139 Y99.686 E11.2305
G1 X64.196 Y99.234 E11.25171
G1 X64.353 Y98.309 E11.2954
G1 X64.684 Y97.103 E11.35363
G1 X64.833 Y96.66 E11.37539
G1 X64.925 Y96.397 E11.38837
G1 X65.068 Y96.005 E11.4078
G1 X65.573 Y94.836 E11.46709
G1 X66.026 Y94.019 E11.51059
G1 X66.246 Y93.659 E11.53024
G1 X66.397 Y93.419 E11.54344
G1 X66.639 Y93.045 E11.56418
G1 X67.181 Y92.28 E11.60784
G1 X67.635 Y91.733 E11.64094
G1 X67.681 Y91.681 E11.64417
G1 X68.049 Y91.284 E11.66938
G1 X68.297 Y91.03 E11.68591
G1 X68.495 Y90.833 E11.69892
G1 X68.834 Y90.503 E11.72095
G1 X69.533 Y89.878 E11.76461
G0 F6000 X69.8 Y90.177
G1 F1200 X70.458 Y89.68 E11.803
G1 X70.802 Y89.448 E11.82233
G1 X71.086 Y89.264 E11.83808
G1 X71.349 Y89.099 E11.85254
G1 X71.769 Y88.844 E11.87542
G1 X72.576 Y88.401 E11.91829
G1 X73.61 Y87.957 E11.97068
G1 X74.015 Y87.808 E11.99078
G1 X74.337 Y87.695 E12.00667
G1 X74.774 Y87.55 E12.02811
G1 X75.659 Y87.299 E12.07094
G1 X76.271 Y87.172 E12.10005
G1 X76.852 Y87.083 E12.12742
G1 X77.204 Y87.039 E12.14393
G1 X77.516 Y87.005 E12.15855
G1 X78.021 Y86.957 E12.18217
G1 X78.885 Y86.91 E12.22246
G1 X79.712 Y86.9 E12.26097
G1 X89.293 Y86.9 E12.7071
G1 X90.145 Y86.911 E12.74678
G1 X91.064 Y86.964 E12.78964
G1 X91.934 Y87.089 E12.83057
G1 X93.145 Y87.315 E12.88793
G1 X93.65 Y87.416 E12.91191
G1 X96.116 Y87.84 E13.02843
G1 X98.648 Y88.202 E13.14752
G1 X101.167 Y88.489 E13.26558
G1 X103.642 Y88.7 E13.38124
G1 X106.187 Y88.845 E13.49994
G1 X108.725 Y88.917 E13.61817
G1 X111.247 Y88.918 E13.7356
G1 X113.784 Y88.848 E13.85378
G1 X116.291 Y88.707 E13.9707
G1 X118.807 Y88.493 E14.08828
G1 X121.32 Y88.209 E14.20604
G1 X123.854 Y87.849 E14.32522
G1 X126.332 Y87.425 E14.44228
G1 X127.99 Y87.103 E14.52093
G1 X128.901 Y86.967 E14.56382
G1 X129.712 Y86.913 E14.60167
G1 X130.031 Y86.904 E14.61653
G1 X130.33 Y86.9 E14.63045
G1 X140.445 Y86.901 E15.10145
G1 X141.142 Y86.911 E15.13391
G1 X141.699 Y86.934 E15.15986
G1 X142.087 Y86.965 E15.17799
G1 X142.479 Y87.004 E15.19633
G1 X142.773 Y87.037 E15.21011
G1 X143.235 Y87.096 E15.2318
G1 X144.142 Y87.253 E15.27466
G1 X145.251 Y87.557 E15.3282
G1 X145.658 Y87.693 E15.34818
G1 X145.959 Y87.799 E15.36304
G1 X146.402 Y87.962 E15.38502
G1 X147.252 Y88.317 E15.42792
G1 X148.272 Y88.867 E15.48188
G1 X148.635 Y89.089 E15.50169
G1 X148.869 Y89.236 E15.51456
G1 X149.244 Y89.479 E15.53536
G1 X149.995 Y90.013 E15.57827
G1 X150.472 Y90.408 E15.60711
G1 X150.521 Y90.451 E15.61015
G1 X150.918 Y90.818 E15.63532
G1 X151.171 Y91.064 E15.65175
G1 X151.377 Y91.269 E15.66529
G1 X151.71 Y91.611 E15.68751
G1 X152.323 Y92.298 E15.73038
G1 X152.867 Y93.026 E15.7727
G1 X153.059 Y93.313 E15.78878
G1 X153.238 Y93.59 E15.80414
G1 X153.375 Y93.808 E15.81613
G1 X153.634 Y94.231 E15.83922
G1 X154.08 Y95.036 E15.88208
G1 X154.543 Y96.11 E15.93653
G1 X154.69 Y96.51 E15.95638
G1 X154.802 Y96.828 E15.97208
G1 X154.95 Y97.274 E15.99396
G1 X155.201 Y98.159 E16.03679
G1 X155.322 Y98.736 E16.06425
G1 X155.417 Y99.351 E16.09322
G1 X155.46 Y99.695 E16.10936
G1 X155.491 Y99.972 E16.12234
G1 X155.539 Y100.46 E16.14518
G1 X155.589 Y101.35 E16.18668
G1 X155.6 Y102.212 E16.22683
G1 X155.599 Y117.945 E16.95942
G1 X155.589 Y118.642 E16.99188
G1 X155.566 Y119.199 E17.01784
G1 X155.535 Y119.587 E17.03596
G1 X155.496 Y119.979 E17.0543
G1 X155.462 Y120.281 E17.06846
G1 X155.402 Y120.748 E17.09038
G1 X155.245 Y121.655 E17.13324
G1 X154.942 Y122.756 E17.18641
G1 X154.807 Y123.16 E17.20625
G1 X154.7 Y123.463 E17.22121
G1 X154.538 Y123.903 E17.24304
G1 X154.183 Y124.753 E17.28594
G1 X153.63 Y125.778 E17.34017
G1 X153.407 Y126.142 E17.36005
G1 X153.271 Y126.358 E17.37193
G1 X153.03 Y126.731 E17.39261
G1 X152.498 Y127.481 E17.43543
G1 X152.05 Y128.02 E17.46806
G1 X152.002 Y128.074 E17.47143
G1 X151.667 Y128.433 E17.49429
G1 X151.429 Y128.677 E17.51016
G1 X151.238 Y128.869 E17.52277
G1 X150.89 Y129.208 E17.5454
G1 X150.203 Y129.821 E17.58827
G1 X149.542 Y130.32 E17.62683
G1 X149.198 Y130.552 E17.64615
G1 X148.914 Y130.736 E17.66191
G1 X148.655 Y130.899 E17.67616
G1 X148.237 Y131.153 E17.69894
G1 X147.43 Y131.596 E17.7418
G1 X146.398 Y132.04 E17.79412
G1 X145.991 Y132.19 E17.81431
G1 X145.663 Y132.305 E17.8305
G1 X145.226 Y132.45 E17.85194
G1 X144.341 Y132.701 E17.89477
G1 X143.729 Y132.828 E17.92388
G1 X143.148 Y132.917 E17.95125
G1 X142.796 Y132.961 E17.96776
G1 X142.484 Y132.995 E17.98238
G1 X141.979 Y133.043 E18.006
G1 X141.115 Y133.09 E18.04629
G1 X140.288 Y133.1 E18.0848
G1 X130.556 Y133.099 E18.53796
G1 X129.855 Y133.089 E18.57061
G1 X128.936 Y133.036 E18.61347
G1 X128.066 Y132.911 E18.6544
G1 X126.855 Y132.685 E18.71176
G1 X126.35 Y132.584 E18.73574
G1 X123.884 Y132.16 E18.85225
G1 X121.352 Y131.798 E18.97135
G1 X118.833 Y131.511 E19.08941
G1 X116.358 Y131.3 E19.20507
G1 X113.813 Y131.155 E19.32377
G1 X111.275 Y131.083 E19.442
G1 X108.753 Y131.082 E19.55943
G1 X106.216 Y131.152 E19.67761
G1 X103.709 Y131.293 E19.79453
G1 X101.193 Y131.507 E19.91211
G1 X98.68 Y131.791 E20.02987
G1 X96.146 Y132.151 E20.14905
G1 X93.668 Y132.575 E20.26611
G1 X92.01 Y132.897 E20.34476
G1 X91.099 Y133.033 E20.38765
G1 X90.288 Y133.087 E20.4255
G1 X89.969 Y133.096 E20.44036
G1 X89.67 Y133.1 E20.45428
G1 X79.555 Y133.099 E20.92528
G1 X78.858 Y133.089 E20.95774
G1 X78.301 Y133.066 E20.98369
G1 X77.913 Y133.035 E21.00182
G1 X77.521 Y132.996 E21.02016
G1 X77.227 Y132.963 E21.03394
G1 X76.765 Y132.904 E21.05562
G1 X75.858 Y132.747 E21.09849
G1 X74.741 Y132.44 E21.15243
G1 X74.326 Y132.301 E21.17281
G1 X74.071 Y132.212 E21.18538
G1 X73.653 Y132.06 E21.20609
G1 X72.515 Y131.569 E21.26381
G1 X71.728 Y131.133 E21.3057
G1 X71.368 Y130.913 E21.32534
G1 X71.137 Y130.767 E21.33807
G1 X70.763 Y130.525 E21.35881
G1 X70.012 Y129.992 E21.40169
G1 X69.464 Y129.535 E21.43492
G1 X69.399 Y129.477 E21.43898
G1 X69.038 Y129.14 E21.46197
G1 X68.792 Y128.899 E21.47801
G1 X68.613 Y128.719 E21.48983
G1 X68.288 Y128.385 E21.51153
G1 X67.675 Y127.698 E21.5544
G1 X67.012 Y126.793 E21.60664
G1 X66.778 Y126.435 E21.62656
G1 X66.597 Y126.148 E21.64236
G1 X66.351 Y125.744 E21.66438
G1 X65.907 Y124.937 E21.70727
G1 X65.454 Y123.883 E21.76069
G1 X65.305 Y123.477 E21.78083
G1 X65.202 Y123.184 E21.79529
G1 X65.056 Y122.747 E21.81674
G1 X64.803 Y121.862 E21.8596
G1 X64.649 Y121.1 E21.8958
G1 X64.582 Y120.64 E21.91745
G1 X64.538 Y120.286 E21.93406
G1 X64.505 Y119.986 E21.94811
G1 X64.457 Y119.483 E21.97164
G1 X64.41 Y118.615 E22.01212
G1 X64.4 Y117.788 E22.05063
G1 X64.401 Y102.055 E22.78322
G1 X64.411 Y101.357 E22.81573
G1 X64.435 Y100.773 E22.84294
G1 X64.465 Y100.411 E22.85986
G1 X64.505 Y100.01 E22.87862
G1 X64.536 Y99.736 E22.89146
G1 X64.593 Y99.284 E22.91268
G1 X64.748 Y98.376 E22.95557
G1 X65.063 Y97.231 E23.01087
G1 X65.212 Y96.788 E23.03263
G1 X65.301 Y96.534 E23.04516
G1 X65.444 Y96.142 E23.06459
G1 X65.931 Y95.015 E23.12176
G1 X66.367 Y94.228 E23.16365
G1 X66.587 Y93.868 E23.1833
G1 X66.733 Y93.637 E23.19602
G1 X66.975 Y93.263 E23.21677
G1 X67.508 Y92.512 E23.25965
G1 X67.935 Y91.998 E23.29076
G1 X67.981 Y91.946 E23.294
G1 X68.336 Y91.564 E23.31828
G1 X68.584 Y91.31 E23.33481
G1 X68.774 Y91.12 E23.34732
G1 X69.113 Y90.79 E23.36935
G1 X69.8 Y90.177 E23.41222
G0 F6000 X70.067 Y90.475
G1 F1200 X70.686 Y90.009 E23.4483
G1 X71.02 Y89.784 E23.46705
G1 X71.304 Y89.6 E23.48281
G1 X71.556 Y89.441 E23.49668
G1 X71.976 Y89.186 E23.51956
G1 X72.768 Y88.752 E23.56162
G1 X73.748 Y88.332 E23.61126
G1 X74.153 Y88.183 E23.63136
G1 X74.463 Y88.075 E23.64664
G1 X74.9 Y87.93 E23.66808
G1 X75.769 Y87.684 E23.71014
G1 X76.342 Y87.566 E23.73738
G1 X76.902 Y87.48 E23.76376
G1 X77.254 Y87.436 E23.78028
G1 X77.554 Y87.403 E23.79433
G1 X78.059 Y87.355 E23.81795
G1 X78.891 Y87.31 E23.85675
G1 X79.712 Y87.3 E23.89498
G1 X89.293 Y87.3 E24.34111
G1 X90.139 Y87.311 E24.38051
G1 X91.041 Y87.364 E24.42258
G1 X91.861 Y87.482 E24.46116
G1 X92.93 Y87.681 E24.51179
G1 X93.534 Y87.802 E24.54048
G1 X96.069 Y88.237 E24.66024
G1 X98.613 Y88.601 E24.77991
G1 X101.089 Y88.883 E24.89595
G1 X103.656 Y89.102 E25.01591
G1 X106.153 Y89.245 E25.13237
G1 X108.712 Y89.317 E25.25158
G1 X111.258 Y89.318 E25.37013
G1 X113.783 Y89.248 E25.48775
G1 X116.312 Y89.106 E25.6057
G1 X118.885 Y88.888 E25.72593
G1 X121.389 Y88.604 E25.84328
G1 X123.873 Y88.251 E25.96011
G1 X126.432 Y87.813 E26.081
G1 X128.067 Y87.496 E26.15855
G1 X128.96 Y87.363 E26.20059
G1 X129.723 Y87.313 E26.23619
G1 X130.042 Y87.304 E26.25105
G1 X130.33 Y87.3 E26.26446
G1 X140.439 Y87.301 E26.73518
G1 X141.136 Y87.311 E26.76764
G1 X141.674 Y87.333 E26.79271
G1 X142.048 Y87.363 E26.81018
G1 X142.44 Y87.402 E26.82853
G1 X142.722 Y87.434 E26.84174
G1 X143.184 Y87.493 E26.86343
G1 X144.074 Y87.647 E26.90549
G1 X145.125 Y87.937 E26.95625
G1 X145.532 Y88.073 E26.97624
G1 X145.821 Y88.174 E26.99049
G1 X146.264 Y88.337 E27.01247
G1 X147.097 Y88.686 E27.05453
G1 X148.064 Y89.208 E27.1057
G1 X148.427 Y89.43 E27.12551
G1 X148.652 Y89.572 E27.1379
G1 X149.027 Y89.815 E27.1587
G1 X149.762 Y90.339 E27.20074
G1 X150.208 Y90.708 E27.22769
G1 X150.257 Y90.751 E27.23073
G1 X150.64 Y91.105 E27.25501
G1 X150.893 Y91.351 E27.27144
G1 X151.09 Y91.548 E27.28442
G1 X151.423 Y91.89 E27.30664
G1 X152.024 Y92.565 E27.34873
G1 X152.537 Y93.251 E27.38861
G1 X152.723 Y93.53 E27.40423
G1 X152.902 Y93.807 E27.41958
G1 X153.034 Y94.017 E27.43113
G1 X153.293 Y94.44 E27.45423
G1 X153.73 Y95.23 E27.49627
G1 X154.168 Y96.248 E27.54787
G1 X154.315 Y96.648 E27.56772
