;FLAVOR:Marlin
;TIME:8446
;Filament used: 9.2941m
;Layer height: 0.28
;MINX:40.298
;MINY:60.297
;MINZ:0.28
;MAXX:179.702
;MAXY:159.702
;MAXZ:5.88
;Generated with Cura_SteamEngine 4.8.0
M140 S60
M105
M190 S60
M104 S205
M105
M109 S205
M82 ;absolute extrusion mode
; Ender 3 Custom Start G-code
G92 E0 ; Reset Extruder
G28 ; Home all axes
G1 Z2.0 F3000 ; Move Z Axis up little to prevent scratching of Heat Bed
G1 X0.1 Y20 Z0.3 F5000.0 ; Move to start position
G1 X0.1 Y200.0 Z0.3 F1500.0 E15 ; Draw the first line
G1 X0.4 Y200.0 Z0.3 F5000.0 ; Move to side a little
G1 X0.4 Y20 Z0.3 F1500.0 E30 ; Draw the second line
G92 E0 ; Reset Extruder
G1 Z2.0 F3000 ; Move Z Axis up little to prevent scratching of Heat Bed
G1 X5 Y20 Z0.3 F5000.0 ; Move over to prevent blob squish
G92 E0
G92 E0
G1 F2400 E-6.5
;LAYER_COUNT:21
;LAYER:0
M107
G0 F6000 X49.377 Y87.152 Z0.28
;TYPE:SKIRT
G1 F2400 E0
G1 F1200 X50.355 Y86.631 E0.0516
G1 X52.618 Y85.382 E0.17196
G1 X54.783 Y84.106 E0.28898
G1 X56.922 Y82.762 E0.40661
G1 X59.023 Y81.36 E0.52422
G1 X61.043 Y79.926 E0.63957
G1 X63.088 Y78.385 E0.7588
G1 X65.026 Y76.839 E0.87424
G1 X66.978 Y75.187 E0.99332
G1 X68.848 Y73.512 E1.11021
G1 X70.643 Y71.811 E1.22536
G1 X72.423 Y70.024 E1.34281
G1 X75.095 Y67.148 E1.52561
G1 X75.644 Y66.533 E1.56399
G1 X76.298 Y65.86 E1.60769
G1 X76.749 Y65.457 E1.63585
G1 X77.448 Y64.866 E1.67848
G1 X77.722 Y64.643 E1.69493
G1 X78.308 Y64.175 E1.72985
G1 X79.065 Y63.621 E1.77353
G1 X79.853 Y63.142 E1.81647
G1 X80.639 Y62.709 E1.85825
G1 X80.991 Y62.522 E1.87681
G1 X81.638 Y62.189 E1.9107
G1 X82.49 Y61.796 E1.95439
G1 X83.339 Y61.487 E1.99646
G1 X84.156 Y61.228 E2.03637
G1 X84.54 Y61.112 E2.05504
G1 X85.213 Y60.916 E2.08768
G1 X86.124 Y60.692 E2.13137
G1 X87.06 Y60.546 E2.17548
G1 X87.992 Y60.442 E2.21915
G1 X88.387 Y60.405 E2.23762
G1 X88.93 Y60.36 E2.26299
G1 X89.611 Y60.324 E2.29474
G1 X90.774 Y60.3 E2.34891
G1 X91.001 Y60.298 E2.35948
G1 X129.292 Y60.297 E4.14247
G1 X130.15 Y60.308 E4.18243
G1 X130.758 Y60.334 E4.21076
G1 X131.131 Y60.36 E4.22817
G1 X131.462 Y60.388 E4.24364
G1 X132.129 Y60.455 E4.27486
G1 X132.901 Y60.54 E4.31102
G1 X133.828 Y60.682 E4.35469
G1 X134.743 Y60.904 E4.39853
G1 X135.563 Y61.141 E4.43828
G1 X135.982 Y61.269 E4.45868
G1 X136.655 Y61.483 E4.49156
G1 X137.536 Y61.805 E4.53524
G1 X138.404 Y62.21 E4.57984
G1 X139.218 Y62.634 E4.62258
G1 X139.44 Y62.753 E4.6343
G1 X140.125 Y63.13 E4.67071
G1 X140.926 Y63.617 E4.71436
G1 X141.681 Y64.168 E4.75789
G1 X142.294 Y64.657 E4.7944
G1 X142.503 Y64.828 E4.80697
G1 X143.216 Y65.426 E4.8503
G1 X143.908 Y66.059 E4.89397
G1 X144.337 Y66.511 E4.92299
G1 X145.062 Y67.32 E4.97358
G1 X146.886 Y69.301 E5.09897
G1 X148.617 Y71.076 E5.21441
G1 X150.437 Y72.84 E5.33243
G1 X152.303 Y74.549 E5.45026
G1 X154.205 Y76.195 E5.56738
G1 X156.147 Y77.782 E5.68416
G1 X158.136 Y79.315 E5.8011
G1 X160.172 Y80.795 E5.9183
G1 X162.244 Y82.212 E6.03519
G1 X164.373 Y83.583 E6.1531
G1 X166.538 Y84.891 E6.27088
G1 X168.712 Y86.123 E6.38724
G1 X169.411 Y86.495 E6.42411
G1 X169.518 Y86.558 E6.42989
G1 X170.654 Y87.167 E6.48991
G1 X171.026 Y87.376 E6.50978
G1 X171.239 Y87.502 E6.5213
G1 X171.704 Y87.785 E6.54665
G1 X171.989 Y87.965 E6.56234
G1 X172.557 Y88.335 E6.59391
G1 X173.32 Y88.88 E6.63757
G1 X174.232 Y89.676 E6.69394
G1 X174.673 Y90.106 E6.72262
G1 X174.85 Y90.282 E6.73424
G1 X175.295 Y90.736 E6.76384
G1 X176.1 Y91.654 E6.82069
G1 X176.676 Y92.46 E6.86682
G1 X177.035 Y93.013 E6.89752
G1 X177.221 Y93.31 E6.91384
G1 X177.541 Y93.839 E6.94263
G1 X177.992 Y94.661 E6.98629
G1 X178.443 Y95.707 E7.03933
G1 X178.657 Y96.284 E7.06798
G1 X178.784 Y96.646 E7.08585
G1 X178.989 Y97.264 E7.11617
G1 X179.246 Y98.166 E7.15984
G1 X179.37 Y98.758 E7.188
G1 X179.47 Y99.398 E7.21817
G1 X179.54 Y99.955 E7.24431
G1 X179.574 Y100.259 E7.25855
G1 X179.641 Y100.946 E7.29069
G1 X179.692 Y101.856 E7.33313
G1 X179.702 Y102.639 E7.36959
G1 X179.702 Y117.457 E8.05958
G1 X179.691 Y118.177 E8.09311
G1 X179.639 Y119.083 E8.13537
G1 X179.578 Y119.705 E8.16447
G1 X179.542 Y120.031 E8.17974
G1 X179.459 Y120.678 E8.21012
G1 X179.3 Y121.602 E8.25377
G1 X178.976 Y122.779 E8.31062
G1 X178.789 Y123.336 E8.33798
G1 X178.694 Y123.608 E8.35139
G1 X178.461 Y124.246 E8.38302
G1 X178.102 Y125.113 E8.42672
G1 X177.722 Y125.855 E8.46553
G1 X177.493 Y126.247 E8.48667
G1 X177.206 Y126.717 E8.51232
G1 X177.04 Y126.981 E8.52684
G1 X176.67 Y127.55 E8.55844
G1 X176.125 Y128.313 E8.6021
G1 X175.324 Y129.232 E8.65887
G1 X174.894 Y129.673 E8.68755
G1 X174.709 Y129.858 E8.69973
G1 X174.254 Y130.303 E8.72937
G1 X173.655 Y130.847 E8.76704
G1 X172.54 Y131.676 E8.83174
G1 X171.987 Y132.035 E8.86244
G1 X171.705 Y132.212 E8.87795
G1 X171.163 Y132.541 E8.90747
G1 X170.629 Y132.845 E8.93608
G1 X169.648 Y133.368 E8.98785
G1 X167.382 Y134.618 E9.10835
G1 X165.235 Y135.883 E9.22439
G1 X163.069 Y137.243 E9.34348
G1 X160.97 Y138.645 E9.46101
G1 X158.957 Y140.074 E9.57596
G1 X156.912 Y141.615 E9.6952
G1 X154.974 Y143.161 E9.81063
G1 X153.022 Y144.813 E9.92971
G1 X151.152 Y146.488 E10.04661
G1 X149.357 Y148.189 E10.16176
G1 X147.577 Y149.976 E10.2792
G1 X144.905 Y152.852 E10.462
G1 X144.356 Y153.467 E10.50039
G1 X143.702 Y154.14 E10.54408
G1 X143.257 Y154.539 E10.57192
G1 X142.57 Y155.119 E10.61378
G1 X142.261 Y155.371 E10.63235
G1 X141.67 Y155.841 E10.66751
G1 X140.911 Y156.393 E10.71121
G1 X140.143 Y156.86 E10.75306
G1 X139.391 Y157.274 E10.79303
G1 X139.026 Y157.468 E10.81228
G1 X138.38 Y157.802 E10.84615
G1 X137.529 Y158.197 E10.88983
G1 X136.65 Y158.517 E10.93339
G1 X135.839 Y158.773 E10.97299
G1 X135.479 Y158.882 E10.9905
G1 X134.794 Y159.082 E11.02373
G1 X133.883 Y159.306 E11.06742
G1 X132.94 Y159.454 E11.11186
G1 X132.008 Y159.558 E11.15553
G1 X131.613 Y159.595 E11.174
G1 X131.07 Y159.64 E11.19938
G1 X130.389 Y159.676 E11.23113
G1 X129.226 Y159.7 E11.2853
G1 X128.999 Y159.702 E11.29587
G1 X90.551 Y159.702 E13.08617
G1 X89.852 Y159.692 E13.11872
G1 X89.248 Y159.667 E13.14687
G1 X88.873 Y159.641 E13.16437
G1 X88.538 Y159.612 E13.18003
G1 X87.873 Y159.545 E13.21115
G1 X87.1 Y159.46 E13.24736
G1 X86.173 Y159.318 E13.29103
G1 X85.252 Y159.095 E13.33515
G1 X84.427 Y158.856 E13.37515
G1 X84.011 Y158.728 E13.39542
G1 X83.347 Y158.517 E13.42786
G1 X82.466 Y158.196 E13.47152
G1 X81.602 Y157.793 E13.51591
G1 X80.835 Y157.394 E13.55617
G1 X80.617 Y157.277 E13.56769
G1 X79.883 Y156.874 E13.60668
G1 X79.081 Y156.388 E13.65035
G1 X78.312 Y155.827 E13.69467
G1 X77.701 Y155.339 E13.73108
G1 X77.497 Y155.172 E13.74336
G1 X76.784 Y154.574 E13.78669
G1 X76.092 Y153.941 E13.83036
G1 X75.663 Y153.489 E13.85938
G1 X74.938 Y152.68 E13.90996
G1 X73.114 Y150.699 E14.03535
G1 X71.383 Y148.924 E14.1508
G1 X69.544 Y147.142 E14.27004
G1 X67.715 Y145.467 E14.38552
G1 X65.795 Y143.805 E14.50377
G1 X63.869 Y142.231 E14.61959
G1 X61.846 Y140.672 E14.73851
G1 X59.828 Y139.205 E14.85469
G1 X57.756 Y137.788 E14.97157
G1 X55.627 Y136.417 E15.08948
G1 X53.462 Y135.109 E15.20727
G1 X51.288 Y133.877 E15.32362
G1 X50.589 Y133.505 E15.36049
G1 X50.473 Y133.436 E15.36678
G1 X49.34 Y132.829 E15.42663
G1 X48.988 Y132.632 E15.44541
G1 X48.761 Y132.498 E15.45769
G1 X48.296 Y132.215 E15.48303
G1 X48.012 Y132.035 E15.49869
G1 X47.447 Y131.667 E15.53009
G1 X46.683 Y131.122 E15.57379
G1 X45.779 Y130.334 E15.62963
G1 X45.335 Y129.902 E15.65847
G1 X45.151 Y129.718 E15.67059
G1 X44.704 Y129.262 E15.70032
G1 X44.076 Y128.565 E15.74401
G1 X43.342 Y127.565 E15.80177
G1 X42.974 Y127 E15.83317
G1 X42.791 Y126.711 E15.84909
G1 X42.481 Y126.201 E15.87689
G1 X42.029 Y125.379 E15.92057
G1 X41.765 Y124.807 E15.9499
G1 X41.724 Y124.711 E15.95476
G1 X41.51 Y124.172 E15.98177
G1 X41.327 Y123.672 E16.00656
G1 X41.225 Y123.38 E16.02096
G1 X41.019 Y122.764 E16.05121
G1 X40.76 Y121.862 E16.0949
G1 X40.539 Y120.666 E16.15154
G1 X40.462 Y120.062 E16.17989
G1 X40.426 Y119.742 E16.19488
G1 X40.359 Y119.057 E16.22693
G1 X40.308 Y118.144 E16.26951
G1 X40.298 Y117.36 E16.30602
G1 X40.298 Y102.542 E16.99601
G1 X40.309 Y101.823 E17.02949
G1 X40.36 Y100.919 E17.07165
G1 X40.421 Y100.296 E17.1008
G1 X40.458 Y99.969 E17.11613
G1 X40.538 Y99.345 E17.14542
G1 X40.682 Y98.492 E17.1857
G1 X41.028 Y97.209 E17.24758
G1 X41.211 Y96.664 E17.27435
G1 X41.314 Y96.371 E17.28881
G1 X41.551 Y95.726 E17.32081
G1 X41.912 Y94.86 E17.36449
G1 X42.295 Y94.115 E17.4035
G1 X42.51 Y93.747 E17.42335
G1 X42.794 Y93.282 E17.44872
G1 X42.961 Y93.019 E17.46322
G1 X43.333 Y92.447 E17.495
G1 X43.877 Y91.683 E17.53867
G1 X44.687 Y90.756 E17.59599
G1 X45.115 Y90.318 E17.62451
G1 X45.305 Y90.127 E17.63705
G1 X45.773 Y89.671 E17.66748
G1 X46.473 Y89.046 E17.71117
G1 X47.46 Y88.324 E17.76812
G1 X48.013 Y87.965 E17.79882
G1 X48.306 Y87.781 E17.81493
G1 X48.856 Y87.448 E17.84486
G1 X49.377 Y87.152 E17.87277
G0 F6000 X49.566 Y87.505
G1 F1200 X50.531 Y86.991 E17.92368
G1 X52.82 Y85.727 E18.04543
G1 X54.968 Y84.462 E18.16151
G1 X57.135 Y83.1 E18.28069
G1 X59.254 Y81.686 E18.39931
G1 X61.309 Y80.227 E18.51666
G1 X63.293 Y78.732 E18.63234
G1 X65.326 Y77.11 E18.75344
G1 X67.221 Y75.507 E18.86902
G1 X69.106 Y73.817 E18.9869
G1 X70.954 Y72.066 E19.10545
G1 X72.704 Y70.31 E19.22088
G1 X75.38 Y67.43 E19.40394
G1 X75.943 Y66.799 E19.44332
G1 X76.585 Y66.139 E19.48619
G1 X77.007 Y65.762 E19.51254
G1 X77.702 Y65.175 E19.5549
G1 X77.971 Y64.955 E19.57108
G1 X78.557 Y64.487 E19.60601
G1 X79.301 Y63.945 E19.64887
G1 X80.046 Y63.492 E19.68947
G1 X80.827 Y63.062 E19.73098
G1 X81.174 Y62.878 E19.74927
G1 X81.821 Y62.545 E19.78315
G1 X82.657 Y62.16 E19.82601
G1 X83.46 Y61.868 E19.8658
G1 X84.273 Y61.611 E19.9055
G1 X84.652 Y61.496 E19.92394
G1 X85.325 Y61.3 E19.95658
G1 X86.219 Y61.081 E19.99944
G1 X87.105 Y60.943 E20.0412
G1 X88.031 Y60.84 E20.08458
G1 X88.42 Y60.803 E20.10277
G1 X88.963 Y60.758 E20.12815
G1 X89.619 Y60.724 E20.15873
G1 X90.782 Y60.7 E20.2129
G1 X91.001 Y60.698 E20.2231
G1 X129.292 Y60.697 E22.00609
G1 X130.144 Y60.708 E22.04576
G1 X130.73 Y60.733 E22.07307
G1 X131.103 Y60.759 E22.09048
G1 X131.423 Y60.786 E22.10544
G1 X132.085 Y60.853 E22.13642
G1 X132.857 Y60.938 E22.17259
G1 X133.767 Y61.078 E22.21546
G1 X134.633 Y61.289 E22.25696
G1 X135.447 Y61.524 E22.29641
G1 X135.861 Y61.65 E22.31656
G1 X136.534 Y61.864 E22.34945
G1 X137.399 Y62.181 E22.39234
G1 X138.219 Y62.565 E22.43451
G1 X139.033 Y62.989 E22.47724
G1 X139.247 Y63.104 E22.48856
G1 X139.932 Y63.481 E22.52496
G1 X140.718 Y63.959 E22.5678
G1 X141.431 Y64.481 E22.60895
G1 X142.044 Y64.97 E22.64546
G1 X142.246 Y65.134 E22.65758
G1 X142.959 Y65.732 E22.70091
G1 X143.638 Y66.354 E22.74378
G1 X144.039 Y66.778 E22.77096
G1 X144.803 Y67.63 E22.82425
G1 X146.588 Y69.568 E22.94693
G1 X148.352 Y71.377 E23.06459
G1 X150.152 Y73.122 E23.18132
G1 X152.036 Y74.848 E23.3003
G1 X153.935 Y76.491 E23.41723
G1 X155.874 Y78.076 E23.53384
G1 X157.925 Y79.656 E23.6544
G1 X159.934 Y81.116 E23.77004
G1 X162.023 Y82.546 E23.88792
G1 X164.165 Y83.925 E24.00654
G1 X166.33 Y85.232 E24.1243
G1 X168.55 Y86.491 E24.24314
G1 X169.223 Y86.849 E24.27863
G1 X169.32 Y86.906 E24.28387
G1 X170.465 Y87.52 E24.34437
G1 X170.825 Y87.722 E24.36359
G1 X171.031 Y87.844 E24.37474
G1 X171.496 Y88.127 E24.40009
G1 X171.771 Y88.3 E24.41521
G1 X172.339 Y88.67 E24.44678
G1 X173.088 Y89.206 E24.48967
G1 X173.953 Y89.963 E24.54319
G1 X174.394 Y90.393 E24.57187
G1 X174.564 Y90.562 E24.58303
G1 X175.009 Y91.016 E24.61264
G1 X175.785 Y91.901 E24.66744
G1 X176.341 Y92.678 E24.71193
G1 X176.7 Y93.231 E24.74263
G1 X176.879 Y93.517 E24.75834
G1 X177.199 Y94.046 E24.78713
G1 X177.641 Y94.853 E24.82998
G1 X178.067 Y95.846 E24.88029
G1 X178.281 Y96.423 E24.90895
G1 X178.404 Y96.772 E24.92618
G1 X178.609 Y97.39 E24.95649
G1 X178.861 Y98.275 E24.99934
G1 X178.977 Y98.831 E25.02579
G1 X179.073 Y99.448 E25.05486
G1 X179.143 Y100.005 E25.08101
G1 X179.176 Y100.298 E25.09473
G1 X179.243 Y100.985 E25.12688
G1 X179.292 Y101.862 E25.16778
G1 X179.302 Y102.639 E25.20396
G1 X179.302 Y117.451 E25.89367
G1 X179.291 Y118.171 E25.9272
G1 X179.241 Y119.044 E25.96792
G1 X179.18 Y119.666 E25.99702
G1 X179.145 Y119.98 E26.01173
G1 X179.062 Y120.627 E26.0421
G1 X178.905 Y121.534 E26.08497
G1 X178.597 Y122.652 E26.13896
G1 X178.41 Y123.209 E26.16632
G1 X178.318 Y123.471 E26.17925
G1 X178.085 Y124.109 E26.21088
G1 X177.732 Y124.96 E26.25378
G1 X177.373 Y125.659 E26.29037
G1 X177.152 Y126.038 E26.3108
G1 X176.865 Y126.508 E26.33644
G1 X176.704 Y126.763 E26.35048
G1 X176.334 Y127.332 E26.38209
G1 X175.799 Y128.081 E26.42495
G1 X175.037 Y128.953 E26.47887
G1 X174.607 Y129.394 E26.50755
G1 X174.43 Y129.572 E26.51924
G1 X173.975 Y130.017 E26.54888
G1 X173.397 Y130.542 E26.58523
G1 X172.322 Y131.341 E26.6476
G1 X171.769 Y131.7 E26.6783
G1 X171.497 Y131.87 E26.69324
G1 X170.955 Y132.199 E26.72276
G1 X170.44 Y132.492 E26.75035
G1 X169.472 Y133.008 E26.80143
G1 X167.18 Y134.273 E26.92333
G1 X165.025 Y135.542 E27.03978
G1 X162.878 Y136.89 E27.15783
G1 X160.739 Y138.319 E27.27761
G1 X158.691 Y139.773 E27.39456
G1 X156.707 Y141.268 E27.51024
G1 X154.674 Y142.89 E27.63134
G1 X152.779 Y144.493 E27.74692
G1 X150.894 Y146.183 E27.8648
G1 X149.046 Y147.934 E27.98334
G1 X147.296 Y149.69 E28.09878
G1 X144.62 Y152.57 E28.28184
G1 X144.057 Y153.201 E28.32122
G1 X143.415 Y153.861 E28.36409
G1 X142.998 Y154.234 E28.39014
G1 X142.316 Y154.81 E28.43171
G1 X142.012 Y155.058 E28.44998
G1 X141.421 Y155.528 E28.48514
G1 X140.676 Y156.07 E28.52804
G1 X139.949 Y156.51 E28.56761
G1 X139.203 Y156.921 E28.60727
G1 X138.842 Y157.113 E28.62631
G1 X138.196 Y157.447 E28.66017
G1 X137.361 Y157.834 E28.70303
G1 X136.529 Y158.136 E28.74424
G1 X135.723 Y158.391 E28.78361
G1 X135.367 Y158.498 E28.80091
G1 X134.682 Y158.698 E28.83414
G1 X133.788 Y158.918 E28.87701
G1 X132.895 Y159.057 E28.9191
G1 X131.969 Y159.16 E28.96248
G1 X131.58 Y159.197 E28.98068
G1 X131.037 Y159.242 E29.00605
G1 X130.381 Y159.276 E29.03663
G1 X129.218 Y159.3 E29.0908
G1 X128.999 Y159.302 E29.101
G1 X90.556 Y159.302 E30.89106
G1 X89.857 Y159.292 E30.92362
G1 X89.276 Y159.268 E30.95069
G1 X88.901 Y159.242 E30.9682
G1 X88.577 Y159.214 E30.98334
G1 X87.916 Y159.147 E31.01428
G1 X87.143 Y159.062 E31.05049
G1 X86.233 Y158.922 E31.09336
G1 X85.363 Y158.71 E31.13506
G1 X84.543 Y158.473 E31.1748
G1 X84.132 Y158.347 E31.19482
G1 X83.468 Y158.136 E31.22726
G1 X82.603 Y157.82 E31.27014
G1 X81.786 Y157.438 E31.31214
G1 X81.019 Y157.039 E31.3524
G1 X80.809 Y156.927 E31.36348
G1 X80.075 Y156.524 E31.40247
G1 X79.288 Y156.046 E31.44534
G1 X78.562 Y155.514 E31.48725
G1 X77.951 Y155.026 E31.52367
G1 X77.754 Y154.866 E31.53548
G1 X77.041 Y154.268 E31.57882
G1 X76.362 Y153.646 E31.62169
G1 X75.961 Y153.222 E31.64887
G1 X75.197 Y152.37 E31.70215
G1 X73.412 Y150.432 E31.82484
G1 X71.648 Y148.623 E31.94249
G1 X69.847 Y146.877 E32.0593
G1 X67.964 Y145.152 E32.17821
G1 X66.065 Y143.509 E32.29513
G1 X64.105 Y141.907 E32.41301
G1 X62.103 Y140.364 E32.5307
G1 X60.06 Y138.88 E32.64828
G1 X57.977 Y137.454 E32.76583
G1 X55.835 Y136.075 E32.88445
G1 X53.67 Y134.768 E33.00221
G1 X51.45 Y133.509 E33.12105
G1 X50.777 Y133.151 E33.15654
G1 X50.671 Y133.088 E33.16228
G1 X49.529 Y132.476 E33.22261
G1 X49.187 Y132.285 E33.24085
G1 X48.969 Y132.156 E33.25265
G1 X48.504 Y131.873 E33.278
G1 X48.23 Y131.7 E33.29309
G1 X47.665 Y131.332 E33.32448
G1 X46.916 Y130.797 E33.36734
G1 X46.058 Y130.047 E33.42041
G1 X45.614 Y129.615 E33.44925
G1 X45.436 Y129.438 E33.46094
G1 X44.989 Y128.982 E33.49067
G1 X44.374 Y128.297 E33.53354
G1 X43.677 Y127.347 E33.58841
G1 X43.309 Y126.782 E33.6198
G1 X43.133 Y126.503 E33.63516
G1 X42.823 Y125.993 E33.66295
G1 X42.379 Y125.186 E33.70584
G1 X42.133 Y124.65 E33.7333
G1 X42.092 Y124.554 E33.73816
G1 X41.886 Y124.034 E33.76421
G1 X41.703 Y123.534 E33.789
G1 X41.604 Y123.253 E33.80287
G1 X41.398 Y122.637 E33.83312
G1 X41.144 Y121.752 E33.87599
G1 X40.936 Y120.615 E33.92981
G1 X40.859 Y120.011 E33.95817
G1 X40.824 Y119.703 E33.9726
G1 X40.757 Y119.018 E34.00465
G1 X40.708 Y118.138 E34.04569
G1 X40.698 Y117.36 E34.08192
G1 X40.698 Y102.548 E34.77163
G1 X40.709 Y101.829 E34.80511
G1 X40.758 Y100.958 E34.84573
G1 X40.819 Y100.335 E34.87488
G1 X40.855 Y100.02 E34.88964
G1 X40.935 Y99.396 E34.91894
