;FLAVOR:Marlin
;TIME:8452
;Filament used: 9.33463m
;Layer height: 0.28
;MINX:40.298
;MINY:60.298
;MINZ:0.28
;MAXX:179.702
;MAXY:159.702
;MAXZ:5.88
;Generated with Cura_SteamEngine 4.8.0
M140 S60
M105
M190 S60
M104 S205
M105
M109 S205
M82 ;absolute extrusion mode
; Ender 3 Custom Start G-code
G92 E0 ; Reset Extruder
G28 ; Home all axes
G1 Z2.0 F3000 ; Move Z Axis up little to prevent scratching of Heat Bed
G1 X0.1 Y20 Z0.3 F5000.0 ; Move to start position
G1 X0.1 Y200.0 Z0.3 F1500.0 E15 ; Draw the first line
G1 X0.4 Y200.0 Z0.3 F5000.0 ; Move to side a little
G1 X0.4 Y20 Z0.3 F1500.0 E30 ; Draw the second line
G92 E0 ; Reset Extruder
G1 Z2.0 F3000 ; Move Z Axis up little to prevent scratching of Heat Bed
G1 X5 Y20 Z0.3 F5000.0 ; Move over to prevent blob squish
G92 E0
G92 E0
G1 F2400 E-6.5
;LAYER_COUNT:21
;LAYER:0
M107
G0 F6000 X49.377 Y87.152 Z0.28
;TYPE:SKIRT
G1 F2400 E0
G1 F1200 X50.355 Y86.631 E0.0516
G1 X52.618 Y85.382 E0.17196
G1 X54.783 Y84.106 E0.28898
G1 X56.922 Y82.762 E0.40661
G1 X59.023 Y81.36 E0.52422
G1 X61.043 Y79.926 E0.63957
G1 X63.088 Y78.385 E0.7588
G1 X65.026 Y76.839 E0.87424
G1 X66.978 Y75.187 E0.99332
G1 X68.848 Y73.512 E1.11021
G1 X70.643 Y71.811 E1.22536
G1 X72.423 Y70.024 E1.34281
G1 X75.095 Y67.148 E1.52561
G1 X75.644 Y66.533 E1.56399
G1 X76.298 Y65.86 E1.60769
G1 X76.749 Y65.457 E1.63585
G1 X77.448 Y64.866 E1.67848
G1 X77.722 Y64.643 E1.69493
G1 X78.308 Y64.175 E1.72985
G1 X79.065 Y63.621 E1.77353
G1 X79.853 Y63.142 E1.81647
G1 X80.639 Y62.709 E1.85825
G1 X80.991 Y62.522 E1.87681
G1 X81.638 Y62.189 E1.9107
G1 X82.49 Y61.796 E1.95439
G1 X83.339 Y61.487 E1.99646
G1 X84.176 Y61.222 E2.03734
G1 X84.539 Y61.113 E2.05499
G1 X85.207 Y60.918 E2.08739
G1 X86.117 Y60.694 E2.13103
G1 X87.06 Y60.546 E2.17547
G1 X87.992 Y60.442 E2.21914
G1 X88.387 Y60.405 E2.23762
G1 X88.93 Y60.36 E2.26299
G1 X89.611 Y60.324 E2.29474
G1 X90.773 Y60.3 E2.34886
G1 X91 Y60.298 E2.35943
G1 X129.293 Y60.298 E4.14251
G1 X129.967 Y60.306 E4.1739
G1 X130.667 Y60.338 E4.20653
G1 X131.86 Y60.43 E4.26224
G1 X132.243 Y60.466 E4.28016
G1 X132.928 Y60.543 E4.31225
G1 X133.854 Y60.687 E4.35589
G1 X134.754 Y60.907 E4.39903
G1 X135.551 Y61.138 E4.43767
G1 X135.985 Y61.27 E4.45879
G1 X136.65 Y61.481 E4.49128
G1 X137.531 Y61.803 E4.53496
G1 X138.41 Y62.213 E4.58012
G1 X139.223 Y62.637 E4.62282
G1 X139.44 Y62.753 E4.63428
G1 X140.125 Y63.13 E4.67068
G1 X140.926 Y63.617 E4.71433
G1 X141.681 Y64.168 E4.75786
G1 X142.294 Y64.657 E4.79437
G1 X142.503 Y64.828 E4.80694
G1 X143.216 Y65.426 E4.85028
G1 X143.908 Y66.059 E4.89395
G1 X144.337 Y66.511 E4.92296
G1 X145.062 Y67.32 E4.97355
G1 X146.886 Y69.301 E5.09894
G1 X148.617 Y71.076 E5.21438
G1 X150.437 Y72.84 E5.3324
G1 X152.303 Y74.549 E5.45023
G1 X154.205 Y76.195 E5.56735
G1 X156.147 Y77.782 E5.68413
G1 X158.136 Y79.315 E5.80107
G1 X160.172 Y80.795 E5.91827
G1 X162.244 Y82.212 E6.03516
G1 X164.373 Y83.583 E6.15307
G1 X166.538 Y84.891 E6.27085
G1 X168.712 Y86.123 E6.38721
G1 X169.411 Y86.495 E6.42408
G1 X169.518 Y86.558 E6.42986
G1 X170.654 Y87.167 E6.48988
G1 X171.026 Y87.376 E6.50975
G1 X171.239 Y87.502 E6.52127
G1 X171.704 Y87.785 E6.54662
G1 X171.989 Y87.965 E6.56231
G1 X172.557 Y88.335 E6.59388
G1 X173.32 Y88.88 E6.63754
G1 X174.232 Y89.676 E6.69391
G1 X174.673 Y90.106 E6.72259
G1 X174.85 Y90.282 E6.73421
G1 X175.295 Y90.736 E6.76381
G1 X176.1 Y91.654 E6.82066
G1 X176.676 Y92.46 E6.86679
G1 X177.035 Y93.013 E6.89749
G1 X177.221 Y93.31 E6.91381
G1 X177.541 Y93.839 E6.9426
G1 X177.992 Y94.661 E6.98626
G1 X178.443 Y95.707 E7.0393
G1 X178.657 Y96.284 E7.06796
G1 X178.784 Y96.646 E7.08582
G1 X178.989 Y97.264 E7.11614
G1 X179.246 Y98.166 E7.15981
G1 X179.37 Y98.758 E7.18797
G1 X179.47 Y99.398 E7.21814
G1 X179.54 Y99.955 E7.24428
G1 X179.574 Y100.259 E7.25852
G1 X179.641 Y100.946 E7.29066
G1 X179.692 Y101.856 E7.3331
G1 X179.702 Y102.639 E7.36957
G1 X179.701 Y117.45 E8.05923
G1 X179.691 Y118.148 E8.09173
G1 X179.669 Y118.694 E8.11718
G1 X179.634 Y119.146 E8.13829
G1 X179.582 Y119.674 E8.16299
G1 X179.551 Y119.956 E8.1762
G1 X179.468 Y120.622 E8.20745
G1 X179.312 Y121.547 E8.25113
G1 X178.986 Y122.746 E8.30899
G1 X178.787 Y123.342 E8.33825
G1 X178.683 Y123.637 E8.35281
G1 X178.458 Y124.252 E8.38331
G1 X178.099 Y125.119 E8.427
G1 X177.722 Y125.855 E8.46551
G1 X177.493 Y126.247 E8.48665
G1 X177.206 Y126.717 E8.51229
G1 X177.04 Y126.981 E8.52681
G1 X176.67 Y127.55 E8.55842
G1 X176.125 Y128.313 E8.60208
G1 X175.324 Y129.232 E8.65884
G1 X174.894 Y129.673 E8.68752
G1 X174.709 Y129.858 E8.69971
G1 X174.254 Y130.303 E8.72934
G1 X173.655 Y130.847 E8.76702
G1 X172.54 Y131.676 E8.83172
G1 X171.987 Y132.035 E8.86242
G1 X171.705 Y132.212 E8.87792
G1 X171.163 Y132.541 E8.90744
G1 X170.629 Y132.845 E8.93606
G1 X169.648 Y133.368 E8.98782
G1 X167.382 Y134.618 E9.10832
G1 X165.235 Y135.883 E9.22436
G1 X163.069 Y137.243 E9.34345
G1 X160.97 Y138.645 E9.46099
G1 X158.957 Y140.074 E9.57594
G1 X156.912 Y141.615 E9.69517
G1 X154.974 Y143.161 E9.81061
G1 X153.022 Y144.813 E9.92968
G1 X151.152 Y146.488 E10.04658
G1 X149.357 Y148.189 E10.16173
G1 X147.577 Y149.976 E10.27918
G1 X144.905 Y152.852 E10.46198
G1 X144.356 Y153.467 E10.50036
G1 X143.702 Y154.14 E10.54406
G1 X143.257 Y154.539 E10.57189
G1 X142.57 Y155.119 E10.61376
G1 X142.261 Y155.371 E10.63232
G1 X141.67 Y155.841 E10.66748
G1 X140.911 Y156.393 E10.71118
G1 X140.143 Y156.86 E10.75304
G1 X139.391 Y157.274 E10.79301
G1 X139.026 Y157.468 E10.81226
G1 X138.38 Y157.802 E10.84612
G1 X137.529 Y158.197 E10.88981
G1 X136.65 Y158.517 E10.93336
G1 X135.839 Y158.773 E10.97296
G1 X135.479 Y158.882 E10.99048
G1 X134.794 Y159.082 E11.02371
G1 X133.883 Y159.306 E11.06739
G1 X132.94 Y159.454 E11.11184
G1 X132.008 Y159.558 E11.15551
G1 X131.613 Y159.595 E11.17398
G1 X131.07 Y159.64 E11.19935
G1 X130.389 Y159.676 E11.2311
G1 X129.227 Y159.7 E11.28522
G1 X129 Y159.702 E11.29579
G1 X90.561 Y159.701 E13.08568
G1 X90.033 Y159.694 E13.11026
G1 X89.333 Y159.662 E13.14289
G1 X88.14 Y159.57 E13.19861
G1 X87.757 Y159.534 E13.21652
G1 X87.072 Y159.457 E13.24862
G1 X86.146 Y159.313 E13.29225
G1 X85.246 Y159.093 E13.3354
G1 X84.449 Y158.862 E13.37404
G1 X84.015 Y158.73 E13.39516
G1 X83.35 Y158.519 E13.42764
G1 X82.469 Y158.197 E13.47132
G1 X81.595 Y157.79 E13.51622
G1 X80.829 Y157.391 E13.55643
G1 X80.617 Y157.277 E13.56764
G1 X79.883 Y156.874 E13.60663
G1 X79.081 Y156.388 E13.6503
G1 X78.312 Y155.827 E13.69462
G1 X77.701 Y155.339 E13.73103
G1 X77.497 Y155.172 E13.74331
G1 X76.784 Y154.574 E13.78664
G1 X76.092 Y153.941 E13.83031
G1 X75.663 Y153.489 E13.85933
G1 X74.938 Y152.68 E13.90991
G1 X73.114 Y150.699 E14.0353
G1 X71.383 Y148.924 E14.15075
G1 X69.544 Y147.142 E14.26999
G1 X67.715 Y145.467 E14.38547
G1 X65.795 Y143.805 E14.50372
G1 X63.869 Y142.231 E14.61954
G1 X61.846 Y140.672 E14.73847
G1 X59.828 Y139.205 E14.85464
G1 X57.756 Y137.788 E14.97152
G1 X55.627 Y136.417 E15.08943
G1 X53.462 Y135.109 E15.20722
G1 X51.288 Y133.877 E15.32357
G1 X50.589 Y133.505 E15.36044
G1 X50.473 Y133.436 E15.36673
G1 X49.34 Y132.829 E15.42658
G1 X48.988 Y132.632 E15.44536
G1 X48.761 Y132.498 E15.45764
G1 X48.296 Y132.215 E15.48298
G1 X48.012 Y132.035 E15.49864
G1 X47.447 Y131.667 E15.53004
G1 X46.683 Y131.122 E15.57374
G1 X45.779 Y130.334 E15.62958
G1 X45.335 Y129.902 E15.65842
G1 X45.151 Y129.718 E15.67054
G1 X44.704 Y129.262 E15.70027
G1 X44.076 Y128.565 E15.74396
G1 X43.342 Y127.565 E15.80172
G1 X42.974 Y127 E15.83312
G1 X42.791 Y126.711 E15.84905
G1 X42.481 Y126.201 E15.87684
G1 X42.029 Y125.379 E15.92052
G1 X41.765 Y124.807 E15.94985
G1 X41.724 Y124.711 E15.95471
G1 X41.51 Y124.172 E15.98172
G1 X41.327 Y123.672 E16.00651
G1 X41.225 Y123.38 E16.02091
G1 X41.019 Y122.764 E16.05116
G1 X40.76 Y121.862 E16.09485
G1 X40.539 Y120.666 E16.15149
G1 X40.462 Y120.062 E16.17984
G1 X40.425 Y119.733 E16.19526
G1 X40.358 Y119.042 E16.22758
G1 X40.308 Y118.139 E16.26969
G1 X40.298 Y117.36 E16.30597
G1 X40.298 Y102.542 E16.99596
G1 X40.309 Y101.823 E17.02944
G1 X40.36 Y100.919 E17.0716
G1 X40.421 Y100.296 E17.10075
G1 X40.458 Y99.969 E17.11608
G1 X40.538 Y99.345 E17.14537
G1 X40.682 Y98.492 E17.18565
G1 X41.028 Y97.209 E17.24753
G1 X41.211 Y96.664 E17.2743
G1 X41.314 Y96.371 E17.28876
G1 X41.551 Y95.726 E17.32076
G1 X41.912 Y94.86 E17.36444
G1 X42.295 Y94.115 E17.40345
G1 X42.51 Y93.747 E17.4233
G1 X42.794 Y93.282 E17.44867
G1 X42.961 Y93.019 E17.46317
G1 X43.333 Y92.447 E17.49495
G1 X43.877 Y91.683 E17.53862
G1 X44.687 Y90.756 E17.59594
G1 X45.115 Y90.318 E17.62446
G1 X45.305 Y90.127 E17.637
G1 X45.773 Y89.671 E17.66743
G1 X46.473 Y89.046 E17.71112
G1 X47.46 Y88.324 E17.76807
G1 X48.013 Y87.965 E17.79877
G1 X48.306 Y87.781 E17.81488
G1 X48.856 Y87.448 E17.84481
G1 X49.377 Y87.152 E17.87272
G0 F6000 X49.566 Y87.505
G1 F1200 X50.531 Y86.991 E17.92363
G1 X52.82 Y85.727 E18.04538
G1 X54.968 Y84.462 E18.16146
G1 X57.135 Y83.1 E18.28064
G1 X59.254 Y81.686 E18.39926
G1 X61.309 Y80.227 E18.51661
G1 X63.293 Y78.732 E18.63229
G1 X65.326 Y77.11 E18.75339
G1 X67.221 Y75.507 E18.86897
G1 X69.106 Y73.817 E18.98685
G1 X70.954 Y72.066 E19.10539
G1 X72.704 Y70.31 E19.22083
G1 X75.38 Y67.43 E19.40389
G1 X75.943 Y66.799 E19.44327
G1 X76.585 Y66.139 E19.48614
G1 X77.007 Y65.762 E19.51249
G1 X77.702 Y65.175 E19.55485
G1 X77.971 Y64.955 E19.57103
G1 X78.557 Y64.487 E19.60596
G1 X79.301 Y63.945 E19.64882
G1 X80.046 Y63.492 E19.68942
G1 X80.827 Y63.062 E19.73093
G1 X81.174 Y62.878 E19.74922
G1 X81.821 Y62.545 E19.7831
G1 X82.657 Y62.16 E19.82596
G1 X83.46 Y61.868 E19.86575
G1 X84.292 Y61.605 E19.90638
G1 X84.651 Y61.497 E19.92383
G1 X85.319 Y61.302 E19.95624
G1 X86.213 Y61.082 E19.99911
G1 X87.105 Y60.943 E20.04114
G1 X88.031 Y60.84 E20.08453
G1 X88.42 Y60.803 E20.10272
G1 X88.963 Y60.758 E20.1281
G1 X89.619 Y60.724 E20.15868
G1 X90.781 Y60.7 E20.2128
G1 X91 Y60.698 E20.223
G1 X129.293 Y60.698 E22.00608
G1 X129.962 Y60.706 E22.03724
G1 X130.636 Y60.736 E22.06865
G1 X131.829 Y60.828 E22.12437
G1 X132.198 Y60.863 E22.14163
G1 X132.883 Y60.94 E22.17372
G1 X133.793 Y61.083 E22.21662
G1 X134.643 Y61.291 E22.25736
G1 X135.435 Y61.521 E22.29577
G1 X135.864 Y61.651 E22.31664
G1 X136.529 Y61.862 E22.34913
G1 X137.393 Y62.179 E22.39198
G1 X138.225 Y62.567 E22.43473
G1 X139.038 Y62.991 E22.47742
G1 X139.932 Y63.481 E22.52489
G1 X140.718 Y63.959 E22.56773
G1 X141.431 Y64.481 E22.60888
G1 X142.044 Y64.97 E22.64539
G1 X142.246 Y65.134 E22.65751
G1 X142.959 Y65.732 E22.70084
G1 X143.638 Y66.354 E22.74372
G1 X144.039 Y66.778 E22.77089
G1 X144.803 Y67.63 E22.82418
G1 X146.588 Y69.568 E22.94686
G1 X148.352 Y71.377 E23.06452
G1 X150.152 Y73.122 E23.18125
G1 X152.036 Y74.848 E23.30023
G1 X153.935 Y76.491 E23.41716
G1 X155.874 Y78.076 E23.53377
G1 X157.925 Y79.656 E23.65433
G1 X159.934 Y81.116 E23.76997
G1 X162.023 Y82.546 E23.88785
G1 X164.165 Y83.925 E24.00647
G1 X166.33 Y85.232 E24.12423
G1 X168.55 Y86.491 E24.24307
G1 X169.223 Y86.849 E24.27856
G1 X169.32 Y86.906 E24.2838
G1 X170.465 Y87.52 E24.3443
G1 X170.825 Y87.722 E24.36352
G1 X171.031 Y87.844 E24.37467
G1 X171.496 Y88.127 E24.40002
G1 X171.771 Y88.3 E24.41514
G1 X172.339 Y88.67 E24.44671
G1 X173.088 Y89.206 E24.4896
G1 X173.953 Y89.963 E24.54312
G1 X174.394 Y90.393 E24.5718
G1 X174.564 Y90.562 E24.58296
G1 X175.009 Y91.016 E24.61257
G1 X175.785 Y91.901 E24.66737
G1 X176.341 Y92.678 E24.71186
G1 X176.7 Y93.231 E24.74256
G1 X176.879 Y93.517 E24.75827
G1 X177.199 Y94.046 E24.78706
G1 X177.641 Y94.853 E24.82991
G1 X178.067 Y95.846 E24.88022
G1 X178.281 Y96.423 E24.90888
G1 X178.404 Y96.772 E24.92611
G1 X178.609 Y97.39 E24.95642
G1 X178.861 Y98.275 E24.99927
G1 X178.977 Y98.831 E25.02572
G1 X179.073 Y99.448 E25.05479
G1 X179.143 Y100.005 E25.08094
G1 X179.176 Y100.298 E25.09466
G1 X179.243 Y100.985 E25.12681
G1 X179.292 Y101.861 E25.16766
G1 X179.302 Y102.639 E25.20389
G1 X179.301 Y117.444 E25.89327
G1 X179.291 Y118.142 E25.92578
G1 X179.27 Y118.668 E25.95029
G1 X179.236 Y119.107 E25.97079
G1 X179.184 Y119.635 E25.9955
G1 X179.154 Y119.907 E26.00824
G1 X179.071 Y120.573 E26.03949
G1 X178.917 Y121.481 E26.08238
G1 X178.606 Y122.619 E26.13731
G1 X178.407 Y123.215 E26.16657
G1 X178.308 Y123.5 E26.18062
G1 X178.083 Y124.115 E26.21111
G1 X177.729 Y124.965 E26.25398
G1 X177.373 Y125.659 E26.2903
G1 X177.152 Y126.038 E26.31073
G1 X176.865 Y126.508 E26.33638
G1 X176.704 Y126.763 E26.35042
G1 X176.334 Y127.332 E26.38202
G1 X175.799 Y128.081 E26.42488
G1 X175.037 Y128.953 E26.4788
G1 X174.607 Y129.394 E26.50749
G1 X174.43 Y129.572 E26.51917
G1 X173.975 Y130.017 E26.54881
G1 X173.397 Y130.542 E26.58517
G1 X172.322 Y131.341 E26.64754
G1 X171.769 Y131.7 E26.67824
G1 X171.497 Y131.87 E26.69317
G1 X170.955 Y132.199 E26.7227
G1 X170.44 Y132.492 E26.75029
G1 X169.472 Y133.008 E26.80136
G1 X167.18 Y134.273 E26.92327
G1 X165.025 Y135.542 E27.03972
G1 X162.878 Y136.89 E27.15776
G1 X160.739 Y138.319 E27.27754
G1 X158.691 Y139.773 E27.3945
G1 X156.707 Y141.268 E27.51017
G1 X154.674 Y142.89 E27.63128
G1 X152.779 Y144.493 E27.74685
G1 X150.894 Y146.183 E27.86474
G1 X149.046 Y147.934 E27.98328
G1 X147.296 Y149.69 E28.09872
G1 X144.62 Y152.57 E28.28178
G1 X144.057 Y153.201 E28.32115
G1 X143.415 Y153.861 E28.36403
G1 X142.998 Y154.234 E28.39008
G1 X142.316 Y154.81 E28.43165
G1 X142.012 Y155.058 E28.44991
G1 X141.421 Y155.528 E28.48508
G1 X140.676 Y156.07 E28.52797
G1 X139.949 Y156.51 E28.56754
G1 X139.203 Y156.921 E28.6072
G1 X138.842 Y157.113 E28.62624
G1 X138.196 Y157.447 E28.66011
G1 X137.361 Y157.834 E28.70296
G1 X136.529 Y158.136 E28.74418
G1 X135.723 Y158.391 E28.78354
G1 X135.367 Y158.498 E28.80085
G1 X134.682 Y158.698 E28.83408
G1 X133.788 Y158.918 E28.87695
G1 X132.895 Y159.057 E28.91903
G1 X131.969 Y159.16 E28.96241
G1 X131.58 Y159.197 E28.98061
G1 X131.037 Y159.242 E29.00598
G1 X130.381 Y159.276 E29.03657
G1 X129.219 Y159.3 E29.09069
G1 X129 Y159.302 E29.10088
G1 X90.566 Y159.301 E30.89053
G1 X90.038 Y159.294 E30.91512
G1 X89.364 Y159.264 E30.94654
G1 X88.171 Y159.172 E31.00225
G1 X87.802 Y159.137 E31.01951
G1 X87.117 Y159.06 E31.05161
G1 X86.207 Y158.917 E31.0945
G1 X85.357 Y158.709 E31.13525
G1 X84.565 Y158.479 E31.17365
G1 X84.136 Y158.349 E31.19453
G1 X83.471 Y158.138 E31.22701
G1 X82.607 Y157.821 E31.26987
G1 X81.78 Y157.435 E31.31236
G1 X81.014 Y157.036 E31.35258
G1 X80.809 Y156.927 E31.36339
G1 X80.075 Y156.524 E31.40238
G1 X79.288 Y156.046 E31.44526
G1 X78.562 Y155.514 E31.48717
G1 X77.951 Y155.026 E31.52358
G1 X77.754 Y154.866 E31.5354
G1 X77.041 Y154.268 E31.57873
G1 X76.362 Y153.646 E31.62161
G1 X75.961 Y153.222 E31.64878
G1 X75.197 Y152.37 E31.70207
G1 X73.412 Y150.432 E31.82475
G1 X71.648 Y148.623 E31.94241
G1 X69.847 Y146.877 E32.05921
G1 X67.964 Y145.152 E32.17812
G1 X66.065 Y143.509 E32.29505
G1 X64.105 Y141.907 E32.41292
G1 X62.103 Y140.364 E32.53062
G1 X60.06 Y138.88 E32.64819
G1 X57.977 Y137.454 E32.76574
G1 X55.835 Y136.075 E32.88436
G1 X53.67 Y134.768 E33.00212
G1 X51.45 Y133.509 E33.12096
G1 X50.777 Y133.151 E33.15645
G1 X50.671 Y133.088 E33.1622
G1 X49.529 Y132.476 E33.22253
G1 X49.187 Y132.285 E33.24077
G1 X48.969 Y132.156 E33.25256
G1 X48.504 Y131.873 E33.27791
G1 X48.23 Y131.7 E33.293
G1 X47.665 Y131.332 E33.32439
G1 X46.916 Y130.797 E33.36725
G1 X46.058 Y130.047 E33.42032
G1 X45.614 Y129.615 E33.44916
G1 X45.436 Y129.438 E33.46085
G1 X44.989 Y128.982 E33.49059
G1 X44.374 Y128.297 E33.53345
G1 X43.677 Y127.347 E33.58832
G1 X43.309 Y126.782 E33.61971
G1 X43.133 Y126.503 E33.63507
G1 X42.823 Y125.993 E33.66287
G1 X42.379 Y125.186 E33.70575
G1 X42.133 Y124.65 E33.73322
G1 X42.092 Y124.554 E33.73808
G1 X41.886 Y124.034 E33.76412
G1 X41.703 Y123.534 E33.78891
G1 X41.604 Y123.253 E33.80279
G1 X41.398 Y122.637 E33.83303
G1 X41.144 Y121.752 E33.8759
G1 X40.936 Y120.615 E33.92973
G1 X40.859 Y120.011 E33.95808
G1 X40.823 Y119.694 E33.97293
G1 X40.756 Y119.003 E34.00526
G1 X40.708 Y118.134 E34.04579
G1 X40.698 Y117.36 E34.08183
G1 X40.698 Y102.548 E34.77154
G1 X40.709 Y101.829 E34.80502
G1 X40.758 Y100.958 E34.84565
G1 X40.819 Y100.335 E34.87479
G1 X40.855 Y100.02 E34.88956
G1 X40.935 Y99.396 E34.91885
G1 X41.074 Y98.572 E34.95776
G1 X41.407 Y97.336 E35.01737
G1 X41.59 Y96.791 E35.04414
