;FLAVOR:Marlin
;TIME:11058
;Filament used: 7.15671m
;Layer height: 0.2
;MINX:7.869
;MINY:43.006
;MINZ:0.2
;MAXX:227.131
;MAXY:191.994
;MAXZ:6
;Generated with Cura_SteamEngine 4.6.1
M140 S50
M105
M190 S50
M104 S205
M105
M109 S205
M82 ;absolute extrusion mode
; Ender 3 Custom Start G-code
G92 E0 ; Reset Extruder
G28 ; Home all axes
G1 Z2.0 F3000 ; Move Z Axis up little to prevent scratching of Heat Bed
G1 X0.1 Y20 Z0.3 F5000.0 ; Move to start position
G1 X0.1 Y200.0 Z0.3 F1500.0 E15 ; Draw the first line
G1 X0.4 Y200.0 Z0.3 F5000.0 ; Move to side a little
G1 X0.4 Y20 Z0.3 F1500.0 E30 ; Draw the second line
G92 E0 ; Reset Extruder
G1 Z2.0 F3000 ; Move Z Axis up little to prevent scratching of Heat Bed
G1 X5 Y20 Z0.3 F5000.0 ; Move over to prevent blob squish
G92 E0
G92 E0
G1 F2700 E-5
;LAYER_COUNT:30
;LAYER:0
M107
G0 F6000 X33.52 Y43.954 Z0.2
;TYPE:SKIRT
G1 F2700 E0
G1 F1200 X34.002 Y44.038 E0.01627
G1 X34.291 Y44.093 E0.02606
G1 X34.82 Y44.201 E0.04402
G1 X35.696 Y44.421 E0.07406
G1 X36.7 Y44.778 E0.1095
G1 X37.13 Y44.957 E0.12499
G1 X37.414 Y45.081 E0.1353
G1 X37.918 Y45.309 E0.15369
G1 X38.683 Y45.694 E0.18218
G1 X39.436 Y46.116 E0.21089
G1 X84.212 Y71.968 E1.93054
G1 X84.851 Y72.348 E1.95527
G1 X85.576 Y72.822 E1.98408
G1 X86.175 Y73.256 E2.00868
G1 X86.613 Y73.588 E2.02696
G1 X87.308 Y74.165 E2.05701
G1 X88.095 Y74.963 E2.09428
G1 X90.273 Y77.428 E2.20369
G1 X91.995 Y79.272 E2.2876
G1 X93.803 Y81.099 E2.3731
G1 X95.631 Y82.847 E2.45722
G1 X97.509 Y84.543 E2.54138
G1 X99.437 Y86.188 E2.62568
G1 X101.443 Y87.802 E2.71131
G1 X103.448 Y89.325 E2.79506
G1 X105.525 Y90.813 E2.88004
G1 X107.622 Y92.226 E2.96414
G1 X109.74 Y93.568 E3.04753
G1 X111.963 Y94.893 E3.13361
G1 X139.893 Y111.018 E4.20627
G1 X142.165 Y112.288 E4.29284
G1 X144.427 Y113.469 E4.37771
G1 X146.703 Y114.576 E4.46189
G1 X149.01 Y115.619 E4.5461
G1 X151.363 Y116.604 E4.63094
G1 X153.788 Y117.541 E4.71741
G1 X156.116 Y118.362 E4.79951
G1 X158.534 Y119.14 E4.88399
G1 X160.99 Y119.855 E4.96907
G1 X163.464 Y120.499 E5.0541
G1 X165.924 Y121.067 E5.13807
G1 X169.048 Y121.701 E5.24409
G1 X169.924 Y121.919 E5.27412
G1 X170.959 Y122.288 E5.31067
G1 X171.65 Y122.582 E5.33564
G1 X172.148 Y122.807 E5.35382
G1 X172.922 Y123.197 E5.38264
G1 X173.671 Y123.617 E5.41121
G1 X218.446 Y149.468 E7.13081
G1 X219.085 Y149.848 E7.15554
G1 X219.81 Y150.322 E7.18435
G1 X220.409 Y150.756 E7.20895
G1 X220.847 Y151.088 E7.22723
G1 X221.542 Y151.665 E7.25728
G1 X222.328 Y152.462 E7.29451
G1 X222.854 Y153.062 E7.32105
G1 X223.191 Y153.466 E7.33855
G1 X223.738 Y154.185 E7.36859
G1 X224.29 Y155.075 E7.40343
G1 X224.51 Y155.474 E7.41858
G1 X224.675 Y155.786 E7.43032
G1 X224.924 Y156.277 E7.44863
G1 X225.296 Y157.099 E7.47864
G1 X225.62 Y158.039 E7.51171
G1 X225.758 Y158.513 E7.52813
G1 X225.856 Y158.872 E7.54051
G1 X225.988 Y159.396 E7.55848
G1 X226.17 Y160.281 E7.58853
G1 X226.283 Y161.356 E7.62448
G1 X226.32 Y162.141 E7.65062
G1 X226.332 Y162.683 E7.66865
G1 X226.312 Y163.586 E7.69869
G1 X226.186 Y164.643 E7.7341
G1 X226.044 Y165.437 E7.76093
G1 X225.938 Y165.956 E7.77854
G1 X225.718 Y166.832 E7.80858
G1 X225.359 Y167.84 E7.84417
G1 X225.059 Y168.548 E7.86975
G1 X224.833 Y169.049 E7.88803
G1 X224.438 Y169.833 E7.91723
G1 X224.029 Y170.563 E7.94506
G1 X216.658 Y183.328 E8.43532
G1 X216.284 Y183.956 E8.45963
G1 X215.812 Y184.677 E8.4883
G1 X215.358 Y185.305 E8.51407
G1 X215.078 Y185.674 E8.52948
G1 X214.5 Y186.368 E8.55952
G1 X213.839 Y187.032 E8.59068
G1 X213.437 Y187.4 E8.60881
G1 X213.091 Y187.702 E8.62408
G1 X212.689 Y188.038 E8.64151
G1 X211.971 Y188.586 E8.67155
G1 X211.113 Y189.122 E8.7052
G1 X210.711 Y189.346 E8.7205
G1 X210.382 Y189.522 E8.73291
G1 X209.892 Y189.772 E8.75121
G1 X209.07 Y190.146 E8.78124
G1 X208.092 Y190.484 E8.81566
G1 X207.591 Y190.629 E8.83301
G1 X207.257 Y190.719 E8.84451
G1 X206.759 Y190.845 E8.8616
G1 X205.874 Y191.028 E8.89166
G1 X204.84 Y191.14 E8.92625
G1 X204.386 Y191.166 E8.94137
G1 X204.053 Y191.18 E8.95246
G1 X203.481 Y191.194 E8.97149
G1 X202.578 Y191.176 E9.00153
G1 X201.48 Y191.046 E9.0383
G1 X200.709 Y190.907 E9.06436
G1 X200.18 Y190.799 E9.08232
G1 X199.304 Y190.579 E9.11236
G1 X198.291 Y190.218 E9.14813
G1 X197.584 Y189.918 E9.17367
G1 X197.086 Y189.693 E9.19185
G1 X196.312 Y189.303 E9.22067
G1 X195.563 Y188.883 E9.24924
G1 X150.775 Y163.024 E10.96935
G1 X150.148 Y162.651 E10.99362
G1 X149.424 Y162.178 E11.02238
G1 X148.822 Y161.742 E11.0471
G1 X148.383 Y161.409 E11.06543
G1 X147.688 Y160.831 E11.09549
G1 X146.903 Y160.036 E11.13265
G1 X144.709 Y157.552 E11.24288
G1 X143.004 Y155.727 E11.32595
G1 X141.197 Y153.901 E11.4114
G1 X139.368 Y152.152 E11.49557
G1 X137.491 Y150.457 E11.57968
G1 X135.563 Y148.812 E11.66398
G1 X133.557 Y147.198 E11.74961
G1 X131.552 Y145.675 E11.83336
G1 X129.475 Y144.187 E11.91834
G1 X127.378 Y142.774 E12.00244
G1 X125.244 Y141.422 E12.08646
G1 X123.067 Y140.125 E12.17075
G1 X95.104 Y123.981 E13.24467
G1 X92.846 Y122.719 E13.33071
G1 X90.57 Y121.531 E13.4161
G1 X88.281 Y120.416 E13.50078
G1 X85.976 Y119.375 E13.5849
G1 X83.628 Y118.392 E13.66957
G1 X81.257 Y117.476 E13.75411
G1 X78.853 Y116.629 E13.83888
G1 X76.464 Y115.86 E13.92236
G1 X74.008 Y115.145 E14.00743
G1 X71.534 Y114.501 E14.09246
G1 X69.089 Y113.936 E14.17593
G1 X65.964 Y113.303 E14.28197
G1 X65.087 Y113.085 E14.31203
G1 X64.064 Y112.721 E14.34815
G1 X63.349 Y112.418 E14.37397
G1 X62.849 Y112.192 E14.39222
G1 X62.083 Y111.806 E14.42075
G1 X61.342 Y111.391 E14.449
G1 X16.487 Y85.494 E16.17168
G1 X15.975 Y85.19 E16.19148
G1 X15.212 Y84.689 E16.22184
G1 X14.457 Y84.142 E16.25285
G1 X14.177 Y83.931 E16.26451
G1 X13.481 Y83.356 E16.29454
G1 X12.66 Y82.525 E16.33339
G1 X12.103 Y81.887 E16.36156
G1 X11.804 Y81.528 E16.3771
G1 X11.258 Y80.809 E16.40713
G1 X10.705 Y79.916 E16.44206
G1 X10.34 Y79.242 E16.46756
G1 X10.087 Y78.747 E16.48605
G1 X9.712 Y77.926 E16.51607
G1 X9.358 Y76.896 E16.55229
G1 X9.147 Y76.139 E16.57843
G1 X9.015 Y75.618 E16.59631
G1 X8.833 Y74.734 E16.62632
G1 X8.717 Y73.642 E16.66285
G1 X8.681 Y72.858 E16.68895
G1 X8.669 Y72.317 E16.70695
G1 X8.688 Y71.414 E16.73699
G1 X8.814 Y70.361 E16.77226
G1 X8.954 Y69.573 E16.79888
G1 X9.059 Y69.056 E16.81643
G1 X9.278 Y68.18 E16.84646
G1 X9.649 Y67.14 E16.88319
G1 X9.931 Y66.475 E16.90721
G1 X10.155 Y65.975 E16.92544
G1 X10.568 Y65.155 E16.95597
G1 X10.971 Y64.437 E16.98336
G1 X18.342 Y51.672 E17.47362
G1 X18.716 Y51.044 E17.49793
G1 X19.188 Y50.323 E17.5266
G1 X19.644 Y49.693 E17.55246
G1 X19.934 Y49.311 E17.56841
G1 X20.511 Y48.617 E17.59843
G1 X21.223 Y47.908 E17.63185
G1 X21.624 Y47.546 E17.64982
G1 X21.917 Y47.291 E17.66274
G1 X22.313 Y46.96 E17.67991
G1 X23.031 Y46.412 E17.70995
G1 X23.896 Y45.873 E17.74385
G1 X24.295 Y45.651 E17.75903
G1 X24.626 Y45.474 E17.77152
G1 X25.121 Y45.222 E17.78999
G1 X25.944 Y44.848 E17.82006
G1 X26.918 Y44.513 E17.85432
G1 X27.413 Y44.37 E17.87145
G1 X27.747 Y44.279 E17.88297
G1 X28.246 Y44.153 E17.90008
G1 X29.13 Y43.971 E17.9301
G1 X30.16 Y43.86 E17.96456
G1 X30.614 Y43.834 E17.97968
G1 X30.947 Y43.82 E17.99077
G1 X31.519 Y43.806 E18.0098
G1 X32.422 Y43.824 E18.03984
G1 X33.52 Y43.954 E18.07661
G0 F6000 X33.589 Y43.56
G1 F1200 X34.071 Y43.644 E18.09289
G1 X34.371 Y43.701 E18.10304
G1 X34.9 Y43.809 E18.121
G1 X35.794 Y44.032 E18.15165
G1 X36.854 Y44.409 E18.18907
G1 X37.579 Y44.716 E18.21525
G1 X38.083 Y44.944 E18.23365
G1 X38.878 Y45.345 E18.26327
G1 X39.636 Y45.769 E18.29215
G1 X84.416 Y71.624 E20.01197
G1 X85.055 Y72.004 E20.0367
G1 X85.809 Y72.497 E20.06666
G1 X86.417 Y72.938 E20.09165
G1 X86.855 Y73.27 E20.10993
G1 X87.564 Y73.857 E20.14054
G1 X88.395 Y74.698 E20.17986
G1 X90.565 Y77.153 E20.28884
G1 X92.289 Y79 E20.37288
G1 X94.082 Y80.812 E20.45766
G1 X95.894 Y82.544 E20.54103
G1 X97.782 Y84.25 E20.62567
G1 X99.719 Y85.903 E20.71036
G1 X101.651 Y87.457 E20.79283
G1 X103.7 Y89.014 E20.87842
G1 X105.736 Y90.472 E20.96171
G1 X107.854 Y91.9 E21.04667
G1 X109.98 Y93.246 E21.13036
G1 X112.076 Y94.495 E21.21152
G1 X140.136 Y110.696 E22.28918
G1 X142.324 Y111.919 E22.37255
G1 X144.623 Y113.119 E22.45881
G1 X146.893 Y114.223 E22.54276
G1 X149.15 Y115.244 E22.62516
G1 X151.526 Y116.238 E22.71082
G1 X153.899 Y117.155 E22.79543
G1 X156.267 Y117.99 E22.87895
G1 X158.653 Y118.758 E22.96231
G1 X161.098 Y119.47 E23.04701
G1 X163.549 Y120.108 E23.13125
G1 X166.022 Y120.679 E23.21567
G1 X169.127 Y121.309 E23.32104
G1 X170.021 Y121.531 E23.35168
G1 X171.113 Y121.919 E23.39023
G1 X171.814 Y122.217 E23.41556
G1 X172.312 Y122.442 E23.43374
G1 X173.117 Y122.848 E23.46372
G1 X173.871 Y123.27 E23.49246
G1 X218.65 Y149.124 E25.21224
G1 X219.289 Y149.504 E25.23696
G1 X220.043 Y149.997 E25.26693
G1 X220.651 Y150.438 E25.29191
G1 X221.089 Y150.77 E25.31019
G1 X221.798 Y151.357 E25.3408
G1 X222.628 Y152.197 E25.38008
G1 X223.161 Y152.806 E25.407
G1 X223.498 Y153.21 E25.42449
G1 X224.056 Y153.942 E25.45511
G1 X224.64 Y154.882 E25.49191
G1 X224.86 Y155.281 E25.50707
G1 X225.032 Y155.605 E25.51927
G1 X225.281 Y156.096 E25.53758
G1 X225.661 Y156.934 E25.56818
G1 X226.004 Y157.927 E25.60313
G1 X226.142 Y158.401 E25.61955
G1 X226.244 Y158.775 E25.63244
G1 X226.376 Y159.299 E25.65041
G1 X226.562 Y160.2 E25.68101
G1 X226.683 Y161.336 E25.71901
G1 X226.708 Y161.815 E25.73496
G1 X226.719 Y162.132 E25.74551
G1 X226.731 Y162.674 E25.76354
G1 X226.712 Y163.595 E25.79418
G1 X226.58 Y164.711 E25.83156
G1 X226.436 Y165.517 E25.85879
G1 X226.33 Y166.036 E25.87641
G1 X226.106 Y166.929 E25.90703
G1 X225.728 Y167.994 E25.94462
G1 X225.423 Y168.713 E25.9706
G1 X225.197 Y169.214 E25.98888
G1 X224.787 Y170.029 E26.01922
G1 X224.375 Y170.763 E26.04722
G1 X217.001 Y183.533 E26.53767
G1 X216.627 Y184.161 E26.56198
G1 X216.137 Y184.91 E26.59175
G1 X215.676 Y185.546 E26.61788
G1 X215.396 Y185.915 E26.63329
G1 X214.808 Y186.624 E26.66392
G1 X214.109 Y187.327 E26.6969
G1 X213.707 Y187.695 E26.71502
G1 X213.348 Y188.009 E26.73089
G1 X212.946 Y188.345 E26.74831
G1 X212.215 Y188.904 E26.77892
G1 X211.308 Y189.472 E26.81451
G1 X210.906 Y189.696 E26.82982
G1 X210.563 Y189.878 E26.84273
G1 X210.073 Y190.128 E26.86103
G1 X209.236 Y190.51 E26.89163
G1 X208.203 Y190.868 E26.92799
G1 X207.702 Y191.013 E26.94534
G1 X207.355 Y191.107 E26.9573
G1 X206.857 Y191.233 E26.97438
G1 X205.956 Y191.42 E27.00499
G1 X204.863 Y191.54 E27.04156
G1 X204.409 Y191.566 E27.05669
G1 X204.062 Y191.58 E27.06824
G1 X203.49 Y191.594 E27.08727
G1 X202.57 Y191.576 E27.11787
G1 X201.411 Y191.44 E27.15669
G1 X200.629 Y191.299 E27.18311
G1 X200.1 Y191.191 E27.20107
G1 X199.206 Y190.968 E27.23172
G1 X198.137 Y190.587 E27.26946
G1 X197.42 Y190.283 E27.29537
G1 X196.922 Y190.058 E27.31354
G1 X196.117 Y189.652 E27.34353
G1 X195.363 Y189.23 E27.37227
G1 X150.571 Y163.368 E29.09255
G1 X149.944 Y162.995 E29.11681
G1 X149.191 Y162.503 E29.14673
G1 X148.58 Y162.06 E29.17183
G1 X148.141 Y161.727 E29.19016
G1 X147.432 Y161.14 E29.22077
G1 X146.604 Y160.301 E29.25998
G1 X144.435 Y157.847 E29.36891
G1 X142.71 Y155.999 E29.45299
G1 X140.918 Y154.188 E29.53773
G1 X139.088 Y152.439 E29.62192
G1 X137.226 Y150.757 E29.70538
G1 X135.281 Y149.097 E29.79043
G1 X133.349 Y147.543 E29.8729
G1 X131.3 Y145.986 E29.95849
G1 X129.264 Y144.528 E30.04178
G1 X127.146 Y143.1 E30.12674
G1 X125.047 Y141.771 E30.20937
G1 X122.868 Y140.473 E30.29373
G1 X94.861 Y124.303 E31.36935
G1 X92.645 Y123.065 E31.45378
G1 X90.417 Y121.901 E31.53739
G1 X88.091 Y120.769 E31.62343
G1 X85.836 Y119.75 E31.70573
G1 X83.465 Y118.758 E31.79121
G1 X81.117 Y117.85 E31.87494
G1 X78.735 Y117.011 E31.95894
G1 X76.345 Y116.242 E32.04245
G1 X73.9 Y115.53 E32.12714
G1 X71.449 Y114.892 E32.21138
G1 X68.998 Y114.326 E32.29505
G1 X65.884 Y113.695 E32.40073
G1 X64.991 Y113.473 E32.43133
G1 X63.91 Y113.09 E32.46947
G1 X63.184 Y112.782 E32.4957
G1 X62.684 Y112.556 E32.51395
G1 X61.888 Y112.155 E32.5436
G1 X61.142 Y111.738 E32.57202
G1 X16.282 Y85.837 E34.29491
G1 X15.77 Y85.533 E34.31472
G1 X14.978 Y85.014 E34.34621
G1 X14.217 Y84.461 E34.3775
G1 X13.937 Y84.25 E34.38916
G1 X13.226 Y83.665 E34.41978
G1 X12.36 Y82.789 E34.46075
G1 X11.796 Y82.143 E34.48928
G1 X11.497 Y81.784 E34.50482
G1 X10.939 Y81.051 E34.53546
G1 X10.354 Y80.108 E34.57237
G1 X9.983 Y79.424 E34.59825
G1 X9.73 Y78.929 E34.61674
G1 X9.347 Y78.092 E34.64735
G1 X8.974 Y77.006 E34.68554
G1 X8.76 Y76.237 E34.71209
G1 X8.628 Y75.716 E34.72997
G1 X8.441 Y74.815 E34.76057
G1 X8.317 Y73.663 E34.79911
G1 X8.292 Y73.182 E34.81513
G1 X8.281 Y72.867 E34.82561
G1 X8.269 Y72.326 E34.84361
G1 X8.288 Y71.406 E34.87422
G1 X8.42 Y70.293 E34.9115
G1 X8.562 Y69.493 E34.93852
G1 X8.667 Y68.976 E34.95607
G1 X8.889 Y68.083 E34.98667
G1 X9.28 Y66.985 E35.02544
G1 X9.566 Y66.311 E35.04979
G1 X9.79 Y65.811 E35.06801
G1 X10.219 Y64.96 E35.09971
G1 X10.625 Y64.237 E35.12729
G1 X17.999 Y51.467 E35.61775
G1 X18.373 Y50.839 E35.64206
G1 X18.863 Y50.09 E35.67183
G1 X19.325 Y49.452 E35.69803
G1 X19.615 Y49.07 E35.71398
G1 X20.203 Y48.361 E35.74462
G1 X20.955 Y47.611 E35.77994
G1 X21.356 Y47.249 E35.79791
G1 X21.661 Y46.984 E35.81135
G1 X22.057 Y46.653 E35.82851
G1 X22.788 Y46.094 E35.85912
G1 X23.701 Y45.523 E35.89494
G1 X24.1 Y45.301 E35.91012
G1 X24.445 Y45.118 E35.92311
G1 X24.94 Y44.866 E35.94159
G1 X25.778 Y44.484 E35.97222
G1 X26.807 Y44.128 E36.00843
G1 X27.302 Y43.985 E36.02557
G1 X27.649 Y43.892 E36.03752
G1 X28.148 Y43.766 E36.05464
G1 X29.049 Y43.579 E36.08524
G1 X30.137 Y43.46 E36.12164
G1 X30.591 Y43.434 E36.13677
G1 X30.938 Y43.42 E36.14832
G1 X31.51 Y43.406 E36.16735
G1 X32.43 Y43.424 E36.19796
G1 X33.589 Y43.56 E36.23677
G0 F6000 X33.658 Y43.166
G1 F1200 X34.14 Y43.25 E36.25304
G1 X34.451 Y43.309 E36.26357
G1 X34.98 Y43.417 E36.28153
G1 X35.89 Y43.644 E36.31272
G1 X37.007 Y44.04 E36.35214
G1 X37.744 Y44.352 E36.37876
G1 X38.248 Y44.58 E36.39716
G1 X39.073 Y44.996 E36.42789
G1 X39.836 Y45.423 E36.45697
G1 X84.62 Y71.28 E38.17694
G1 X85.259 Y71.66 E38.20166
G1 X86.042 Y72.172 E38.23278
G1 X86.659 Y72.619 E38.25812
G1 X87.097 Y72.951 E38.2764
G1 X87.819 Y73.549 E38.30758
G1 X88.695 Y74.433 E38.34897
G1 X90.874 Y76.899 E38.45843
G1 X92.583 Y78.729 E38.54171
G1 X94.359 Y80.524 E38.62569
G1 X96.155 Y82.241 E38.70833
G1 X98.054 Y83.956 E38.79344
G1 X99.966 Y85.588 E38.87705
G1 X101.92 Y87.16 E38.96046
G1 X103.93 Y88.686 E39.0444
G1 X105.963 Y90.143 E39.12759
G1 X108.069 Y91.563 E39.21207
G1 X110.177 Y92.897 E39.29504
G1 X112.329 Y94.18 E39.37837
G1 X140.241 Y110.295 E40.45034
G1 X142.568 Y111.595 E40.539
G1 X144.776 Y112.749 E40.62186
G1 X147.054 Y113.857 E40.70612
G1 X149.364 Y114.901 E40.79043
G1 X151.645 Y115.856 E40.87268
G1 X154.039 Y116.781 E40.95804
G1 X156.374 Y117.604 E41.04038
G1 X158.792 Y118.382 E41.12487
G1 X161.196 Y119.082 E41.20815
G1 X163.634 Y119.717 E41.29194
G1 X166.113 Y120.29 E41.37657
G1 X169.207 Y120.917 E41.48156
G1 X170.117 Y121.142 E41.51274
G1 X171.268 Y121.55 E41.55336
G1 X171.979 Y121.853 E41.57906
G1 X172.477 Y122.078 E41.59724
G1 X173.312 Y122.499 E41.62834
G1 X174.071 Y122.924 E41.65727
G1 X218.854 Y148.78 E43.3772
G1 X219.493 Y149.16 E43.40192
G1 X220.276 Y149.672 E43.43304
G1 X220.893 Y150.119 E43.45838
G1 X221.331 Y150.451 E43.47666
G1 X222.053 Y151.049 E43.50784
G1 X222.928 Y151.932 E43.54919
G1 X223.468 Y152.55 E43.57648
G1 X223.805 Y152.954 E43.59398
G1 X224.375 Y153.699 E43.62518
G1 X224.991 Y154.689 E43.66396
G1 X225.211 Y155.088 E43.67912
G1 X225.389 Y155.424 E43.69176
G1 X225.638 Y155.915 E43.71008
G1 X226.026 Y156.769 E43.74127
G1 X226.388 Y157.815 E43.77809
G1 X226.526 Y158.289 E43.79451
G1 X226.632 Y158.677 E43.80789
G1 X226.764 Y159.201 E43.82586
G1 X226.954 Y160.119 E43.85704
G1 X227.082 Y161.315 E43.89704
G1 X227.107 Y161.794 E43.913
G1 X227.119 Y162.124 E43.92398
G1 X227.131 Y162.666 E43.94201
G1 X227.112 Y163.603 E43.97318
G1 X226.974 Y164.779 E44.01257
G1 X226.828 Y165.597 E44.0402
G1 X226.722 Y166.116 E44.05782
G1 X226.495 Y167.026 E44.08902
G1 X226.097 Y168.147 E44.12858
G1 X225.788 Y168.877 E44.15495
G1 X225.562 Y169.378 E44.17323
G1 X225.136 Y170.224 E44.20473
G1 X224.721 Y170.963 E44.23292
G1 X217.345 Y183.737 E44.72353
G1 X216.971 Y184.365 E44.74784
G1 X216.462 Y185.143 E44.77876
