;FLAVOR:Marlin
;TIME:8954
;Filament used: 7.73152m
;Layer height: 0.28
;MINX:22.631
;MINY:22.631
;MINZ:0.28
;MAXX:212.369
;MAXY:212.369
;MAXZ:5.88
;Generated with Cura_SteamEngine 4.6.1
M140 S50
M105
M190 S50
M104 S210
M105
M109 S210
M82 ;absolute extrusion mode
; Ender 3 Custom Start G-code
G92 E0 ; Reset Extruder
G28 ; Home all axes
G1 Z2.0 F3000 ; Move Z Axis up little to prevent scratching of Heat Bed
G1 X0.1 Y20 Z0.3 F5000.0 ; Move to start position
G1 X0.1 Y200.0 Z0.3 F1500.0 E15 ; Draw the first line
G1 X0.4 Y200.0 Z0.3 F5000.0 ; Move to side a little
G1 X0.4 Y20 Z0.3 F1500.0 E30 ; Draw the second line
G92 E0 ; Reset Extruder
G1 Z2.0 F3000 ; Move Z Axis up little to prevent scratching of Heat Bed
G1 X5 Y20 Z0.3 F5000.0 ; Move over to prevent blob squish
G92 E0
G92 E0
G1 F2700 E-5
;LAYER_COUNT:21
;LAYER:0
M107
G0 F6000 X51.185 Y23.492 Z0.28
;TYPE:SKIRT
G1 F2700 E0
G1 F1200 X52.218 Y23.653 E0.04868
G1 X52.707 Y23.755 E0.07194
G1 X53.022 Y23.826 E0.08698
G1 X53.547 Y23.953 E0.11213
G1 X54.415 Y24.204 E0.1542
G1 X55.367 Y24.58 E0.20186
G1 X55.847 Y24.798 E0.22641
G1 X56.198 Y24.966 E0.24453
G1 X56.673 Y25.204 E0.26927
G1 X57.462 Y25.644 E0.31134
G1 X58.314 Y26.231 E0.35951
G1 X58.714 Y26.538 E0.38299
G1 X58.97 Y26.742 E0.39823
G1 X59.386 Y27.083 E0.42328
G1 X60.015 Y27.643 E0.4625
G1 X60.605 Y28.217 E0.50083
G1 X97.248 Y64.861 E2.91386
G1 X97.728 Y65.355 E2.94594
G1 X98.267 Y65.955 E2.98349
G1 X98.591 Y66.346 E3.00714
G1 X98.796 Y66.602 E3.02241
G1 X99.128 Y67.03 E3.04763
G1 X99.65 Y67.768 E3.08972
G1 X100.2 Y68.736 E3.14156
G1 X101.692 Y71.732 E3.29741
G1 X102.86 Y73.924 E3.41307
G1 X104.143 Y76.176 E3.53375
G1 X105.452 Y78.33 E3.65112
G1 X106.836 Y80.47 E3.76979
G1 X108.268 Y82.551 E3.88742
G1 X109.772 Y84.61 E4.00615
G1 X111.325 Y86.615 E4.12424
G1 X112.929 Y88.568 E4.24192
G1 X114.624 Y90.516 E4.36216
G1 X116.315 Y92.354 E4.47845
G1 X118.091 Y94.179 E4.59703
G1 X140.848 Y116.935 E6.09558
G1 X142.7 Y118.736 E6.21587
G1 X144.573 Y120.457 E6.33431
G1 X146.502 Y122.131 E6.45324
G1 X148.444 Y123.721 E6.57011
G1 X150.488 Y125.301 E6.69041
G1 X152.508 Y126.774 E6.80682
G1 X154.644 Y128.239 E6.92743
G1 X156.733 Y129.588 E7.04322
G1 X158.923 Y130.916 E7.16248
G1 X161.134 Y132.172 E7.28089
G1 X163.38 Y133.365 E7.39931
G1 X166.25 Y134.792 E7.54855
G1 X167.04 Y135.229 E7.59059
G1 X167.957 Y135.863 E7.6425
G1 X168.58 Y136.351 E7.67935
G1 X168.996 Y136.692 E7.7044
G1 X169.619 Y137.246 E7.74322
G1 X170.191 Y137.802 E7.78037
G1 X206.872 Y174.484 E10.1959
G1 X207.34 Y174.967 E10.22722
G1 X207.88 Y175.57 E10.26491
G1 X208.403 Y176.211 E10.30343
G1 X208.731 Y176.634 E10.32836
G1 X209.252 Y177.371 E10.37039
G1 X209.781 Y178.299 E10.42013
G1 X210.157 Y179.057 E10.45952
G1 X210.383 Y179.545 E10.48457
G1 X210.725 Y180.38 E10.52658
G1 X211.028 Y181.381 E10.57528
G1 X211.222 Y182.185 E10.61379
G1 X211.335 Y182.713 E10.63894
G1 X211.485 Y183.604 E10.68101
G1 X211.559 Y184.668 E10.73067
G1 X211.569 Y185.51 E10.76988
G1 X211.561 Y186.05 E10.79503
G1 X211.508 Y186.952 E10.8371
G1 X211.352 Y187.958 E10.88451
G1 X211.25 Y188.453 E10.90804
G1 X211.172 Y188.8 E10.9246
G1 X211.047 Y189.315 E10.94928
G1 X210.796 Y190.182 E10.99131
G1 X210.423 Y191.125 E11.03853
G1 X210.211 Y191.592 E11.06241
G1 X210.05 Y191.93 E11.07984
G1 X209.804 Y192.423 E11.1055
G1 X209.365 Y193.213 E11.14758
G1 X208.756 Y194.096 E11.19753
G1 X208.26 Y194.732 E11.23508
G1 X207.91 Y195.159 E11.26079
G1 X207.36 Y195.777 E11.29931
G1 X206.817 Y196.336 E11.3356
G1 X196.286 Y206.866 E12.02905
G1 X195.81 Y207.328 E12.05994
G1 X195.216 Y207.861 E12.0971
G1 X194.557 Y208.401 E12.13678
G1 X194.13 Y208.732 E12.16193
G1 X193.393 Y209.253 E12.20396
G1 X192.458 Y209.785 E12.25405
G1 X191.982 Y210.024 E12.27885
G1 X191.678 Y210.171 E12.29458
G1 X191.199 Y210.392 E12.31914
G1 X190.363 Y210.733 E12.36118
G1 X189.355 Y211.037 E12.41021
G1 X188.596 Y211.218 E12.44654
G1 X188.054 Y211.334 E12.47235
G1 X187.163 Y211.484 E12.51442
G1 X186.121 Y211.558 E12.56306
G1 X185.617 Y211.568 E12.58654
G1 X185.266 Y211.569 E12.60288
G1 X184.717 Y211.561 E12.62845
G1 X183.816 Y211.508 E12.67047
G1 X182.787 Y211.348 E12.71896
G1 X182.297 Y211.246 E12.74227
G1 X181.991 Y211.177 E12.75688
G1 X181.467 Y211.051 E12.78197
G1 X180.599 Y210.802 E12.82402
G1 X179.618 Y210.414 E12.87314
G1 X179.138 Y210.195 E12.89771
G1 X178.81 Y210.038 E12.91464
G1 X178.332 Y209.799 E12.93953
G1 X177.543 Y209.36 E12.98157
G1 X176.677 Y208.762 E13.03057
G1 X176.027 Y208.256 E13.06893
G1 X175.604 Y207.909 E13.09441
G1 X174.971 Y207.345 E13.13388
G1 X174.505 Y206.893 E13.16411
G1 X137.732 Y170.119 E15.58571
G1 X137.273 Y169.647 E15.61637
G1 X136.721 Y169.032 E15.65485
G1 X136.398 Y168.641 E15.67846
G1 X136.203 Y168.397 E15.69301
G1 X135.871 Y167.969 E15.71823
G1 X135.349 Y167.231 E15.76032
G1 X134.801 Y166.267 E15.81196
G1 X133.298 Y163.251 E15.96887
G1 X132.083 Y160.973 E16.08909
G1 X130.839 Y158.794 E16.20592
G1 X129.52 Y156.627 E16.32405
G1 X128.125 Y154.473 E16.44354
G1 X126.694 Y152.398 E16.56091
G1 X125.201 Y150.355 E16.67874
G1 X123.64 Y148.343 E16.79731
G1 X122.019 Y146.37 E16.91622
G1 X120.36 Y144.467 E17.03377
G1 X118.633 Y142.593 E17.15244
G1 X116.913 Y140.826 E17.26726
G1 X94.157 Y118.069 E18.76582
G1 X92.305 Y116.267 E18.88614
G1 X90.431 Y114.546 E19.00461
G1 X88.503 Y112.873 E19.12348
G1 X86.554 Y111.277 E19.24078
G1 X84.513 Y109.699 E19.36091
G1 X82.493 Y108.226 E19.47732
G1 X80.382 Y106.777 E19.59654
G1 X78.261 Y105.407 E19.71412
G1 X76.088 Y104.091 E19.83241
G1 X73.858 Y102.823 E19.95186
G1 X71.639 Y101.644 E20.06887
G1 X68.75 Y100.208 E20.21909
G1 X67.96 Y99.771 E20.26113
G1 X67.043 Y99.137 E20.31304
G1 X66.418 Y98.648 E20.34999
G1 X66.001 Y98.306 E20.3751
G1 X65.38 Y97.753 E20.41382
G1 X64.808 Y97.198 E20.45094
G1 X28.126 Y60.517 E22.86648
G1 X27.659 Y60.035 E22.89773
G1 X27.105 Y59.414 E22.93648
G1 X26.575 Y58.762 E22.9756
G1 X26.267 Y58.365 E22.999
G1 X25.746 Y57.628 E23.04103
G1 X25.203 Y56.675 E23.0921
G1 X24.853 Y55.964 E23.129
G1 X24.614 Y55.448 E23.15548
G1 X24.271 Y54.612 E23.19756
G1 X23.959 Y53.577 E23.24789
G1 X23.773 Y52.793 E23.28541
G1 X23.66 Y52.259 E23.31083
G1 X23.512 Y51.368 E23.35289
G1 X23.441 Y50.328 E23.40142
G1 X23.431 Y49.49 E23.44045
G1 X23.439 Y48.951 E23.46555
G1 X23.492 Y48.049 E23.50762
G1 X23.647 Y47.047 E23.55483
G1 X23.749 Y46.551 E23.57841
G1 X23.828 Y46.2 E23.59517
G1 X23.953 Y45.685 E23.61984
G1 X24.204 Y44.818 E23.66187
G1 X24.581 Y43.867 E23.70951
G1 X24.793 Y43.401 E23.73335
G1 X24.95 Y43.071 E23.75036
G1 X25.198 Y42.574 E23.77623
G1 X25.637 Y41.784 E23.81831
G1 X26.249 Y40.897 E23.86849
G1 X26.563 Y40.49 E23.89243
G1 X26.757 Y40.247 E23.90691
G1 X27.097 Y39.833 E23.93185
G1 X27.646 Y39.217 E23.97027
G1 X28.203 Y38.644 E24.00748
G1 X38.72 Y28.128 E24.70001
G1 X39.203 Y27.66 E24.73133
G1 X39.793 Y27.131 E24.76823
G1 X40.184 Y26.807 E24.79187
G1 X40.443 Y26.599 E24.80734
G1 X40.87 Y26.268 E24.8325
G1 X41.607 Y25.747 E24.87452
G1 X42.542 Y25.215 E24.92462
G1 X43.018 Y24.976 E24.94942
G1 X43.322 Y24.829 E24.96514
G1 X43.801 Y24.608 E24.9897
G1 X44.637 Y24.267 E25.03175
G1 X45.645 Y23.963 E25.08077
G1 X46.404 Y23.782 E25.1171
G1 X46.946 Y23.666 E25.14291
G1 X47.837 Y23.516 E25.18499
G1 X48.879 Y23.442 E25.23363
G1 X49.383 Y23.432 E25.2571
G1 X49.733 Y23.431 E25.2734
G1 X50.283 Y23.439 E25.29901
G1 X51.185 Y23.492 E25.34109
G0 F6000 X51.208 Y23.092
G1 F1200 X52.299 Y23.261 E25.39249
G1 X52.788 Y23.363 E25.41575
G1 X53.116 Y23.437 E25.43141
G1 X53.641 Y23.564 E25.45656
G1 X54.526 Y23.819 E25.49945
G1 X55.532 Y24.216 E25.54981
G1 X56.012 Y24.434 E25.57435
G1 X56.377 Y24.608 E25.59318
G1 X56.852 Y24.846 E25.61792
G1 X57.657 Y25.294 E25.66082
G1 X58.558 Y25.914 E25.71175
G1 X58.958 Y26.221 E25.73523
G1 X59.224 Y26.432 E25.75104
G1 X59.64 Y26.773 E25.77608
G1 X60.294 Y27.356 E25.81688
G1 X60.888 Y27.934 E25.85547
G1 X97.535 Y64.582 E28.26877
G1 X98.015 Y65.076 E28.30085
G1 X98.575 Y65.7 E28.33989
G1 X99.113 Y66.357 E28.37943
G1 X99.445 Y66.785 E28.40465
G1 X99.977 Y67.536 E28.4475
G1 X100.558 Y68.557 E28.50221
G1 X102.039 Y71.531 E28.65691
G1 X103.232 Y73.771 E28.77508
G1 X104.483 Y75.966 E28.89273
G1 X105.787 Y78.111 E29.00961
G1 X107.158 Y80.232 E29.12721
G1 X108.605 Y82.334 E29.24604
G1 X110.095 Y84.374 E29.36367
G1 X111.635 Y86.362 E29.48077
G1 X113.238 Y88.314 E29.59838
G1 X114.903 Y90.228 E29.71651
G1 X116.614 Y92.087 E29.83415
G1 X118.415 Y93.938 E29.95441
G1 X141.09 Y116.612 E31.44756
G1 X142.986 Y118.456 E31.57072
G1 X144.84 Y120.16 E31.68797
G1 X146.751 Y121.817 E31.80575
G1 X148.718 Y123.428 E31.92414
G1 X150.706 Y124.965 E32.04115
G1 X152.741 Y126.449 E32.15843
G1 X154.865 Y127.906 E32.27836
G1 X156.951 Y129.253 E32.39399
G1 X159.107 Y130.56 E32.51139
G1 X161.355 Y131.837 E32.63177
G1 X163.551 Y133.004 E32.74757
G1 X166.428 Y134.434 E32.89717
G1 X167.233 Y134.879 E32.94
G1 X168.202 Y135.547 E32.9948
G1 X168.834 Y136.041 E33.03216
G1 X169.25 Y136.382 E33.0572
G1 X169.897 Y136.958 E33.09754
G1 X170.474 Y137.519 E33.13501
G1 X207.16 Y174.206 E35.55088
G1 X207.628 Y174.689 E35.5822
G1 X208.189 Y175.316 E35.62137
G1 X208.516 Y175.712 E35.64529
G1 X208.719 Y175.966 E35.66043
G1 X209.047 Y176.389 E35.68535
G1 X209.579 Y177.14 E35.72821
G1 X210.139 Y178.119 E35.78072
G1 X210.37 Y178.578 E35.80465
G1 X210.52 Y178.888 E35.82069
G1 X210.746 Y179.376 E35.84573
G1 X211.096 Y180.228 E35.88862
G1 X211.417 Y181.285 E35.94006
G1 X211.538 Y181.774 E35.96351
G1 X211.613 Y182.102 E35.97918
G1 X211.726 Y182.63 E36.00432
G1 X211.88 Y183.537 E36.04716
G1 X211.959 Y184.661 E36.09963
G1 X211.968 Y185.172 E36.12343
G1 X211.969 Y185.516 E36.13944
G1 X211.961 Y186.056 E36.16459
G1 X211.907 Y186.975 E36.20746
G1 X211.744 Y188.038 E36.25753
G1 X211.642 Y188.533 E36.28107
G1 X211.561 Y188.894 E36.2983
G1 X211.436 Y189.409 E36.32297
G1 X211.18 Y190.294 E36.36587
G1 X210.787 Y191.291 E36.41577
G1 X210.575 Y191.758 E36.43965
G1 X210.408 Y192.109 E36.45775
G1 X210.162 Y192.602 E36.48341
G1 X209.715 Y193.407 E36.52628
G1 X209.073 Y194.34 E36.57902
G1 X208.569 Y194.986 E36.61717
G1 X208.219 Y195.413 E36.64288
G1 X207.648 Y196.054 E36.68285
G1 X207.1 Y196.619 E36.7195
G1 X196.565 Y207.153 E37.41322
G1 X196.089 Y207.615 E37.44411
G1 X195.472 Y208.169 E37.48272
G1 X195.074 Y208.499 E37.50679
G1 X194.802 Y208.717 E37.52302
G1 X194.375 Y209.048 E37.54818
G1 X193.624 Y209.58 E37.59104
G1 X192.637 Y210.143 E37.64395
G1 X192.161 Y210.382 E37.66875
G1 X191.846 Y210.534 E37.68503
G1 X191.367 Y210.755 E37.7096
G1 X190.515 Y211.104 E37.75247
G1 X189.45 Y211.425 E37.80426
G1 X188.679 Y211.609 E37.84117
G1 X188.137 Y211.725 E37.86698
G1 X187.23 Y211.879 E37.90982
G1 X186.129 Y211.958 E37.96122
G1 X185.625 Y211.968 E37.98469
G1 X185.261 Y211.969 E38.00164
G1 X184.712 Y211.961 E38.02721
G1 X183.792 Y211.907 E38.07012
G1 X182.706 Y211.74 E38.12128
G1 X182.216 Y211.638 E38.14459
G1 X181.898 Y211.566 E38.15977
G1 X181.374 Y211.44 E38.18487
G1 X180.489 Y211.186 E38.22774
G1 X179.452 Y210.778 E38.27963
G1 X178.972 Y210.559 E38.3042
G1 X178.632 Y210.396 E38.32175
G1 X178.154 Y210.157 E38.34664
G1 X177.349 Y209.71 E38.38951
G1 X176.433 Y209.079 E38.44131
G1 X176.035 Y208.773 E38.46469
G1 X175.773 Y208.565 E38.48026
G1 X175.35 Y208.218 E38.50574
G1 X174.693 Y207.632 E38.54673
G1 X174.112 Y207.066 E38.5845
G1 X137.445 Y170.398 E40.99912
G1 X136.986 Y169.926 E41.02978
G1 X136.413 Y169.287 E41.06974
G1 X135.886 Y168.642 E41.10852
G1 X135.554 Y168.214 E41.13375
G1 X135.022 Y167.463 E41.1766
G1 X134.443 Y166.445 E41.23114
G1 X132.93 Y163.41 E41.38904
G1 X131.755 Y161.207 E41.5053
G1 X130.493 Y158.994 E41.62393
G1 X129.17 Y156.822 E41.74235
G1 X127.794 Y154.696 E41.86027
G1 X126.375 Y152.639 E41.97663
G1 X124.878 Y150.59 E42.0948
G1 X123.331 Y148.596 E42.21231
G1 X121.707 Y146.621 E42.33137
G1 X120.065 Y144.737 E42.44774
G1 X118.336 Y142.86 E42.56657
G1 X116.627 Y141.105 E42.68064
G1 X93.914 Y118.392 E44.17633
G1 X92.019 Y116.548 E44.29945
G1 X90.164 Y114.843 E44.41677
G1 X88.254 Y113.187 E44.53448
G1 X86.297 Y111.584 E44.65228
G1 X84.278 Y110.022 E44.77114
G1 X82.26 Y108.552 E44.88739
G1 X80.161 Y107.11 E45.00597
G1 X78.042 Y105.742 E45.12342
G1 X75.905 Y104.447 E45.23977
G1 X73.678 Y103.182 E45.35903
G1 X71.423 Y101.983 E45.47795
G1 X68.572 Y100.566 E45.6262
G1 X67.766 Y100.121 E45.66907
G1 X66.798 Y99.453 E45.72384
G1 X66.164 Y98.957 E45.76132
G1 X65.747 Y98.615 E45.78643
G1 X65.102 Y98.041 E45.82664
G1 X64.525 Y97.481 E45.86408
G1 X27.839 Y60.795 E48.27991
G1 X27.372 Y60.313 E48.31116
G1 X26.796 Y59.668 E48.35143
G1 X26.259 Y59.008 E48.39105
G1 X25.951 Y58.611 E48.41445
G1 X25.419 Y57.859 E48.45734
G1 X24.845 Y56.853 E48.51127
G1 X24.49 Y56.132 E48.54869
G1 X24.251 Y55.616 E48.57517
G1 X23.9 Y54.765 E48.61804
G1 X23.571 Y53.671 E48.67123
G1 X23.382 Y52.875 E48.70933
G1 X23.269 Y52.341 E48.73475
G1 X23.117 Y51.433 E48.77761
G1 X23.041 Y50.336 E48.82882
G1 X23.032 Y49.83 E48.85238
G1 X23.031 Y49.484 E48.86849
G1 X23.039 Y48.945 E48.89359
G1 X23.093 Y48.026 E48.93646
G1 X23.255 Y46.967 E48.98635
G1 X23.357 Y46.471 E49.00992
G1 X23.439 Y46.106 E49.02734
G1 X23.564 Y45.591 E49.05202
G1 X23.82 Y44.706 E49.09492
G1 X24.217 Y43.702 E49.14519
G1 X24.429 Y43.236 E49.16903
G1 X24.592 Y42.892 E49.18676
G1 X24.84 Y42.395 E49.21262
G1 X25.287 Y41.59 E49.2555
G1 X25.932 Y40.653 E49.30846
G1 X26.246 Y40.246 E49.3324
G1 X26.447 Y39.994 E49.34741
G1 X26.787 Y39.58 E49.37236
G1 X27.358 Y38.939 E49.41233
G1 X27.92 Y38.361 E49.44987
G1 X38.442 Y27.84 E50.14273
G1 X38.925 Y27.372 E50.17404
G1 X39.538 Y26.823 E50.21236
G1 X39.929 Y26.499 E50.23601
G1 X40.198 Y26.283 E50.25207
G1 X40.625 Y25.952 E50.27723
G1 X41.376 Y25.42 E50.32008
G1 X42.363 Y24.857 E50.37299
G1 X42.839 Y24.618 E50.39779
G1 X43.154 Y24.466 E50.41408
G1 X43.633 Y24.245 E50.43864
G1 X44.485 Y23.896 E50.48152
G1 X45.55 Y23.575 E50.53331
G1 X46.321 Y23.391 E50.57022
G1 X46.863 Y23.275 E50.59603
G1 X47.77 Y23.121 E50.63887
G1 X48.871 Y23.042 E50.69027
G1 X49.375 Y23.032 E50.71374
G1 X49.739 Y23.031 E50.73069
G1 X50.289 Y23.039 E50.7563
G1 X51.208 Y23.092 E50.79916
G0 F6000 X51.231 Y22.693
G1 F1200 X52.381 Y22.87 E50.85334
G1 X53.21 Y23.048 E50.89283
G1 X53.735 Y23.175 E50.91798
G1 X54.637 Y23.435 E50.96169
G1 X55.698 Y23.852 E51.01477
G1 X56.178 Y24.07 E51.03932
G1 X56.557 Y24.25 E51.05886
G1 X57.032 Y24.488 E51.08359
G1 X57.851 Y24.944 E51.12724
G1 X58.801 Y25.597 E51.18092
G1 X59.201 Y25.904 E51.2044
G1 X59.477 Y26.123 E51.22081
G1 X59.893 Y26.464 E51.24585
G1 X60.572 Y27.069 E51.2882
G1 X61.171 Y27.651 E51.32709
G1 X97.822 Y64.303 E53.74065
G1 X98.302 Y64.797 E53.77273
G1 X98.883 Y65.444 E53.81322
G1 X99.207 Y65.835 E53.83686
G1 X99.429 Y66.112 E53.85339
G1 X99.761 Y66.54 E53.87862
G1 X100.303 Y67.305 E53.92227
G1 X100.916 Y68.379 E53.97985
G1 X102.392 Y71.343 E54.13404
G1 X103.575 Y73.565 E54.25125
G1 X104.83 Y75.765 E54.36919
G1 X106.122 Y77.891 E54.48503
G1 X107.507 Y80.033 E54.60381
G1 X108.925 Y82.093 E54.72026
G1 X110.402 Y84.116 E54.83689
G1 X111.96 Y86.128 E54.95538
G1 X113.55 Y88.064 E55.07204
G1 X115.198 Y89.958 E55.18894
G1 X116.911 Y91.82 E55.30675
G1 X118.664 Y93.621 E55.42378
G1 X141.369 Y116.325 E56.91891
G1 X143.27 Y118.174 E57.0424
G1 X145.092 Y119.848 E57.15761
G1 X147.038 Y121.537 E57.27759
G1 X148.931 Y123.087 E57.39152
G1 X150.963 Y124.658 E57.51112
G1 X152.997 Y126.14 E57.6283
G1 X155.062 Y127.557 E57.74492
G1 X157.17 Y128.918 E57.86176
G1 X159.332 Y130.229 E57.97949
G1 X161.492 Y131.456 E58.09516
G1 X163.739 Y132.65 E58.21365
G1 X166.606 Y134.075 E58.36273
G1 X167.427 Y134.528 E58.40639
G1 X168.447 Y135.23 E58.46405
G1 X169.087 Y135.732 E58.50192
G1 X169.503 Y136.073 E58.52697
G1 X170.175 Y136.671 E58.56886
G1 X170.757 Y137.236 E58.60663
G1 X207.447 Y173.927 E61.02276
G1 X207.915 Y174.41 E61.05408
G1 X208.497 Y175.061 E61.09474
G1 X209.035 Y175.72 E61.13435
G1 X209.363 Y176.143 E61.15927
G1 X209.905 Y176.908 E61.20293
G1 X210.496 Y177.939 E61.25827
G1 X210.727 Y178.398 E61.28219
G1 X210.883 Y178.72 E61.29885
G1 X211.109 Y179.208 E61.3239
G1 X211.466 Y180.075 E61.36755
G1 X211.805 Y181.189 E61.42178
G1 X211.926 Y181.678 E61.44523
