;FLAVOR:Marlin
;TIME:6387
;Filament used: 6.56177m
;Layer height: 0.28
;MINX:10.298
;MINY:86.297
;MINZ:0.28
;MAXX:209.702
;MAXY:133.702
;MAXZ:5.88
;Generated with Cura_SteamEngine 4.8.0
M140 S60
M105
M190 S60
M104 S205
M105
M109 S205
M82 ;absolute extrusion mode
; Ender 3 Custom Start G-code
G92 E0 ; Reset Extruder
G28 ; Home all axes
G1 Z2.0 F3000 ; Move Z Axis up little to prevent scratching of Heat Bed
G1 X0.1 Y20 Z0.3 F5000.0 ; Move to start position
G1 X0.1 Y200.0 Z0.3 F1500.0 E15 ; Draw the first line
G1 X0.4 Y200.0 Z0.3 F5000.0 ; Move to side a little
G1 X0.4 Y20 Z0.3 F1500.0 E30 ; Draw the second line
G92 E0 ; Reset Extruder
G1 Z2.0 F3000 ; Move Z Axis up little to prevent scratching of Heat Bed
G1 X5 Y20 Z0.3 F5000.0 ; Move over to prevent blob squish
G92 E0
G92 E0
G1 F2400 E-6.5
;LAYER_COUNT:21
;LAYER:0
M107
G0 F6000 X22.394 Y86.727 Z0.28
;TYPE:SKIRT
G1 F2400 E0
G1 F1200 X23.254 Y86.557 E0.04082
G1 X23.706 Y86.492 E0.06208
G1 X24.037 Y86.451 E0.07761
G1 X24.324 Y86.42 E0.09106
G1 X24.941 Y86.36 E0.11992
G1 X25.849 Y86.309 E0.16227
G1 X26.707 Y86.298 E0.20222
G1 X78.46 Y86.298 E2.61206
G1 X79.156 Y86.308 E2.64447
G1 X79.748 Y86.332 E2.67206
G1 X80.15 Y86.365 E2.69084
G1 X80.613 Y86.411 E2.71251
G1 X80.927 Y86.447 E2.72722
G1 X81.456 Y86.515 E2.75206
G1 X82.381 Y86.674 E2.79576
G1 X83.27 Y86.906 E2.83855
G1 X83.906 Y87.101 E2.86952
G1 X86.441 Y87.835 E2.99241
G1 X88.865 Y88.463 E3.10901
G1 X91.323 Y89.028 E3.22645
G1 X93.817 Y89.527 E3.34488
G1 X96.271 Y89.943 E3.46078
G1 X98.751 Y90.295 E3.57742
G1 X101.276 Y90.58 E3.69574
G1 X103.776 Y90.791 E3.81256
G1 X106.279 Y90.93 E3.92929
G1 X108.811 Y91 E4.04724
G1 X111.335 Y90.998 E4.16476
G1 X113.822 Y90.926 E4.28062
G1 X116.341 Y90.781 E4.39811
G1 X118.886 Y90.563 E4.51705
G1 X121.338 Y90.282 E4.63197
G1 X123.857 Y89.921 E4.75046
G1 X126.333 Y89.496 E4.86744
G1 X128.768 Y89.006 E4.9831
G1 X131.273 Y88.427 E5.10282
G1 X133.711 Y87.79 E5.22015
G1 X135.626 Y87.239 E5.31294
G1 X136.803 Y86.887 E5.37014
G1 X137.712 Y86.656 E5.41382
G1 X138.251 Y86.558 E5.43933
G1 X138.706 Y86.492 E5.46074
G1 X139.037 Y86.451 E5.47627
G1 X139.324 Y86.42 E5.48971
G1 X139.941 Y86.36 E5.51857
G1 X140.849 Y86.309 E5.56092
G1 X141.707 Y86.298 E5.60088
G1 X193.302 Y86.297 E8.00335
G1 X194.157 Y86.308 E8.04317
G1 X194.769 Y86.334 E8.07169
G1 X195.144 Y86.364 E8.08921
G1 X195.609 Y86.41 E8.11097
G1 X195.934 Y86.447 E8.1262
G1 X196.461 Y86.515 E8.15094
G1 X197.385 Y86.675 E8.19461
G1 X198.538 Y86.992 E8.25029
G1 X199.041 Y87.16 E8.27498
G1 X199.372 Y87.276 E8.29131
G1 X199.864 Y87.458 E8.31574
G1 X200.729 Y87.821 E8.35942
G1 X201.77 Y88.381 E8.41446
G1 X202.187 Y88.635 E8.4372
G1 X202.452 Y88.801 E8.45176
G1 X202.919 Y89.104 E8.47768
G1 X203.684 Y89.648 E8.52139
G1 X204.304 Y90.168 E8.55907
G1 X204.637 Y90.479 E8.58029
G1 X204.948 Y90.782 E8.60051
G1 X205.147 Y90.981 E8.61361
G1 X205.541 Y91.385 E8.63989
G1 X206.167 Y92.084 E8.68358
G1 X206.885 Y93.065 E8.74019
G1 X207.159 Y93.486 E8.76358
G1 X207.333 Y93.762 E8.77877
G1 X207.62 Y94.233 E8.80445
G1 X208.074 Y95.054 E8.84814
G1 X208.44 Y95.872 E8.88987
G1 X208.605 Y96.295 E8.91101
G1 X208.701 Y96.556 E8.92396
G1 X208.821 Y96.901 E8.94097
G1 X209.019 Y97.5 E8.97034
G1 X209.275 Y98.402 E9.014
G1 X209.452 Y99.31 E9.05708
G1 X209.508 Y99.706 E9.0757
G1 X209.549 Y100.037 E9.09123
G1 X209.578 Y100.305 E9.10378
G1 X209.638 Y100.911 E9.13214
G1 X209.691 Y101.841 E9.17551
G1 X209.702 Y102.707 E9.21584
G1 X209.702 Y117.466 E9.90308
G1 X209.691 Y118.196 E9.93708
G1 X209.638 Y119.114 E9.9799
G1 X209.589 Y119.609 E10.00306
G1 X209.553 Y119.93 E10.0181
G1 X209.485 Y120.458 E10.04289
G1 X209.326 Y121.382 E10.08655
G1 X209.008 Y122.538 E10.14237
G1 X208.84 Y123.041 E10.16707
G1 X208.727 Y123.363 E10.18296
G1 X208.547 Y123.851 E10.20718
G1 X208.186 Y124.716 E10.25082
G1 X207.624 Y125.762 E10.30611
G1 X207.366 Y126.186 E10.32922
G1 X207.197 Y126.454 E10.34398
G1 X206.896 Y126.918 E10.36973
G1 X206.353 Y127.683 E10.41341
G1 X205.576 Y128.578 E10.4686
G1 X205.255 Y128.91 E10.49011
G1 X205.002 Y129.164 E10.5068
G1 X204.583 Y129.57 E10.53397
G1 X203.882 Y130.193 E10.57764
G1 X203.28 Y130.651 E10.61286
G1 X202.868 Y130.931 E10.63605
G1 X202.496 Y131.172 E10.65669
G1 X202.227 Y131.341 E10.67149
G1 X201.753 Y131.629 E10.69731
G1 X200.931 Y132.081 E10.74099
G1 X200.113 Y132.447 E10.78272
G1 X199.98 Y132.5 E10.78939
G1 X199.692 Y132.609 E10.80373
G1 X199.43 Y132.705 E10.81672
G1 X199.103 Y132.82 E10.83286
G1 X198.508 Y133.017 E10.86204
G1 X197.606 Y133.273 E10.9057
G1 X196.746 Y133.443 E10.94652
G1 X196.294 Y133.508 E10.96779
G1 X195.963 Y133.549 E10.98332
G1 X195.676 Y133.58 E10.99676
G1 X195.059 Y133.64 E11.02563
G1 X194.151 Y133.691 E11.06797
G1 X193.293 Y133.702 E11.10793
G1 X141.54 Y133.702 E13.51776
G1 X140.844 Y133.692 E13.55018
G1 X140.252 Y133.668 E13.57777
G1 X139.85 Y133.635 E13.59655
G1 X139.387 Y133.589 E13.61821
G1 X139.073 Y133.553 E13.63293
G1 X138.544 Y133.485 E13.65776
G1 X137.619 Y133.326 E13.70147
G1 X136.73 Y133.094 E13.74425
G1 X136.094 Y132.899 E13.77523
G1 X133.559 Y132.165 E13.89811
G1 X131.135 Y131.537 E14.01471
G1 X128.677 Y130.972 E14.13215
G1 X126.183 Y130.473 E14.25058
G1 X123.729 Y130.057 E14.36648
G1 X121.249 Y129.705 E14.48312
G1 X118.724 Y129.42 E14.60144
G1 X116.224 Y129.209 E14.71827
G1 X113.721 Y129.07 E14.835
G1 X111.189 Y129 E14.95294
G1 X108.665 Y129.002 E15.07047
G1 X106.178 Y129.074 E15.18632
G1 X103.659 Y129.219 E15.30381
G1 X101.114 Y129.437 E15.42275
G1 X98.662 Y129.718 E15.53767
G1 X96.143 Y130.079 E15.65617
G1 X93.667 Y130.504 E15.77315
G1 X91.232 Y130.994 E15.8888
G1 X88.727 Y131.573 E16.00852
G1 X86.289 Y132.21 E16.12586
G1 X84.374 Y132.761 E16.21865
G1 X83.197 Y133.113 E16.27585
G1 X82.288 Y133.344 E16.31952
G1 X81.749 Y133.442 E16.34503
G1 X81.294 Y133.508 E16.36644
G1 X80.963 Y133.549 E16.38197
G1 X80.676 Y133.58 E16.39541
G1 X80.059 Y133.64 E16.42428
G1 X79.151 Y133.691 E16.46662
G1 X78.293 Y133.702 E16.50658
G1 X26.54 Y133.702 E18.91642
G1 X25.844 Y133.692 E18.94883
G1 X25.252 Y133.668 E18.97642
G1 X24.85 Y133.635 E18.9952
G1 X24.387 Y133.589 E19.01686
G1 X24.07 Y133.553 E19.03172
G1 X23.542 Y133.485 E19.05651
G1 X22.618 Y133.326 E19.10017
G1 X21.462 Y133.008 E19.15599
G1 X20.959 Y132.84 E19.18069
G1 X20.628 Y132.724 E19.19702
G1 X20.136 Y132.542 E19.22145
G1 X19.271 Y132.179 E19.26513
G1 X18.224 Y131.616 E19.32048
G1 X17.801 Y131.358 E19.34355
G1 X17.543 Y131.196 E19.35774
G1 X17.082 Y130.897 E19.38332
G1 X16.318 Y130.353 E19.427
G1 X15.679 Y129.817 E19.46583
G1 X15.36 Y129.518 E19.48619
G1 X15.042 Y129.208 E19.50687
G1 X14.833 Y128.999 E19.52063
G1 X14.447 Y128.602 E19.54642
G1 X13.823 Y127.902 E19.59008
G1 X13.297 Y127.205 E19.63074
G1 X13.075 Y126.877 E19.64918
G1 X12.834 Y126.506 E19.66979
G1 X12.666 Y126.238 E19.68451
G1 X12.379 Y125.767 E19.7102
G1 X11.925 Y124.946 E19.75388
G1 X11.526 Y124.046 E19.79972
G1 X11.383 Y123.671 E19.81841
G1 X11.293 Y123.425 E19.83061
G1 X11.174 Y123.083 E19.84747
G1 X10.976 Y122.481 E19.87698
G1 X10.721 Y121.578 E19.92067
G1 X10.555 Y120.732 E19.96081
G1 X10.493 Y120.297 E19.98127
G1 X10.452 Y119.967 E19.99676
G1 X10.42 Y119.676 E20.01039
G1 X10.36 Y119.059 E20.03926
G1 X10.309 Y118.151 E20.0816
G1 X10.298 Y117.293 E20.12156
G1 X10.298 Y102.532 E20.80889
G1 X10.309 Y101.811 E20.84247
G1 X10.36 Y100.915 E20.88426
G1 X10.409 Y100.411 E20.90784
G1 X10.449 Y100.053 E20.92461
G1 X10.519 Y99.516 E20.94983
G1 X10.68 Y98.592 E20.9935
G1 X11 Y97.434 E21.04944
G1 X11.166 Y96.94 E21.07371
G1 X11.276 Y96.628 E21.08911
G1 X11.458 Y96.136 E21.11354
G1 X11.821 Y95.271 E21.15722
G1 X12.384 Y94.224 E21.21258
G1 X12.642 Y93.801 E21.23565
G1 X12.793 Y93.56 E21.24889
G1 X13.085 Y93.108 E21.27395
G1 X13.627 Y92.343 E21.3176
G1 X14.202 Y91.66 E21.35918
G1 X14.472 Y91.371 E21.37759
G1 X14.766 Y91.068 E21.39725
G1 X15.009 Y90.826 E21.41322
G1 X15.419 Y90.429 E21.4398
G1 X16.12 Y89.805 E21.4835
G1 X16.677 Y89.38 E21.51612
G1 X17.132 Y89.069 E21.54178
G1 X17.504 Y88.828 E21.56242
G1 X17.776 Y88.657 E21.57738
G1 X18.252 Y88.368 E21.60331
G1 X19.074 Y87.916 E21.64699
G1 X19.914 Y87.543 E21.68979
G1 X20.318 Y87.387 E21.70996
G1 X20.572 Y87.294 E21.72255
G1 X20.897 Y87.18 E21.73859
G1 X21.492 Y86.983 E21.76777
G1 X22.394 Y86.727 E21.81143
G0 F6000 X22.503 Y87.112
G1 F1200 X23.316 Y86.953 E21.85001
G1 X23.755 Y86.889 E21.87066
G1 X24.086 Y86.848 E21.8862
G1 X24.363 Y86.818 E21.89917
G1 X24.98 Y86.758 E21.92803
G1 X25.855 Y86.709 E21.96884
G1 X26.707 Y86.698 E22.00852
G1 X78.454 Y86.698 E24.41808
G1 X79.15 Y86.708 E24.45049
G1 X79.723 Y86.732 E24.47719
G1 X80.11 Y86.763 E24.49527
G1 X80.573 Y86.809 E24.51694
G1 X80.876 Y86.844 E24.53114
G1 X81.405 Y86.912 E24.55597
G1 X82.313 Y87.068 E24.59887
G1 X83.153 Y87.288 E24.63931
G1 X83.868 Y87.507 E24.67413
G1 X86.302 Y88.212 E24.79212
G1 X88.781 Y88.854 E24.91136
G1 X91.228 Y89.416 E25.02827
G1 X93.743 Y89.92 E25.14771
G1 X96.22 Y90.34 E25.26469
G1 X98.721 Y90.695 E25.38232
G1 X101.234 Y90.978 E25.50007
G1 X103.72 Y91.188 E25.61625
G1 X106.28 Y91.33 E25.73563
G1 X108.8 Y91.4 E25.85302
G1 X111.312 Y91.398 E25.96999
G1 X113.857 Y91.324 E26.08855
G1 X116.397 Y91.179 E26.20701
G1 X118.895 Y90.964 E26.32376
G1 X121.404 Y90.677 E26.44135
G1 X123.915 Y90.317 E26.55947
G1 X126.408 Y89.888 E26.67726
G1 X128.865 Y89.394 E26.79396
G1 X131.358 Y88.818 E26.9131
G1 X133.8 Y88.18 E27.03063
G1 X135.779 Y87.611 E27.12651
G1 X136.918 Y87.27 E27.18187
G1 X137.81 Y87.044 E27.22472
G1 X138.313 Y86.953 E27.24852
G1 X138.755 Y86.889 E27.26932
G1 X139.086 Y86.848 E27.28485
G1 X139.363 Y86.818 E27.29782
G1 X139.98 Y86.758 E27.32669
G1 X140.855 Y86.709 E27.36749
G1 X141.707 Y86.698 E27.40717
G1 X193.302 Y86.697 E29.80965
G1 X194.151 Y86.708 E29.84919
G1 X194.743 Y86.733 E29.87678
G1 X195.105 Y86.762 E29.89369
G1 X195.57 Y86.808 E29.91545
G1 X195.882 Y86.844 E29.93007
G1 X196.409 Y86.912 E29.95481
G1 X197.317 Y87.07 E29.99773
G1 X198.411 Y87.371 E30.05056
G1 X198.914 Y87.539 E30.07526
G1 X199.234 Y87.651 E30.09104
G1 X199.726 Y87.833 E30.11547
G1 X200.574 Y88.19 E30.15831
G1 X201.562 Y88.722 E30.21056
G1 X201.979 Y88.976 E30.2333
G1 X202.235 Y89.137 E30.24738
G1 X202.702 Y89.44 E30.2733
G1 X203.451 Y89.974 E30.31614
G1 X204.037 Y90.466 E30.35176
G1 X204.358 Y90.766 E30.37222
G1 X204.669 Y91.069 E30.39244
G1 X204.861 Y91.26 E30.40505
G1 X205.255 Y91.664 E30.43133
G1 X205.868 Y92.351 E30.4742
G1 X206.55 Y93.283 E30.52798
G1 X206.824 Y93.704 E30.55137
G1 X206.992 Y93.97 E30.56602
G1 X207.279 Y94.441 E30.5917
G1 X207.723 Y95.248 E30.63459
G1 X208.069 Y96.02 E30.67398
G1 X208.123 Y96.155 E30.68075
G1 X208.229 Y96.433 E30.69461
G1 X208.325 Y96.694 E30.70756
G1 X208.441 Y97.026 E30.72393
G1 X208.639 Y97.625 E30.75331
G1 X208.89 Y98.511 E30.79619
G1 X209.056 Y99.37 E30.83693
G1 X209.111 Y99.755 E30.85503
G1 X209.152 Y100.086 E30.87057
G1 X209.18 Y100.345 E30.8827
G1 X209.24 Y100.951 E30.91105
G1 X209.291 Y101.846 E30.95279
G1 X209.302 Y102.707 E30.99289
G1 X209.302 Y117.46 E31.67985
G1 X209.291 Y118.19 E31.71385
G1 X209.24 Y119.074 E31.75508
G1 X209.191 Y119.569 E31.77824
G1 X209.156 Y119.879 E31.79277
G1 X209.088 Y120.407 E31.81755
G1 X208.931 Y121.314 E31.86042
G1 X208.629 Y122.411 E31.9134
G1 X208.461 Y122.914 E31.93809
G1 X208.352 Y123.224 E31.95339
G1 X208.172 Y123.712 E31.97761
G1 X207.816 Y124.561 E32.02048
G1 X207.282 Y125.554 E32.07298
G1 X207.024 Y125.978 E32.09609
G1 X206.862 Y126.237 E32.11032
G1 X206.561 Y126.701 E32.13607
G1 X206.027 Y127.451 E32.17894
G1 X205.289 Y128.3 E32.23132
G1 X204.968 Y128.632 E32.25283
G1 X204.723 Y128.876 E32.26893
G1 X204.304 Y129.282 E32.29609
G1 X203.616 Y129.894 E32.33897
G1 X203.049 Y130.324 E32.37211
G1 X202.65 Y130.595 E32.39457
G1 X202.278 Y130.836 E32.4152
G1 X202.019 Y130.999 E32.42945
G1 X201.545 Y131.287 E32.45528
G1 X200.738 Y131.73 E32.49815
G1 X199.965 Y132.075 E32.53756
G1 X199.555 Y132.234 E32.55804
G1 X199.293 Y132.33 E32.57103
G1 X198.978 Y132.44 E32.58657
G1 X198.383 Y132.637 E32.61575
G1 X197.497 Y132.888 E32.65863
G1 X196.684 Y133.047 E32.69721
G1 X196.245 Y133.111 E32.71787
G1 X195.914 Y133.152 E32.7334
G1 X195.637 Y133.182 E32.74637
G1 X195.02 Y133.242 E32.77524
G1 X194.145 Y133.291 E32.81604
G1 X193.293 Y133.302 E32.85572
G1 X141.546 Y133.302 E35.26528
G1 X140.85 Y133.292 E35.29769
G1 X140.277 Y133.268 E35.32439
G1 X139.89 Y133.237 E35.34247
G1 X139.427 Y133.191 E35.36414
G1 X139.124 Y133.156 E35.37834
G1 X138.595 Y133.088 E35.40317
G1 X137.687 Y132.932 E35.44607
G1 X136.847 Y132.712 E35.48651
G1 X136.132 Y132.493 E35.52133
G1 X133.693 Y131.787 E35.63956
G1 X131.219 Y131.146 E35.75856
G1 X128.772 Y130.584 E35.87547
G1 X126.257 Y130.08 E35.99491
G1 X123.78 Y129.66 E36.11189
G1 X121.279 Y129.305 E36.22952
G1 X118.766 Y129.022 E36.34727
G1 X116.28 Y128.812 E36.46345
G1 X113.72 Y128.67 E36.58283
G1 X111.2 Y128.6 E36.70022
G1 X108.688 Y128.602 E36.81719
G1 X106.143 Y128.676 E36.93575
G1 X103.603 Y128.821 E37.05421
G1 X101.105 Y129.036 E37.17096
G1 X98.596 Y129.323 E37.28855
G1 X96.085 Y129.683 E37.40667
G1 X93.592 Y130.112 E37.52446
G1 X91.135 Y130.606 E37.64116
G1 X88.642 Y131.182 E37.7603
G1 X86.204 Y131.819 E37.87763
G1 X84.221 Y132.389 E37.97371
G1 X83.082 Y132.73 E38.02907
G1 X82.19 Y132.956 E38.07192
G1 X81.687 Y133.047 E38.09572
G1 X81.245 Y133.111 E38.11652
G1 X80.914 Y133.152 E38.13205
G1 X80.637 Y133.182 E38.14502
G1 X80.02 Y133.242 E38.17389
G1 X79.145 Y133.291 E38.21469
G1 X78.293 Y133.302 E38.25437
G1 X26.546 Y133.302 E40.66393
G1 X25.85 Y133.292 E40.69634
G1 X25.277 Y133.268 E40.72304
G1 X24.89 Y133.237 E40.74112
G1 X24.427 Y133.191 E40.76279
G1 X24.121 Y133.156 E40.77713
G1 X23.593 Y133.088 E40.80192
G1 X22.686 Y132.931 E40.84478
G1 X21.589 Y132.629 E40.89776
G1 X21.086 Y132.461 E40.92246
G1 X20.766 Y132.349 E40.93824
G1 X20.274 Y132.167 E40.96267
G1 X19.426 Y131.81 E41.00551
G1 X18.432 Y131.275 E41.05807
G1 X18.009 Y131.017 E41.08115
G1 X17.761 Y130.86 E41.09481
G1 X17.3 Y130.561 E41.1204
G1 X16.55 Y130.027 E41.16327
G1 X15.947 Y129.52 E41.19995
G1 X15.639 Y129.231 E41.21962
G1 X15.321 Y128.921 E41.2403
G1 X15.12 Y128.72 E41.25354
G1 X14.734 Y128.323 E41.27932
G1 X14.122 Y127.636 E41.32216
G1 X13.625 Y126.977 E41.3606
G1 X13.411 Y126.659 E41.37844
G1 X13.17 Y126.288 E41.39904
G1 X13.007 Y126.03 E41.41325
G1 X12.72 Y125.559 E41.43894
G1 X12.276 Y124.752 E41.48183
G1 X11.899 Y123.901 E41.52517
G1 X11.758 Y123.534 E41.54347
G1 X11.668 Y123.288 E41.55567
G1 X11.554 Y122.958 E41.57193
G1 X11.356 Y122.356 E41.60144
G1 X11.106 Y121.47 E41.6443
G1 X10.951 Y120.671 E41.6822
G1 X10.89 Y120.248 E41.7021
G1 X10.849 Y119.918 E41.71759
G1 X10.818 Y119.637 E41.73075
G1 X10.758 Y119.02 E41.75962
G1 X10.709 Y118.145 E41.80042
G1 X10.698 Y117.293 E41.8401
G1 X10.698 Y102.538 E42.52715
G1 X10.709 Y101.817 E42.56073
G1 X10.758 Y100.953 E42.60103
G1 X10.807 Y100.449 E42.62461
G1 X10.846 Y100.105 E42.64073
G1 X10.916 Y99.568 E42.66594
G1 X11.074 Y98.661 E42.70881
G1 X11.379 Y97.562 E42.76192
G1 X11.545 Y97.068 E42.78619
G1 X11.651 Y96.766 E42.80109
G1 X11.833 Y96.274 E42.82552
G1 X12.19 Y95.426 E42.86836
G1 X12.725 Y94.432 E42.92092
G1 X12.983 Y94.009 E42.944
G1 X13.129 Y93.777 E42.95676
G1 X13.421 Y93.325 E42.98182
G1 X13.954 Y92.574 E43.0247
G1 X14.497 Y91.93 E43.06392
G1 X14.76 Y91.65 E43.08181
G1 X15.054 Y91.347 E43.10147
G1 X15.287 Y91.113 E43.11685
G1 X15.697 Y90.716 E43.14342
G1 X16.386 Y90.105 E43.1863
G1 X16.91 Y89.705 E43.217
G1 X17.35 Y89.405 E43.24179
G1 X17.722 Y89.164 E43.26243
G1 X17.984 Y88.999 E43.27685
G1 X18.46 Y88.71 E43.30278
G1 X19.267 Y88.267 E43.34565
G1 X20.061 Y87.915 E43.38609
G1 X20.456 Y87.762 E43.40582
G1 X20.71 Y87.669 E43.41841
G1 X21.022 Y87.56 E43.4338
G1 X21.617 Y87.363 E43.46298
G1 X22.503 Y87.112 E43.50586
G0 F6000 X22.612 Y87.497
G1 F1200 X23.377 Y87.348 E43.54215
G1 X23.804 Y87.286 E43.56225
G1 X24.135 Y87.245 E43.57778
G1 X24.402 Y87.216 E43.59028
G1 X25.019 Y87.156 E43.61915
G1 X25.861 Y87.109 E43.65842
G1 X26.707 Y87.098 E43.69781
G1 X78.449 Y87.098 E46.10714
G1 X79.145 Y87.108 E46.13955
G1 X79.698 Y87.131 E46.16532
G1 X80.07 Y87.161 E46.1827
G1 X80.533 Y87.207 E46.20436
