;FLAVOR:Marlin
;TIME:9683
;Filament used: 6.19808m
;Layer height: 0.2
;MINX:17.912
;MINY:93.912
;MINZ:0.2
;MAXX:217.088
;MAXY:141.088
;MAXZ:6
;Generated with Cura_SteamEngine 4.6.1
M140 S50
M105
M190 S50
M104 S205
M105
M109 S205
M82 ;absolute extrusion mode
; Ender 3 Custom Start G-code
G92 E0 ; Reset Extruder
G28 ; Home all axes
G1 Z2.0 F3000 ; Move Z Axis up little to prevent scratching of Heat Bed
G1 X0.1 Y20 Z0.3 F5000.0 ; Move to start position
G1 X0.1 Y200.0 Z0.3 F1500.0 E15 ; Draw the first line
G1 X0.4 Y200.0 Z0.3 F5000.0 ; Move to side a little
G1 X0.4 Y20 Z0.3 F1500.0 E30 ; Draw the second line
G92 E0 ; Reset Extruder
G1 Z2.0 F3000 ; Move Z Axis up little to prevent scratching of Heat Bed
G1 X5 Y20 Z0.3 F5000.0 ; Move over to prevent blob squish
G92 E0
G92 E0
G1 F2700 E-5
;LAYER_COUNT:30
;LAYER:0
M107
G0 F6000 X201.645 Y94.722 Z0.2
;TYPE:SKIRT
G1 F2700 E0
G1 F1200 X202.482 Y94.768 E0.02788
G1 X203.301 Y94.852 E0.05526
G1 X203.801 Y94.915 E0.07203
G1 X204.691 Y95.067 E0.10206
G1 X205.758 Y95.361 E0.13887
G1 X206.508 Y95.616 E0.16521
G1 X207.011 Y95.801 E0.18304
G1 X207.844 Y96.15 E0.21308
G1 X208.772 Y96.648 E0.24811
G1 X209.18 Y96.895 E0.26397
G1 X209.452 Y97.066 E0.27466
G1 X209.911 Y97.364 E0.29286
G1 X210.646 Y97.889 E0.3229
G1 X211.416 Y98.556 E0.35678
G1 X211.755 Y98.881 E0.3724
G1 X212.019 Y99.144 E0.3848
G1 X212.401 Y99.538 E0.40305
G1 X213 Y100.213 E0.43307
G1 X213.622 Y101.066 E0.46818
G1 X213.892 Y101.48 E0.48462
G1 X214.052 Y101.735 E0.49463
G1 X214.322 Y102.177 E0.51186
G1 X214.759 Y102.968 E0.54191
G1 X215.175 Y103.929 E0.57674
G1 X215.36 Y104.425 E0.59435
G1 X215.482 Y104.771 E0.60655
G1 X215.638 Y105.24 E0.62299
G1 X215.884 Y106.108 E0.653
G1 X216.068 Y107.097 E0.68646
G1 X216.132 Y107.572 E0.7024
G1 X216.174 Y107.937 E0.71462
G1 X216.228 Y108.487 E0.733
G1 X216.276 Y109.315 E0.76059
G1 X216.288 Y110.147 E0.78826
G1 X216.288 Y124.945 E1.28044
G1 X216.278 Y125.648 E1.30383
G1 X216.23 Y126.501 E1.33224
G1 X216.149 Y127.29 E1.35862
G1 X216.086 Y127.793 E1.37548
G1 X215.934 Y128.683 E1.40551
G1 X215.642 Y129.751 E1.44234
G1 X215.488 Y130.213 E1.45854
G1 X215.386 Y130.503 E1.46876
G1 X215.202 Y131.004 E1.48651
G1 X214.853 Y131.838 E1.51658
G1 X214.347 Y132.779 E1.55212
G1 X213.93 Y133.458 E1.57862
G1 X213.633 Y133.915 E1.59675
G1 X213.107 Y134.65 E1.62681
G1 X212.432 Y135.427 E1.66104
G1 X212.107 Y135.765 E1.67664
G1 X211.873 Y136.001 E1.68769
G1 X211.483 Y136.381 E1.7058
G1 X210.809 Y136.982 E1.73584
G1 X209.942 Y137.616 E1.77156
G1 X209.504 Y137.902 E1.78896
G1 X209.229 Y138.075 E1.79977
G1 X208.805 Y138.333 E1.81628
G1 X208.014 Y138.767 E1.84628
G1 X207.07 Y139.175 E1.88049
G1 X206.577 Y139.359 E1.89799
G1 X206.229 Y139.482 E1.91027
G1 X205.763 Y139.637 E1.9266
G1 X204.895 Y139.883 E1.95661
G1 X203.916 Y140.065 E1.98973
G1 X203.437 Y140.13 E2.00581
G1 X203.069 Y140.173 E2.01813
G1 X202.513 Y140.228 E2.03671
G1 X201.664 Y140.277 E2.065
G1 X200.853 Y140.288 E2.09197
G1 X149.052 Y140.288 E3.81488
G1 X148.355 Y140.278 E3.83807
G1 X147.518 Y140.232 E3.86595
G1 X146.699 Y140.148 E3.89333
G1 X146.199 Y140.085 E3.91009
G1 X145.309 Y139.933 E3.94012
G1 X144.497 Y139.721 E3.96803
G1 X143.782 Y139.503 E3.9929
G1 X141.296 Y138.782 E4.07899
G1 X138.815 Y138.138 E4.16424
G1 X136.317 Y137.563 E4.2495
G1 X133.891 Y137.08 E4.33177
G1 X131.33 Y136.643 E4.41818
G1 X128.843 Y136.291 E4.50172
G1 X126.339 Y136.008 E4.58554
G1 X123.777 Y135.791 E4.67105
G1 X121.249 Y135.65 E4.75527
G1 X118.718 Y135.58 E4.83948
G1 X116.185 Y135.582 E4.92373
G1 X113.615 Y135.656 E5.00924
G1 X111.111 Y135.8 E5.09266
G1 X108.562 Y136.018 E5.17775
G1 X106.048 Y136.305 E5.26191
G1 X103.545 Y136.664 E5.34601
G1 X101.019 Y137.098 E5.43126
G1 X98.515 Y137.602 E5.51621
G1 X96.115 Y138.156 E5.59814
G1 X93.572 Y138.819 E5.68554
G1 X91.446 Y139.434 E5.75915
G1 X90.486 Y139.724 E5.79251
G1 X89.611 Y139.947 E5.82254
G1 X88.873 Y140.073 E5.84744
G1 X88.405 Y140.135 E5.86314
G1 X88.069 Y140.173 E5.87439
G1 X87.513 Y140.228 E5.89297
G1 X86.664 Y140.277 E5.92126
G1 X85.853 Y140.288 E5.94824
G1 X34.052 Y140.288 E7.67114
G1 X33.355 Y140.278 E7.69433
G1 X32.518 Y140.232 E7.72221
G1 X31.696 Y140.148 E7.74969
G1 X31.197 Y140.085 E7.76642
G1 X30.307 Y139.932 E7.79646
G1 X29.249 Y139.642 E7.83294
G1 X28.787 Y139.488 E7.84914
G1 X28.492 Y139.384 E7.85954
G1 X27.989 Y139.199 E7.87737
G1 X27.156 Y138.85 E7.90741
G1 X26.231 Y138.354 E7.94232
G1 X25.816 Y138.103 E7.95845
G1 X25.529 Y137.922 E7.96973
G1 X25.076 Y137.627 E7.98771
G1 X24.342 Y137.102 E8.01773
G1 X23.584 Y136.443 E8.05114
G1 X23.246 Y136.119 E8.06671
G1 X22.972 Y135.847 E8.07955
G1 X22.59 Y135.452 E8.09783
G1 X21.991 Y134.775 E8.12789
G1 X21.386 Y133.944 E8.16208
G1 X21.093 Y133.496 E8.17989
G1 X20.907 Y133.201 E8.19148
G1 X20.653 Y132.782 E8.20778
G1 X20.219 Y131.989 E8.23785
G1 X19.806 Y131.026 E8.2727
G1 X19.627 Y130.541 E8.28989
G1 X19.511 Y130.21 E8.30156
G1 X19.356 Y129.741 E8.31799
G1 X19.111 Y128.872 E8.34802
G1 X18.932 Y127.902 E8.38082
G1 X18.868 Y127.427 E8.39677
G1 X18.826 Y127.06 E8.40905
G1 X18.771 Y126.499 E8.4278
G1 X18.723 Y125.66 E8.45575
G1 X18.712 Y124.853 E8.4826
G1 X18.712 Y110.056 E8.97475
G1 X18.722 Y109.347 E8.99833
G1 X18.771 Y108.482 E9.02715
G1 X18.851 Y107.713 E9.05286
G1 X18.915 Y107.201 E9.07002
G1 X19.066 Y106.311 E9.10005
G1 X19.372 Y105.202 E9.13831
G1 X19.61 Y104.507 E9.16274
G1 X19.793 Y104.007 E9.18045
G1 X20.141 Y103.174 E9.21048
G1 X20.65 Y102.225 E9.2463
G1 X21.07 Y101.541 E9.27299
G1 X21.364 Y101.088 E9.29095
G1 X21.889 Y100.353 E9.321
G1 X22.567 Y99.572 E9.3554
G1 X22.891 Y99.235 E9.37094
G1 X23.144 Y98.981 E9.38287
G1 X23.537 Y98.6 E9.40107
G1 X24.213 Y98 E9.43114
G1 X25.061 Y97.382 E9.46604
G1 X25.77 Y96.925 E9.49409
G1 X26.194 Y96.667 E9.5106
G1 X26.985 Y96.233 E9.54061
G1 X27.936 Y95.823 E9.57505
G1 X28.43 Y95.639 E9.59259
G1 X28.771 Y95.518 E9.60462
G1 X29.237 Y95.363 E9.62096
G1 X30.105 Y95.117 E9.65096
G1 X31.084 Y94.935 E9.68408
G1 X31.563 Y94.87 E9.70016
G1 X31.931 Y94.827 E9.71248
G1 X32.487 Y94.772 E9.73107
G1 X33.336 Y94.723 E9.75935
G1 X34.147 Y94.712 E9.78633
G1 X85.948 Y94.712 E11.50923
G1 X86.645 Y94.722 E11.53242
G1 X87.482 Y94.768 E11.5603
G1 X88.303 Y94.852 E11.58775
G1 X88.81 Y94.916 E11.60475
G1 X89.701 Y95.069 E11.63481
G1 X90.524 Y95.284 E11.66311
G1 X91.24 Y95.504 E11.68802
G1 X93.704 Y96.218 E11.77334
G1 X96.173 Y96.859 E11.85819
G1 X98.667 Y97.432 E11.9433
G1 X101.138 Y97.925 E12.0271
G1 X103.67 Y98.357 E12.11253
G1 X106.157 Y98.709 E12.19608
G1 X108.661 Y98.992 E12.27989
G1 X111.223 Y99.209 E12.36541
G1 X113.751 Y99.35 E12.44962
G1 X116.282 Y99.42 E12.53383
G1 X118.815 Y99.418 E12.61808
G1 X121.385 Y99.344 E12.7036
G1 X123.889 Y99.2 E12.78702
G1 X126.438 Y98.982 E12.87211
G1 X128.952 Y98.695 E12.95627
G1 X131.455 Y98.336 E13.04037
G1 X133.981 Y97.902 E13.12561
G1 X136.485 Y97.398 E13.21057
G1 X138.885 Y96.844 E13.29249
G1 X141.428 Y96.181 E13.3799
G1 X143.554 Y95.566 E13.45351
G1 X144.514 Y95.276 E13.48686
G1 X145.389 Y95.053 E13.5169
G1 X146.127 Y94.927 E13.5418
G1 X146.595 Y94.865 E13.5575
G1 X146.931 Y94.827 E13.56875
G1 X147.487 Y94.772 E13.58733
G1 X148.336 Y94.723 E13.61561
G1 X149.147 Y94.712 E13.64259
G1 X200.948 Y94.712 E15.3655
G1 X201.645 Y94.722 E15.38868
G0 F6000 X201.651 Y94.322
G1 F1200 X202.52 Y94.37 E15.41763
G1 X203.351 Y94.455 E15.44541
G1 X203.851 Y94.518 E15.46217
G1 X204.759 Y94.673 E15.49281
G1 X205.885 Y94.981 E15.53164
G1 X206.346 Y95.135 E15.5478
G1 X206.646 Y95.241 E15.55839
G1 X207.149 Y95.426 E15.57621
G1 X207.998 Y95.781 E15.60682
G1 X208.98 Y96.306 E15.64386
G1 X209.388 Y96.553 E15.65972
G1 X209.67 Y96.73 E15.67079
G1 X210.129 Y97.028 E15.68899
G1 X210.879 Y97.563 E15.71964
G1 X211.693 Y98.267 E15.75543
G1 X212.032 Y98.592 E15.77105
G1 X212.306 Y98.865 E15.78391
G1 X212.688 Y99.259 E15.80217
G1 X213.3 Y99.948 E15.83282
G1 X213.957 Y100.848 E15.86988
G1 X214.394 Y101.526 E15.89671
G1 X214.664 Y101.968 E15.91394
G1 X215.109 Y102.774 E15.94456
G1 X215.55 Y103.79 E15.9814
G1 X215.735 Y104.286 E15.999
G1 X215.861 Y104.644 E16.01163
G1 X216.017 Y105.113 E16.02807
G1 X216.27 Y105.999 E16.05871
G1 X216.464 Y107.044 E16.09406
G1 X216.528 Y107.519 E16.11
G1 X216.572 Y107.898 E16.12269
G1 X216.626 Y108.448 E16.14108
G1 X216.676 Y109.308 E16.16973
G1 X216.688 Y110.147 E16.19764
G1 X216.688 Y124.951 E16.69002
G1 X216.678 Y125.654 E16.7134
G1 X216.628 Y126.54 E16.74292
G1 X216.546 Y127.339 E16.76963
G1 X216.483 Y127.842 E16.78649
G1 X216.329 Y128.75 E16.81712
G1 X216.021 Y129.877 E16.85598
G1 X215.867 Y130.339 E16.87218
G1 X215.761 Y130.641 E16.88283
G1 X215.577 Y131.142 E16.90058
G1 X215.223 Y131.992 E16.9312
G1 X214.689 Y132.987 E16.96876
G1 X214.439 Y133.399 E16.98479
G1 X214.265 Y133.676 E16.99567
G1 X213.968 Y134.133 E17.0138
G1 X213.433 Y134.883 E17.04444
G1 X212.721 Y135.704 E17.08058
G1 X212.396 Y136.042 E17.09618
G1 X212.152 Y136.287 E17.10768
G1 X211.762 Y136.667 E17.12579
G1 X211.076 Y137.28 E17.15639
G1 X210.16 Y137.95 E17.19414
G1 X209.722 Y138.236 E17.21153
G1 X209.437 Y138.416 E17.22275
G1 X209.013 Y138.674 E17.23925
G1 X208.207 Y139.118 E17.26986
G1 X207.209 Y139.55 E17.30603
G1 X206.716 Y139.734 E17.32353
G1 X206.356 Y139.861 E17.33623
G1 X205.89 Y140.016 E17.35256
G1 X205.004 Y140.269 E17.38321
G1 X203.969 Y140.462 E17.41823
G1 X203.49 Y140.527 E17.4343
G1 X203.108 Y140.572 E17.4471
G1 X202.552 Y140.627 E17.46568
G1 X201.671 Y140.677 E17.49503
G1 X200.853 Y140.688 E17.52224
G1 X149.046 Y140.688 E19.24535
G1 X148.349 Y140.678 E19.26853
G1 X147.48 Y140.63 E19.29748
G1 X146.649 Y140.545 E19.32526
G1 X146.149 Y140.482 E19.34202
G1 X145.241 Y140.327 E19.37266
G1 X144.38 Y140.103 E19.40225
G1 X143.702 Y139.896 E19.42583
G1 X141.189 Y139.167 E19.51286
G1 X138.73 Y138.529 E19.59735
G1 X136.253 Y137.959 E19.68189
G1 X133.776 Y137.466 E19.76589
G1 X131.279 Y137.039 E19.85015
G1 X128.813 Y136.691 E19.93298
G1 X126.259 Y136.402 E20.01847
G1 X123.758 Y136.19 E20.10195
G1 X121.252 Y136.05 E20.18543
G1 X118.708 Y135.98 E20.27008
G1 X116.196 Y135.982 E20.35363
G1 X113.65 Y136.056 E20.43834
G1 X111.097 Y136.202 E20.52339
G1 X108.605 Y136.415 E20.60658
G1 X106.113 Y136.7 E20.69
G1 X103.603 Y137.059 E20.77434
G1 X101.095 Y137.491 E20.85898
G1 X98.612 Y137.99 E20.94322
G1 X96.2 Y138.547 E21.02555
G1 X93.669 Y139.207 E21.11255
G1 X91.595 Y139.807 E21.18436
G1 X90.602 Y140.107 E21.21886
G1 X89.71 Y140.335 E21.24948
G1 X88.925 Y140.469 E21.27597
G1 X88.457 Y140.531 E21.29167
G1 X88.108 Y140.572 E21.30336
G1 X87.552 Y140.627 E21.32194
G1 X86.671 Y140.677 E21.35129
G1 X85.853 Y140.688 E21.3785
G1 X34.046 Y140.688 E23.10161
G1 X33.349 Y140.678 E23.12479
G1 X32.48 Y140.63 E23.15374
G1 X31.646 Y140.545 E23.18162
G1 X31.147 Y140.482 E23.19835
G1 X30.24 Y140.327 E23.22896
G1 X29.123 Y140.021 E23.26748
G1 X28.661 Y139.867 E23.28367
G1 X28.354 Y139.759 E23.2945
G1 X27.851 Y139.574 E23.31232
G1 X27.002 Y139.219 E23.34293
G1 X26.024 Y138.696 E23.37982
G1 X25.609 Y138.445 E23.39595
G1 X25.311 Y138.258 E23.40765
G1 X24.858 Y137.963 E23.42563
G1 X24.109 Y137.427 E23.45626
G1 X23.307 Y136.732 E23.49156
G1 X22.969 Y136.408 E23.50713
G1 X22.684 Y136.125 E23.52049
G1 X22.302 Y135.73 E23.53877
G1 X21.692 Y135.041 E23.56938
G1 X21.051 Y134.163 E23.60553
G1 X20.758 Y133.715 E23.62334
G1 X20.564 Y133.408 E23.63542
G1 X20.31 Y132.989 E23.65171
G1 X19.868 Y132.182 E23.68232
G1 X19.431 Y131.164 E23.71916
G1 X19.252 Y130.679 E23.73636
G1 X19.131 Y130.335 E23.74849
G1 X18.976 Y129.866 E23.76491
G1 X18.726 Y128.98 E23.79553
G1 X18.536 Y127.955 E23.83021
G1 X18.472 Y127.48 E23.84615
G1 X18.428 Y127.099 E23.8589
G1 X18.373 Y126.538 E23.87765
G1 X18.323 Y125.667 E23.90667
G1 X18.312 Y124.853 E23.93375
G1 X18.312 Y110.051 E24.42606
G1 X18.322 Y109.342 E24.44965
G1 X18.373 Y108.442 E24.47963
G1 X18.454 Y107.663 E24.50568
G1 X18.518 Y107.151 E24.52284
G1 X18.672 Y106.244 E24.55344
G1 X18.993 Y105.074 E24.59379
G1 X19.235 Y104.37 E24.61855
G1 X19.418 Y103.87 E24.63626
G1 X19.771 Y103.02 E24.66687
G1 X20.307 Y102.018 E24.70467
G1 X20.734 Y101.323 E24.7318
G1 X21.028 Y100.87 E24.74976
G1 X21.563 Y100.121 E24.78037
G1 X22.279 Y99.295 E24.81673
G1 X22.603 Y98.958 E24.83228
G1 X22.866 Y98.693 E24.8447
G1 X23.259 Y98.312 E24.8629
G1 X23.947 Y97.701 E24.89351
G1 X24.842 Y97.047 E24.93037
G1 X25.277 Y96.763 E24.94765
G1 X25.562 Y96.584 E24.95885
G1 X25.986 Y96.326 E24.97535
G1 X26.792 Y95.882 E25.00596
G1 X27.796 Y95.448 E25.04234
G1 X28.29 Y95.264 E25.05987
G1 X28.644 Y95.139 E25.07236
G1 X29.11 Y94.984 E25.08869
G1 X29.996 Y94.731 E25.11934
G1 X31.031 Y94.538 E25.15436
G1 X31.51 Y94.473 E25.17044
G1 X31.892 Y94.428 E25.18323
G1 X32.448 Y94.373 E25.20181
G1 X33.329 Y94.323 E25.23116
G1 X34.147 Y94.312 E25.25837
G1 X85.954 Y94.312 E26.98148
G1 X86.651 Y94.322 E27.00466
G1 X87.52 Y94.37 E27.03361
G1 X88.354 Y94.455 E27.06149
G1 X88.861 Y94.519 E27.07849
G1 X89.768 Y94.674 E27.10909
G1 X90.641 Y94.902 E27.1391
G1 X91.324 Y95.112 E27.16287
G1 X93.811 Y95.833 E27.24899
G1 X96.258 Y96.467 E27.33307
G1 X98.77 Y97.045 E27.4188
G1 X101.212 Y97.532 E27.50162
G1 X103.721 Y97.961 E27.58628
G1 X106.187 Y98.309 E27.66911
G1 X108.741 Y98.598 E27.7546
G1 X111.242 Y98.81 E27.83809
G1 X113.748 Y98.95 E27.92157
G1 X116.292 Y99.02 E28.00621
G1 X118.804 Y99.018 E28.08976
G1 X121.35 Y98.944 E28.17448
G1 X123.903 Y98.798 E28.25953
G1 X126.395 Y98.585 E28.34271
G1 X128.887 Y98.3 E28.42614
G1 X131.397 Y97.941 E28.51047
G1 X133.905 Y97.509 E28.59512
G1 X136.388 Y97.01 E28.67935
G1 X138.8 Y96.453 E28.76169
G1 X141.331 Y95.793 E28.84868
G1 X143.405 Y95.193 E28.92049
G1 X144.398 Y94.893 E28.955
G1 X145.29 Y94.665 E28.98562
G1 X146.075 Y94.531 E29.0121
G1 X146.543 Y94.469 E29.02781
G1 X146.892 Y94.428 E29.03949
G1 X147.448 Y94.373 E29.05808
G1 X148.329 Y94.323 E29.08743
G1 X149.147 Y94.312 E29.11464
G1 X200.954 Y94.312 E30.83774
G1 X201.651 Y94.322 E30.86093
G0 F6000 X201.657 Y93.922
G1 F1200 X202.559 Y93.972 E30.89097
G1 X203.401 Y94.058 E30.91913
G1 X203.901 Y94.121 E30.93589
G1 X204.826 Y94.278 E30.96709
G1 X206.011 Y94.602 E31.00795
G1 X206.784 Y94.865 E31.03511
G1 X207.287 Y95.05 E31.05294
G1 X208.153 Y95.411 E31.08414
G1 X209.187 Y95.964 E31.12314
G1 X209.595 Y96.211 E31.139
G1 X209.888 Y96.395 E31.15051
G1 X210.347 Y96.693 E31.16871
G1 X211.111 Y97.237 E31.19991
G1 X211.969 Y97.979 E31.23764
G1 X212.308 Y98.304 E31.25326
G1 X212.594 Y98.587 E31.26664
G1 X212.976 Y98.981 E31.28489
G1 X213.599 Y99.682 E31.31608
G1 X214.292 Y100.629 E31.35511
G1 X214.562 Y101.043 E31.37155
G1 X214.735 Y101.318 E31.38236
G1 X215.005 Y101.76 E31.39959
G1 X215.459 Y102.58 E31.43076
G1 X215.924 Y103.65 E31.46956
G1 X216.109 Y104.146 E31.48717
G1 X216.241 Y104.518 E31.5003
G1 X216.397 Y104.987 E31.51674
G1 X216.655 Y105.889 E31.54794
G1 X216.86 Y106.99 E31.58519
G1 X216.924 Y107.465 E31.60113
G1 X216.97 Y107.859 E31.61433
G1 X217.024 Y108.409 E31.63271
G1 X217.075 Y109.302 E31.66246
G1 X217.088 Y110.147 E31.69056
G1 X217.088 Y124.956 E32.18311
G1 X217.078 Y125.659 E32.2065
G1 X217.026 Y126.579 E32.23715
G1 X216.943 Y127.389 E32.26423
G1 X216.88 Y127.892 E32.28109
G1 X216.724 Y128.817 E32.31229
G1 X216.401 Y130.004 E32.3532
G1 X216.247 Y130.466 E32.3694
G1 X216.137 Y130.779 E32.38044
G1 X215.953 Y131.28 E32.39819
G1 X215.592 Y132.146 E32.42939
G1 X215.031 Y133.194 E32.46893
G1 X214.781 Y133.606 E32.48496
G1 X214.6 Y133.894 E32.49627
G1 X214.303 Y134.351 E32.5144
G1 X213.759 Y135.115 E32.54559
G1 X213.009 Y135.981 E32.5837
G1 X212.432 Y136.574 E32.61122
G1 X212.042 Y136.954 E32.62933
G1 X211.342 Y137.579 E32.66054
G1 X210.379 Y138.285 E32.70025
G1 X209.941 Y138.571 E32.71765
G1 X209.645 Y138.758 E32.7293
G1 X209.221 Y139.016 E32.74581
G1 X208.4 Y139.469 E32.77699
G1 X207.349 Y139.925 E32.8151
G1 X206.856 Y140.109 E32.8326
G1 X206.482 Y140.241 E32.84579
G1 X206.016 Y140.396 E32.86213
G1 X205.114 Y140.654 E32.89333
G1 X204.023 Y140.858 E32.93025
G1 X203.544 Y140.923 E32.94632
G1 X203.148 Y140.97 E32.95959
G1 X202.592 Y141.025 E32.97817
G1 X201.677 Y141.077 E33.00865
G1 X200.853 Y141.088 E33.03606
G1 X149.04 Y141.088 E34.75937
G1 X148.343 Y141.078 E34.78255
G1 X147.441 Y141.028 E34.8126
