;FLAVOR:Marlin
;TIME:6779
;Filament used: 7.07142m
;Layer height: 0.28
;MINX:8.915
;MINY:40.393
;MINZ:0.28
;MAXX:211.085
;MAXY:179.607
;MAXZ:5.88
;Generated with Cura_SteamEngine 4.8.0
M140 S60
M105
M190 S60
M104 S205
M105
M109 S205
M82 ;absolute extrusion mode
; Ender 3 Custom Start G-code
G92 E0 ; Reset Extruder
G28 ; Home all axes
G1 Z2.0 F3000 ; Move Z Axis up little to prevent scratching of Heat Bed
G1 X0.1 Y20 Z0.3 F5000.0 ; Move to start position
G1 X0.1 Y200.0 Z0.3 F1500.0 E15 ; Draw the first line
G1 X0.4 Y200.0 Z0.3 F5000.0 ; Move to side a little
G1 X0.4 Y20 Z0.3 F1500.0 E30 ; Draw the second line
G92 E0 ; Reset Extruder
G1 Z2.0 F3000 ; Move Z Axis up little to prevent scratching of Heat Bed
G1 X5 Y20 Z0.3 F5000.0 ; Move over to prevent blob squish
G92 E0
G92 E0
G1 F2400 E-6.5
;LAYER_COUNT:21
;LAYER:0
M107
G0 F6000 X24.737 Y42.503 Z0.28
;TYPE:SKIRT
G1 F2400 E0
G1 F1200 X25.14 Y42.284 E0.02136
G1 X25.425 Y42.134 E0.03635
G1 X25.915 Y41.886 E0.06193
G1 X26.769 Y41.499 E0.10558
G1 X27.559 Y41.215 E0.14468
G1 X27.742 Y41.157 E0.15361
G1 X28.081 Y41.055 E0.1701
G1 X28.301 Y40.993 E0.18074
G1 X28.629 Y40.906 E0.19654
G1 X29.244 Y40.753 E0.22605
G1 X30.163 Y40.566 E0.26972
G1 X31.031 Y40.462 E0.31043
G1 X31.479 Y40.432 E0.33134
G1 X31.816 Y40.416 E0.34705
G1 X32.085 Y40.407 E0.35958
G1 X32.693 Y40.393 E0.3879
G1 X33.63 Y40.411 E0.43154
G1 X34.845 Y40.555 E0.48851
G1 X35.347 Y40.643 E0.51224
G1 X35.665 Y40.704 E0.52732
G1 X36.185 Y40.811 E0.55204
G1 X37.095 Y41.039 E0.59572
G1 X37.845 Y41.291 E0.63256
G1 X38.326 Y41.481 E0.65664
G1 X38.7 Y41.639 E0.67555
G1 X38.958 Y41.752 E0.68866
G1 X39.49 Y41.993 E0.71586
G1 X40.337 Y42.422 E0.76007
G1 X41.019 Y42.806 E0.79651
G1 X85.883 Y68.708 E3.20874
G1 X86.478 Y69.062 E3.24098
G1 X87.269 Y69.579 E3.28498
G1 X87.673 Y69.869 E3.30814
G1 X87.92 Y70.052 E3.32245
G1 X88.347 Y70.377 E3.34744
G1 X89.184 Y71.082 E3.3984
G1 X89.946 Y71.863 E3.44921
G1 X92.134 Y74.342 E3.60317
G1 X93.833 Y76.161 E3.71907
G1 X95.612 Y77.96 E3.83688
G1 X97.404 Y79.673 E3.95232
G1 X99.303 Y81.389 E4.07149
G1 X101.233 Y83.036 E4.18964
G1 X103.165 Y84.592 E4.30515
G1 X105.159 Y86.107 E4.42176
G1 X107.221 Y87.585 E4.53989
G1 X109.32 Y89 E4.65776
G1 X111.434 Y90.34 E4.77431
G1 X113.572 Y91.614 E4.8902
G1 X124.077 Y97.679 E5.45503
G1 X126.405 Y98.98 E5.57921
G1 X128.627 Y100.139 E5.6959
G1 X130.876 Y101.234 E5.81238
G1 X133.182 Y102.276 E5.93021
G1 X135.499 Y103.246 E6.04717
G1 X137.866 Y104.161 E6.16534
G1 X140.219 Y104.99 E6.2815
G1 X142.628 Y105.765 E6.39934
G1 X145.032 Y106.465 E6.51593
G1 X147.469 Y107.101 E6.63321
G1 X149.922 Y107.666 E6.75042
G1 X153.099 Y108.311 E6.90137
G1 X154.009 Y108.539 E6.94505
G1 X154.831 Y108.818 E6.98547
G1 X155.265 Y108.992 E7.00725
G1 X155.626 Y109.145 E7.0255
G1 X155.872 Y109.253 E7.03801
G1 X156.402 Y109.493 E7.06511
G1 X157.25 Y109.922 E7.10936
G1 X157.932 Y110.306 E7.1458
G1 X202.795 Y136.207 E9.55797
G1 X203.396 Y136.565 E9.59054
G1 X204.182 Y137.079 E9.63427
G1 X204.572 Y137.359 E9.65663
G1 X204.814 Y137.538 E9.67064
G1 X205.256 Y137.874 E9.6965
G1 X205.978 Y138.473 E9.74018
G1 X206.402 Y138.878 E9.76748
G1 X206.872 Y139.377 E9.7994
G1 X207.18 Y139.726 E9.82107
G1 X207.371 Y139.949 E9.83475
G1 X207.728 Y140.376 E9.86066
G1 X208.298 Y141.121 E9.90434
G1 X208.824 Y141.946 E9.9499
G1 X208.978 Y142.22 E9.96454
G1 X209.167 Y142.565 E9.98285
G1 X209.328 Y142.87 E9.99891
G1 X209.589 Y143.384 E10.02576
G1 X209.978 Y144.237 E10.06941
G1 X210.365 Y145.366 E10.12499
G1 X210.497 Y145.832 E10.14754
G1 X210.579 Y146.139 E10.16233
G1 X210.716 Y146.682 E10.18841
G1 X210.906 Y147.6 E10.23206
G1 X211.035 Y148.798 E10.28817
G1 X211.06 Y149.276 E10.31046
G1 X211.072 Y149.6 E10.32555
G1 X211.085 Y150.17 E10.3521
G1 X211.067 Y151.108 E10.39579
G1 X210.992 Y151.875 E10.43167
G1 X210.913 Y152.386 E10.45575
G1 X210.835 Y152.826 E10.47656
G1 X210.783 Y153.102 E10.48964
G1 X210.673 Y153.642 E10.5153
G1 X210.446 Y154.552 E10.55897
G1 X210.161 Y155.395 E10.6004
G1 X209.987 Y155.829 E10.62218
G1 X209.834 Y156.19 E10.64043
G1 X209.719 Y156.453 E10.6538
G1 X209.477 Y156.985 E10.68102
G1 X209.061 Y157.805 E10.72383
G1 X208.688 Y158.47 E10.75933
G1 X201.371 Y171.148 E11.44094
G1 X200.911 Y171.921 E11.48282
G1 X200.404 Y172.696 E11.52595
G1 X200.113 Y173.102 E11.54921
G1 X199.937 Y173.34 E11.56299
G1 X199.614 Y173.766 E11.58788
G1 X199.016 Y174.489 E11.63157
G1 X198.514 Y175.01 E11.66526
G1 X198.098 Y175.397 E11.69172
G1 X197.754 Y175.701 E11.7131
G1 X197.51 Y175.91 E11.72806
G1 X197.091 Y176.259 E11.75345
G1 X196.345 Y176.828 E11.79714
G1 X195.841 Y177.16 E11.82524
G1 X195.271 Y177.493 E11.85598
G1 X194.878 Y177.707 E11.87681
G1 X194.584 Y177.861 E11.89227
G1 X194.084 Y178.114 E11.91836
G1 X193.23 Y178.501 E11.96202
G1 X192.441 Y178.785 E12.00107
G1 X192.258 Y178.843 E12.01001
G1 X191.919 Y178.945 E12.02649
G1 X191.699 Y179.007 E12.03713
G1 X191.371 Y179.094 E12.05293
G1 X190.756 Y179.247 E12.08244
G1 X189.837 Y179.434 E12.12611
G1 X188.969 Y179.538 E12.16682
G1 X188.521 Y179.568 E12.18773
G1 X188.184 Y179.584 E12.20344
G1 X187.915 Y179.593 E12.21597
G1 X187.307 Y179.607 E12.24429
G1 X186.37 Y179.589 E12.28793
G1 X185.155 Y179.445 E12.3449
G1 X184.653 Y179.357 E12.36863
G1 X184.327 Y179.295 E12.38408
G1 X183.804 Y179.187 E12.40895
G1 X182.895 Y178.958 E12.4526
G1 X182.18 Y178.719 E12.4877
G1 X182.097 Y178.688 E12.49183
G1 X181.66 Y178.514 E12.51373
G1 X181.296 Y178.36 E12.53213
G1 X181.034 Y178.245 E12.54546
G1 X180.501 Y178.003 E12.57271
G1 X179.663 Y177.578 E12.61647
G1 X178.981 Y177.194 E12.65291
G1 X134.117 Y151.292 E15.06514
G1 X133.522 Y150.938 E15.09738
G1 X132.731 Y150.421 E15.14138
G1 X132.327 Y150.131 E15.16454
G1 X132.06 Y149.933 E15.18002
G1 X131.618 Y149.595 E15.20592
G1 X130.898 Y148.994 E15.2496
G1 X130.046 Y148.128 E15.30616
G1 X127.935 Y145.734 E15.45479
G1 X126.239 Y143.913 E15.57066
G1 X124.468 Y142.118 E15.68808
G1 X122.65 Y140.376 E15.80532
G1 X120.765 Y138.669 E15.92373
G1 X118.862 Y137.042 E16.04032
G1 X116.91 Y135.466 E16.15714
G1 X114.887 Y133.926 E16.27553
G1 X112.865 Y132.474 E16.39144
G1 X110.78 Y131.065 E16.50862
G1 X108.655 Y129.714 E16.62587
G1 X106.405 Y128.372 E16.74786
G1 X95.875 Y122.293 E17.31402
G1 X93.604 Y121.024 E17.43516
G1 X91.388 Y119.867 E17.55156
G1 X89.108 Y118.758 E17.66962
G1 X86.798 Y117.714 E17.78766
G1 X84.517 Y116.759 E17.90281
G1 X82.123 Y115.834 E18.02231
G1 X79.792 Y115.013 E18.13739
G1 X77.37 Y114.234 E18.25586
G1 X74.966 Y113.534 E18.37245
G1 X72.528 Y112.899 E18.48976
G1 X70.064 Y112.33 E18.60751
G1 X67.779 Y111.868 E18.71606
G1 X66.897 Y111.688 E18.75798
G1 X65.987 Y111.46 E18.80166
G1 X65.169 Y111.182 E18.84189
G1 X64.735 Y111.008 E18.86366
G1 X64.374 Y110.855 E18.88192
G1 X64.128 Y110.747 E18.89443
G1 X63.598 Y110.507 E18.92152
G1 X62.75 Y110.078 E18.96577
G1 X62.068 Y109.694 E19.00222
G1 X17.204 Y83.792 E21.41445
G1 X16.609 Y83.438 E21.44669
G1 X15.818 Y82.921 E21.49069
G1 X15.414 Y82.631 E21.51384
G1 X15.14 Y82.428 E21.52972
G1 X14.7 Y82.091 E21.55553
G1 X13.981 Y81.489 E21.5992
G1 X13.156 Y80.654 E21.65385
G1 X12.829 Y80.285 E21.67681
G1 X12.616 Y80.037 E21.69203
G1 X12.263 Y79.614 E21.71769
G1 X11.694 Y78.869 E21.76134
G1 X11.077 Y77.879 E21.81566
G1 X10.847 Y77.462 E21.83783
G1 X10.667 Y77.122 E21.85575
G1 X10.407 Y76.609 E21.88253
G1 X10.019 Y75.755 E21.9262
G1 X9.634 Y74.628 E21.98166
G1 X9.502 Y74.161 E22.00426
G1 X9.427 Y73.883 E22.01766
G1 X9.29 Y73.345 E22.04352
G1 X9.098 Y72.428 E22.08714
G1 X8.965 Y71.201 E22.14461
G1 X8.94 Y70.719 E22.16708
G1 X8.928 Y70.4 E22.18195
G1 X8.915 Y69.83 E22.2085
G1 X8.933 Y68.892 E22.25218
G1 X9.008 Y68.125 E22.28807
G1 X9.087 Y67.614 E22.31214
G1 X9.165 Y67.174 E22.33295
G1 X9.221 Y66.88 E22.34689
G1 X9.333 Y66.335 E22.3728
G1 X9.561 Y65.425 E22.41648
G1 X9.863 Y64.545 E22.4598
G1 X10.014 Y64.17 E22.47863
G1 X10.167 Y63.809 E22.49688
G1 X10.278 Y63.555 E22.50979
G1 X10.519 Y63.024 E22.53694
G1 X10.939 Y62.195 E22.58022
G1 X11.312 Y61.53 E22.61572
G1 X18.712 Y48.711 E23.30494
G1 X19.093 Y48.073 E23.33955
G1 X19.596 Y47.305 E23.38229
G1 X19.887 Y46.899 E23.40555
G1 X20.078 Y46.641 E23.4205
G1 X20.414 Y46.2 E23.44632
G1 X21.014 Y45.478 E23.49003
G1 X21.875 Y44.627 E23.5464
G1 X22.248 Y44.297 E23.56959
G1 X22.499 Y44.082 E23.58498
G1 X22.911 Y43.739 E23.60994
G1 X23.657 Y43.17 E23.65363
G1 X24.159 Y42.84 E23.6816
G1 X24.737 Y42.503 E23.71276
G0 F6000 X24.928 Y42.854
G1 F1200 X25.331 Y42.635 E23.73412
G1 X25.605 Y42.491 E23.74853
G1 X26.095 Y42.243 E23.7741
G1 X26.934 Y41.864 E23.81697
G1 X27.679 Y41.596 E23.85384
G1 X27.862 Y41.538 E23.86277
G1 X28.19 Y41.44 E23.87872
G1 X28.41 Y41.378 E23.88936
G1 X28.726 Y41.295 E23.90457
G1 X29.341 Y41.142 E23.93408
G1 X30.243 Y40.958 E23.97695
G1 X31.063 Y40.861 E24.0154
G1 X31.498 Y40.832 E24.0357
G1 X31.835 Y40.816 E24.05141
G1 X32.094 Y40.807 E24.06347
G1 X32.702 Y40.793 E24.09179
G1 X33.622 Y40.812 E24.13464
G1 X34.776 Y40.949 E24.18875
G1 X35.278 Y41.037 E24.21248
G1 X35.584 Y41.096 E24.227
G1 X36.104 Y41.203 E24.25172
G1 X36.997 Y41.427 E24.29459
G1 X37.704 Y41.665 E24.32932
G1 X37.781 Y41.694 E24.33315
G1 X38.17 Y41.85 E24.35267
G1 X38.544 Y42.008 E24.37157
G1 X38.793 Y42.117 E24.38423
G1 X39.325 Y42.358 E24.41143
G1 X40.142 Y42.771 E24.45405
G1 X40.819 Y43.152 E24.49023
G1 X85.679 Y69.051 E26.90222
G1 X86.274 Y69.405 E26.93446
G1 X87.035 Y69.904 E26.97684
G1 X87.439 Y70.194 E26.99999
G1 X87.678 Y70.37 E27.01381
G1 X88.105 Y70.695 E27.0388
G1 X88.912 Y71.375 E27.08794
G1 X89.646 Y72.128 E27.13691
G1 X91.825 Y74.596 E27.29021
G1 X93.557 Y76.451 E27.40838
G1 X95.316 Y78.23 E27.52488
G1 X97.142 Y79.976 E27.64252
G1 X99.041 Y81.692 E27.7617
G1 X100.965 Y83.334 E27.87948
G1 X102.917 Y84.906 E27.99618
G1 X104.929 Y86.435 E28.11385
G1 X106.994 Y87.915 E28.23215
G1 X109.105 Y89.337 E28.35067
G1 X111.21 Y90.672 E28.46674
G1 X113.373 Y91.961 E28.58398
G1 X123.972 Y98.08 E29.15386
G1 X126.189 Y99.318 E29.2721
G1 X128.417 Y100.482 E29.38915
G1 X130.743 Y101.614 E29.5096
G1 X132.998 Y102.633 E29.62483
G1 X135.349 Y103.617 E29.7435
G1 X137.755 Y104.547 E29.86361
G1 X140.078 Y105.365 E29.97829
G1 X142.489 Y106.141 E30.09623
G1 X144.934 Y106.853 E30.21481
G1 X147.383 Y107.492 E30.33266
G1 X149.824 Y108.054 E30.4493
G1 X153.019 Y108.703 E30.60111
G1 X153.912 Y108.927 E30.64398
G1 X154.687 Y109.192 E30.68212
G1 X155.109 Y109.36 E30.70327
G1 X155.47 Y109.513 E30.72152
G1 X155.707 Y109.617 E30.73358
G1 X156.237 Y109.857 E30.76067
G1 X157.055 Y110.271 E30.80336
G1 X157.732 Y110.652 E30.83953
G1 X202.591 Y136.55 E33.25146
G1 X203.192 Y136.908 E33.28404
G1 X203.949 Y137.404 E33.32618
G1 X204.339 Y137.684 E33.34853
G1 X204.572 Y137.856 E33.36202
G1 X205.014 Y138.192 E33.38787
G1 X205.722 Y138.781 E33.43076
G1 X206.119 Y139.161 E33.45635
G1 X206.572 Y139.642 E33.48711
G1 X206.88 Y139.991 E33.50879
G1 X207.064 Y140.206 E33.52196
G1 X207.421 Y140.633 E33.54788
G1 X207.981 Y141.364 E33.59076
G1 X208.477 Y142.146 E33.63388
G1 X208.627 Y142.412 E33.6481
G1 X208.816 Y142.757 E33.66642
G1 X208.971 Y143.051 E33.68189
G1 X209.232 Y143.565 E33.70874
G1 X209.613 Y144.403 E33.7516
G1 X209.98 Y145.475 E33.80436
G1 X210.112 Y145.941 E33.82691
G1 X210.191 Y146.237 E33.84118
G1 X210.328 Y146.78 E33.86726
G1 X210.514 Y147.681 E33.91009
G1 X210.636 Y148.819 E33.96339
G1 X210.661 Y149.297 E33.98568
G1 X210.672 Y149.609 E34.00021
G1 X210.685 Y150.179 E34.02676
G1 X210.666 Y151.1 E34.06966
G1 X210.595 Y151.822 E34.10344
G1 X210.519 Y152.316 E34.12671
G1 X210.441 Y152.756 E34.14752
G1 X210.391 Y153.022 E34.16012
G1 X210.281 Y153.562 E34.18578
G1 X210.058 Y154.455 E34.22864
G1 X209.787 Y155.251 E34.2678
G1 X209.619 Y155.673 E34.28895
G1 X209.466 Y156.034 E34.3072
G1 X209.355 Y156.287 E34.32007
G1 X209.113 Y156.819 E34.34728
G1 X208.712 Y157.61 E34.38858
G1 X208.342 Y158.27 E34.42381
G1 X201.025 Y170.948 E35.10541
G1 X200.567 Y171.716 E35.14705
G1 X200.079 Y172.463 E35.1886
G1 X199.788 Y172.869 E35.21186
G1 X199.619 Y173.098 E35.22511
G1 X199.296 Y173.524 E35.25001
G1 X198.708 Y174.233 E35.2929
G1 X198.235 Y174.723 E35.32461
G1 X197.833 Y175.097 E35.35018
G1 X197.489 Y175.401 E35.37155
G1 X197.254 Y175.603 E35.38598
G1 X196.835 Y175.952 E35.41137
G1 X196.103 Y176.51 E35.45423
G1 X195.629 Y176.821 E35.48063
G1 X195.08 Y177.141 E35.51022
G1 X194.687 Y177.355 E35.53106
G1 X194.404 Y177.504 E35.54595
G1 X193.904 Y177.757 E35.57204
G1 X193.065 Y178.137 E35.61493
G1 X192.321 Y178.404 E35.65174
G1 X192.138 Y178.462 E35.66068
G1 X191.81 Y178.56 E35.67662
G1 X191.59 Y178.622 E35.68726
G1 X191.274 Y178.705 E35.70247
G1 X190.659 Y178.858 E35.73198
G1 X189.757 Y179.042 E35.77485
G1 X188.937 Y179.139 E35.8133
G1 X188.502 Y179.168 E35.8336
G1 X188.165 Y179.184 E35.84931
G1 X187.906 Y179.193 E35.86138
G1 X187.298 Y179.207 E35.88969
G1 X186.378 Y179.188 E35.93254
G1 X185.224 Y179.051 E35.98665
G1 X184.722 Y178.963 E36.01039
G1 X184.408 Y178.903 E36.02527
G1 X183.885 Y178.795 E36.05014
G1 X182.993 Y178.57 E36.09298
G1 X182.32 Y178.344 E36.12603
G1 X182.237 Y178.313 E36.13016
G1 X181.816 Y178.145 E36.15126
G1 X181.452 Y177.991 E36.16967
G1 X181.2 Y177.881 E36.18247
G1 X180.667 Y177.639 E36.20973
G1 X179.858 Y177.229 E36.25196
G1 X179.181 Y176.848 E36.28813
G1 X134.321 Y150.949 E38.70013
G1 X133.726 Y150.595 E38.73237
G1 X132.965 Y150.096 E38.77474
G1 X132.561 Y149.806 E38.7979
G1 X132.303 Y149.615 E38.81285
G1 X131.861 Y149.277 E38.83876
G1 X131.155 Y148.687 E38.8816
G1 X130.346 Y147.863 E38.93537
G1 X128.262 Y145.499 E39.08211
G1 X126.516 Y143.625 E39.20138
G1 X124.729 Y141.813 E39.31988
G1 X122.916 Y140.077 E39.43676
G1 X121.065 Y138.4 E39.55307
G1 X119.088 Y136.71 E39.67418
G1 X117.158 Y135.151 E39.7897
G1 X115.147 Y133.62 E39.90739
G1 X113.093 Y132.146 E40.02511
G1 X110.988 Y130.723 E40.14343
G1 X108.853 Y129.366 E40.26122
G1 X106.604 Y128.025 E40.38315
G1 X96.118 Y121.971 E40.94695
G1 X93.778 Y120.663 E41.07178
G1 X91.569 Y119.51 E41.18781
G1 X89.269 Y118.392 E41.30689
G1 X87.012 Y117.371 E41.42224
G1 X84.636 Y116.377 E41.54217
G1 X82.263 Y115.46 E41.66063
G1 X79.899 Y114.627 E41.77734
G1 X77.509 Y113.858 E41.89425
G1 X75.064 Y113.146 E42.01282
G1 X72.613 Y112.508 E42.13076
G1 X70.155 Y111.94 E42.24823
G1 X67.852 Y111.475 E42.35763
G1 X67.656 Y111.437 E42.36693
G1 X66.977 Y111.297 E42.39921
G1 X66.085 Y111.072 E42.44204
G1 X65.313 Y110.808 E42.48004
G1 X64.891 Y110.64 E42.50119
G1 X64.53 Y110.487 E42.51944
G1 X64.293 Y110.383 E42.53149
G1 X63.763 Y110.143 E42.55859
G1 X62.945 Y109.729 E42.60128
G1 X62.268 Y109.348 E42.63745
G1 X17.408 Y83.449 E45.04945
G1 X16.813 Y83.095 E45.08168
G1 X16.052 Y82.596 E45.12406
G1 X15.648 Y82.306 E45.14721
G1 X15.384 Y82.11 E45.16253
G1 X14.944 Y81.773 E45.18833
G1 X14.238 Y81.182 E45.2312
G1 X13.456 Y80.388 E45.2831
G1 X13.129 Y80.019 E45.30606
G1 X12.924 Y79.781 E45.32068
G1 X12.571 Y79.358 E45.34634
G1 X12.012 Y78.626 E45.38922
G1 X11.427 Y77.685 E45.44082
G1 X11.197 Y77.268 E45.46299
G1 X11.024 Y76.941 E45.48022
G1 X10.764 Y76.428 E45.507
G1 X10.384 Y75.589 E45.54989
G1 X10.019 Y74.519 E45.60253
G1 X9.887 Y74.052 E45.62513
G1 X9.815 Y73.785 E45.638
G1 X9.678 Y73.247 E45.66385
G1 X9.49 Y72.346 E45.70671
G1 X9.364 Y71.18 E45.76132
G1 X9.339 Y70.698 E45.7838
G1 X9.328 Y70.391 E45.7981
G1 X9.315 Y69.821 E45.82465
G1 X9.334 Y68.9 E45.86754
G1 X9.405 Y68.178 E45.90133
G1 X9.481 Y67.684 E45.9246
G1 X9.559 Y67.244 E45.94541
G1 X9.613 Y66.96 E45.95887
G1 X9.725 Y66.415 E45.98478
G1 X9.949 Y65.522 E46.02765
G1 X10.235 Y64.691 E46.06857
G1 X10.382 Y64.326 E46.08689
G1 X10.535 Y63.965 E46.10515
G1 X10.643 Y63.72 E46.11761
G1 X10.884 Y63.189 E46.14477
G1 X11.288 Y62.39 E46.18646
G1 X11.658 Y61.73 E46.22169
G1 X19.055 Y48.916 E46.91064
G1 X19.436 Y48.278 E46.94524
G1 X19.921 Y47.538 E46.98644
G1 X20.212 Y47.132 E47.0097
G1 X20.396 Y46.883 E47.02412
G1 X20.732 Y46.442 E47.04994
G1 X21.322 Y45.735 E47.09281
G1 X22.14 Y44.927 E47.14635
G1 X22.513 Y44.597 E47.16954
G1 X22.755 Y44.39 E47.18437
G1 X23.167 Y44.047 E47.20933
G1 X23.899 Y43.489 E47.25219
G1 X24.371 Y43.179 E47.27849
G1 X24.928 Y42.854 E47.30852
G0 F6000 X25.119 Y43.206
G1 F1200 X25.522 Y42.987 E47.32987
