;FLAVOR:Marlin
;TIME:6360
;Filament used: 6.56836m
;Layer height: 0.28
;MINX:17.798
;MINY:93.798
;MINZ:0.28
;MAXX:217.202
;MAXY:141.202
;MAXZ:5.88
;Generated with Cura_SteamEngine 4.6.1
M140 S50
M105
M190 S50
M104 S210
M105
M109 S210
M82 ;absolute extrusion mode
; Ender 3 Custom Start G-code
G92 E0 ; Reset Extruder
G28 ; Home all axes
G1 Z2.0 F3000 ; Move Z Axis up little to prevent scratching of Heat Bed
G1 X0.1 Y20 Z0.3 F5000.0 ; Move to start position
G1 X0.1 Y200.0 Z0.3 F1500.0 E15 ; Draw the first line
G1 X0.4 Y200.0 Z0.3 F5000.0 ; Move to side a little
G1 X0.4 Y20 Z0.3 F1500.0 E30 ; Draw the second line
G92 E0 ; Reset Extruder
G1 Z2.0 F3000 ; Move Z Axis up little to prevent scratching of Heat Bed
G1 X5 Y20 Z0.3 F5000.0 ; Move over to prevent blob squish
G92 E0
G92 E0
G1 F2700 E-5
;LAYER_COUNT:21
;LAYER:0
M107
G0 F6000 X201.645 Y94.608 Z0.28
;TYPE:SKIRT
G1 F2700 E0
G1 F1200 X202.468 Y94.653 E0.03838
G1 X203.269 Y94.734 E0.07587
G1 X203.82 Y94.803 E0.10172
G1 X204.711 Y94.955 E0.14381
G1 X205.784 Y95.249 E0.19562
G1 X206.583 Y95.521 E0.23492
G1 X207.013 Y95.679 E0.25625
G1 X207.846 Y96.028 E0.29831
G1 X208.636 Y96.443 E0.33986
G1 X209.097 Y96.712 E0.36471
G1 X209.511 Y96.967 E0.38735
G1 X209.973 Y97.267 E0.413
G1 X210.708 Y97.792 E0.45506
G1 X211.465 Y98.448 E0.5017
G1 X211.826 Y98.793 E0.52496
G1 X212.092 Y99.057 E0.54241
G1 X212.478 Y99.454 E0.56819
G1 X213.078 Y100.128 E0.61021
G1 X213.696 Y100.973 E0.65896
G1 X213.968 Y101.388 E0.68206
G1 X214.149 Y101.674 E0.69782
G1 X214.437 Y102.147 E0.72361
G1 X214.872 Y102.939 E0.76568
G1 X215.286 Y103.899 E0.81436
G1 X215.461 Y104.37 E0.83776
G1 X215.578 Y104.703 E0.8542
G1 X215.752 Y105.226 E0.87986
G1 X215.999 Y106.095 E0.92193
G1 X216.191 Y107.144 E0.97159
G1 X216.257 Y107.657 E0.99567
G1 X216.292 Y107.97 E1.01033
G1 X216.342 Y108.483 E1.03434
G1 X216.388 Y109.296 E1.07225
G1 X216.402 Y110.168 E1.11286
G1 X216.402 Y124.946 E1.80099
G1 X216.392 Y125.645 E1.83354
G1 X216.348 Y126.454 E1.87127
G1 X216.267 Y127.264 E1.90917
G1 X216.198 Y127.816 E1.93507
G1 X216.047 Y128.706 E1.97711
G1 X215.75 Y129.788 E2.02935
G1 X215.479 Y130.583 E2.06846
G1 X215.321 Y131.013 E2.0898
G1 X214.972 Y131.846 E2.13185
G1 X214.562 Y132.627 E2.17292
G1 X214.3 Y133.077 E2.19717
G1 X214.034 Y133.508 E2.22075
G1 X213.721 Y133.989 E2.24748
G1 X213.196 Y134.724 E2.28953
G1 X212.528 Y135.492 E2.33693
G1 X212.188 Y135.846 E2.35979
G1 X211.941 Y136.094 E2.37608
G1 X211.548 Y136.476 E2.4016
G1 X210.874 Y137.076 E2.44362
G1 X210.054 Y137.677 E2.49096
G1 X209.637 Y137.952 E2.51422
G1 X209.332 Y138.146 E2.53105
G1 X208.858 Y138.435 E2.5569
G1 X208.067 Y138.87 E2.59894
G1 X207.083 Y139.294 E2.64883
G1 X206.612 Y139.468 E2.67221
G1 X206.286 Y139.582 E2.68829
G1 X205.764 Y139.755 E2.7139
G1 X204.895 Y140.001 E2.75595
G1 X203.873 Y140.187 E2.80432
G1 X203.029 Y140.292 E2.84393
G1 X202.515 Y140.342 E2.86797
G1 X201.703 Y140.388 E2.90584
G1 X200.832 Y140.402 E2.94641
G1 X149.051 Y140.402 E5.35755
G1 X148.355 Y140.392 E5.38996
G1 X147.535 Y140.347 E5.4282
G1 X146.722 Y140.265 E5.46625
G1 X146.167 Y140.195 E5.4923
G1 X145.276 Y140.042 E5.53439
G1 X144.479 Y139.835 E5.57274
G1 X143.639 Y139.58 E5.61361
G1 X141.181 Y138.87 E5.73275
G1 X138.718 Y138.234 E5.85119
G1 X136.271 Y137.676 E5.96806
G1 X133.733 Y137.171 E6.08856
G1 X131.232 Y136.748 E6.20667
G1 X128.753 Y136.4 E6.32323
G1 X126.192 Y136.114 E6.44323
G1 X123.691 Y135.906 E6.56009
G1 X121.149 Y135.766 E6.67863
G1 X118.587 Y135.699 E6.79797
G1 X116.048 Y135.704 E6.9162
G1 X113.55 Y135.779 E7.03257
G1 X110.987 Y135.929 E7.15211
G1 X108.434 Y136.151 E7.27144
G1 X105.957 Y136.437 E7.38755
G1 X103.41 Y136.804 E7.50737
G1 X100.933 Y137.233 E7.62443
G1 X98.423 Y137.742 E7.74368
G1 X95.986 Y138.307 E7.86017
G1 X93.502 Y138.959 E7.97975
G1 X91.391 Y139.571 E8.0821
G1 X90.539 Y139.829 E8.12355
G1 X89.664 Y140.052 E8.1656
G1 X88.947 Y140.175 E8.19947
G1 X88.407 Y140.248 E8.22484
G1 X88.027 Y140.292 E8.24266
G1 X87.512 Y140.342 E8.26675
G1 X86.702 Y140.388 E8.30453
G1 X85.832 Y140.402 E8.34504
G1 X34.051 Y140.402 E10.75618
G1 X33.355 Y140.392 E10.78859
G1 X32.535 Y140.347 E10.82683
G1 X31.731 Y140.266 E10.86446
G1 X31.18 Y140.197 E10.89032
G1 X30.289 Y140.045 E10.93241
G1 X29.216 Y139.751 E10.98421
G1 X28.417 Y139.479 E11.02351
G1 X27.987 Y139.321 E11.04485
G1 X27.154 Y138.972 E11.0869
G1 X26.358 Y138.553 E11.12879
G1 X25.896 Y138.283 E11.1537
G1 X25.49 Y138.033 E11.17591
G1 X25.017 Y137.726 E11.20216
G1 X24.282 Y137.201 E11.24422
G1 X23.484 Y136.507 E11.29347
G1 X22.906 Y135.942 E11.3311
G1 X22.522 Y135.547 E11.35675
G1 X21.922 Y134.872 E11.39881
G1 X21.318 Y134.048 E11.44638
G1 X21.044 Y133.632 E11.46958
G1 X20.848 Y133.323 E11.48661
G1 X20.559 Y132.848 E11.5125
G1 X20.124 Y132.056 E11.55458
G1 X19.703 Y131.076 E11.60424
G1 X19.53 Y130.607 E11.62752
G1 X19.42 Y130.291 E11.6431
G1 X19.246 Y129.767 E11.66881
G1 X18.999 Y128.899 E11.71083
G1 X18.81 Y127.857 E11.76015
G1 X18.708 Y127.029 E11.79899
G1 X18.658 Y126.515 E11.82304
G1 X18.612 Y125.703 E11.86091
G1 X18.598 Y124.832 E11.90147
G1 X18.598 Y110.056 E12.58951
G1 X18.608 Y109.347 E12.62252
G1 X18.655 Y108.503 E12.66188
G1 X18.732 Y107.744 E12.69741
G1 X18.8 Y107.195 E12.72317
G1 X18.951 Y106.305 E12.7652
G1 X19.252 Y105.207 E12.81821
G1 X19.518 Y104.425 E12.85668
G1 X19.676 Y103.994 E12.87805
G1 X20.024 Y103.161 E12.92009
G1 X20.442 Y102.367 E12.96187
G1 X20.712 Y101.904 E12.98683
G1 X20.966 Y101.49 E13.00944
G1 X21.269 Y101.023 E13.03537
G1 X21.794 Y100.288 E13.07742
G1 X22.48 Y99.498 E13.12614
G1 X22.822 Y99.143 E13.1491
G1 X23.066 Y98.899 E13.16517
G1 X23.466 Y98.511 E13.19111
G1 X24.142 Y97.911 E13.2332
G1 X24.982 Y97.297 E13.28165
G1 X25.393 Y97.028 E13.30452
G1 X25.661 Y96.859 E13.31928
G1 X26.134 Y96.57 E13.34509
G1 X26.925 Y96.134 E13.38714
G1 X27.917 Y95.706 E13.43745
G1 X28.388 Y95.532 E13.46083
G1 X28.709 Y95.42 E13.47666
G1 X29.233 Y95.246 E13.50237
G1 X30.101 Y94.999 E13.54439
G1 X31.143 Y94.81 E13.59371
G1 X31.971 Y94.708 E13.63255
G1 X32.485 Y94.658 E13.6566
G1 X33.297 Y94.612 E13.69447
G1 X34.168 Y94.598 E13.73503
G1 X85.949 Y94.598 E16.14617
G1 X86.645 Y94.608 E16.17859
G1 X87.465 Y94.653 E16.21683
G1 X88.278 Y94.735 E16.25487
G1 X88.833 Y94.805 E16.28092
G1 X89.724 Y94.958 E16.32302
G1 X90.521 Y95.165 E16.36136
G1 X91.357 Y95.419 E16.40205
G1 X93.815 Y96.129 E16.52118
G1 X96.282 Y96.766 E16.63982
G1 X98.729 Y97.324 E16.75669
G1 X101.267 Y97.829 E16.87719
G1 X103.768 Y98.252 E16.9953
G1 X106.247 Y98.6 E17.11186
G1 X108.808 Y98.886 E17.23185
G1 X111.309 Y99.094 E17.34871
G1 X113.851 Y99.234 E17.46726
G1 X116.413 Y99.301 E17.5866
G1 X118.952 Y99.296 E17.70482
G1 X121.45 Y99.221 E17.82119
G1 X124.013 Y99.071 E17.94074
G1 X126.566 Y98.849 E18.06007
G1 X129.043 Y98.563 E18.17617
G1 X131.59 Y98.196 E18.296
G1 X134.067 Y97.767 E18.41305
G1 X136.577 Y97.258 E18.53231
G1 X139.014 Y96.693 E18.6488
G1 X141.498 Y96.041 E18.76838
G1 X143.623 Y95.425 E18.8714
G1 X144.461 Y95.171 E18.91218
G1 X145.336 Y94.948 E18.95422
G1 X146.053 Y94.825 E18.9881
G1 X146.593 Y94.752 E19.01347
G1 X146.973 Y94.708 E19.03128
G1 X147.488 Y94.658 E19.05538
G1 X148.298 Y94.612 E19.09315
G1 X149.168 Y94.598 E19.13367
G1 X200.948 Y94.598 E21.54476
G1 X201.645 Y94.608 E21.57722
G0 F6000 X201.651 Y94.208
G1 F1200 X202.506 Y94.255 E21.61709
G1 X203.319 Y94.337 E21.65514
G1 X203.87 Y94.406 E21.681
G1 X204.778 Y94.56 E21.72388
G1 X205.911 Y94.87 E21.77858
G1 X206.721 Y95.145 E21.81841
G1 X207.151 Y95.303 E21.83974
G1 X208 Y95.658 E21.88259
G1 X208.837 Y96.098 E21.92662
G1 X209.298 Y96.367 E21.95148
G1 X209.729 Y96.632 E21.97504
G1 X210.191 Y96.932 E22.00069
G1 X210.94 Y97.466 E22.04352
G1 X211.742 Y98.159 E22.09287
G1 X212.103 Y98.504 E22.11613
G1 X212.379 Y98.778 E22.13424
G1 X212.765 Y99.175 E22.16002
G1 X213.377 Y99.862 E22.20286
G1 X214.03 Y100.753 E22.2543
G1 X214.302 Y101.168 E22.2774
G1 X214.491 Y101.466 E22.29384
G1 X214.779 Y101.939 E22.31962
G1 X215.223 Y102.746 E22.36251
G1 X215.661 Y103.76 E22.41394
G1 X215.836 Y104.231 E22.43734
G1 X215.958 Y104.577 E22.45442
G1 X216.132 Y105.1 E22.48009
G1 X216.384 Y105.985 E22.52294
G1 X216.587 Y107.093 E22.57539
G1 X216.69 Y107.931 E22.6147
G1 X216.74 Y108.444 E22.6387
G1 X216.788 Y109.29 E22.67816
G1 X216.802 Y110.168 E22.71905
G1 X216.802 Y124.952 E23.40745
G1 X216.792 Y125.651 E23.44001
G1 X216.746 Y126.491 E23.47918
G1 X216.664 Y127.314 E23.51769
G1 X216.595 Y127.866 E23.54359
G1 X216.441 Y128.773 E23.58643
G1 X216.129 Y129.915 E23.64156
G1 X215.855 Y130.721 E23.6812
G1 X215.697 Y131.151 E23.70253
G1 X215.342 Y132 E23.74538
G1 X214.907 Y132.828 E23.78893
G1 X214.645 Y133.278 E23.81318
G1 X214.37 Y133.726 E23.83765
G1 X214.057 Y134.207 E23.86438
G1 X213.521 Y134.957 E23.9073
G1 X212.817 Y135.769 E23.95734
G1 X212.477 Y136.123 E23.9802
G1 X212.22 Y136.381 E23.99716
G1 X211.827 Y136.763 E24.02268
G1 X211.14 Y137.375 E24.06552
G1 X210.275 Y138.011 E24.11551
G1 X209.858 Y138.286 E24.13877
G1 X209.54 Y138.487 E24.15629
G1 X209.066 Y138.776 E24.18214
G1 X208.26 Y139.221 E24.22501
G1 X207.221 Y139.669 E24.2777
G1 X206.75 Y139.843 E24.30108
G1 X206.412 Y139.962 E24.31776
G1 X205.89 Y140.135 E24.34337
G1 X205.004 Y140.386 E24.38625
G1 X203.925 Y140.584 E24.43733
G1 X203.411 Y140.651 E24.46147
G1 X203.067 Y140.69 E24.47759
G1 X202.553 Y140.74 E24.50163
G1 X201.71 Y140.788 E24.54095
G1 X200.832 Y140.802 E24.58184
G1 X149.046 Y140.802 E26.99321
G1 X148.35 Y140.792 E27.02562
G1 X147.497 Y140.745 E27.0654
G1 X146.672 Y140.662 E27.10401
G1 X146.117 Y140.592 E27.13006
G1 X145.209 Y140.437 E27.17295
G1 X144.362 Y140.217 E27.2137
G1 X143.611 Y139.989 E27.25025
G1 X141.079 Y139.258 E27.37296
G1 X138.601 Y138.618 E27.49213
G1 X136.175 Y138.065 E27.608
G1 X133.654 Y137.563 E27.72769
G1 X131.187 Y137.146 E27.84419
G1 X128.685 Y136.795 E27.96184
G1 X126.186 Y136.515 E28.07893
G1 X123.636 Y136.303 E28.19808
G1 X121.116 Y136.165 E28.3156
G1 X118.614 Y136.099 E28.43214
G1 X116.061 Y136.104 E28.55102
G1 X113.55 Y136.179 E28.66799
G1 X111.011 Y136.328 E28.78642
G1 X108.514 Y136.545 E28.90313
G1 X105.988 Y136.837 E29.02154
G1 X103.464 Y137.2 E29.14027
G1 X101.009 Y137.626 E29.2563
G1 X98.529 Y138.128 E29.37412
G1 X96.073 Y138.697 E29.49151
G1 X93.589 Y139.35 E29.6111
G1 X91.541 Y139.944 E29.7104
G1 X90.655 Y140.212 E29.7535
G1 X89.763 Y140.44 E29.79637
G1 X89.001 Y140.571 E29.83237
G1 X88.461 Y140.644 E29.85775
G1 X88.065 Y140.69 E29.87631
G1 X87.55 Y140.74 E29.9004
G1 X86.709 Y140.788 E29.93963
G1 X85.832 Y140.802 E29.98047
G1 X34.046 Y140.802 E32.39184
G1 X33.35 Y140.792 E32.42425
G1 X32.497 Y140.745 E32.46403
G1 X31.681 Y140.663 E32.50222
G1 X31.13 Y140.594 E32.52808
G1 X30.222 Y140.44 E32.57096
G1 X29.089 Y140.13 E32.62566
G1 X28.279 Y139.855 E32.66549
G1 X27.849 Y139.697 E32.68682
G1 X27 Y139.342 E32.72967
G1 X26.157 Y138.899 E32.77402
G1 X25.695 Y138.629 E32.79893
G1 X25.272 Y138.368 E32.82208
G1 X24.799 Y138.061 E32.84833
G1 X24.049 Y137.527 E32.89121
G1 X23.207 Y136.795 E32.94316
G1 X22.857 Y136.457 E32.96581
G1 X22.62 Y136.221 E32.98139
G1 X22.236 Y135.826 E33.00704
G1 X21.623 Y135.138 E33.04995
G1 X20.984 Y134.268 E33.10021
G1 X20.71 Y133.852 E33.12341
G1 X20.506 Y133.531 E33.14112
G1 X20.217 Y133.056 E33.16701
G1 X19.773 Y132.249 E33.2099
G1 X19.328 Y131.214 E33.26236
G1 X19.155 Y130.745 E33.28563
G1 X19.04 Y130.417 E33.30182
G1 X18.866 Y129.893 E33.32753
G1 X18.614 Y129.008 E33.37037
G1 X18.413 Y127.908 E33.42244
G1 X18.347 Y127.396 E33.44648
G1 X18.31 Y127.067 E33.4619
G1 X18.26 Y126.553 E33.48594
G1 X18.212 Y125.71 E33.52526
G1 X18.198 Y124.832 E33.56615
G1 X18.198 Y110.051 E34.25441
G1 X18.208 Y109.342 E34.28743
G1 X18.257 Y108.464 E34.32838
G1 X18.335 Y107.695 E34.36437
G1 X18.403 Y107.146 E34.39013
G1 X18.556 Y106.238 E34.43301
G1 X18.873 Y105.079 E34.48896
G1 X19.143 Y104.288 E34.52788
G1 X19.301 Y103.857 E34.54925
G1 X19.655 Y103.007 E34.59213
G1 X20.096 Y102.165 E34.63638
G1 X20.366 Y101.702 E34.66134
G1 X20.631 Y101.272 E34.68486
G1 X20.934 Y100.805 E34.71078
G1 X21.468 Y100.056 E34.75362
G1 X22.192 Y99.221 E34.80508
G1 X22.534 Y98.866 E34.82803
G1 X22.788 Y98.611 E34.84479
G1 X23.188 Y98.223 E34.87074
G1 X23.876 Y97.612 E34.91358
G1 X24.763 Y96.963 E34.96476
G1 X25.452 Y96.518 E35.00295
G1 X25.925 Y96.229 E35.02876
G1 X26.731 Y95.783 E35.07166
G1 X27.779 Y95.331 E35.1248
G1 X28.25 Y95.157 E35.14818
G1 X28.583 Y95.04 E35.16462
G1 X29.107 Y94.866 E35.19033
G1 X29.992 Y94.614 E35.23318
G1 X31.092 Y94.413 E35.28524
G1 X31.604 Y94.347 E35.30928
G1 X31.933 Y94.31 E35.3247
G1 X32.447 Y94.26 E35.34875
G1 X33.29 Y94.212 E35.38806
G1 X34.168 Y94.198 E35.42895
G1 X85.954 Y94.198 E37.84032
G1 X86.65 Y94.208 E37.87274
G1 X87.503 Y94.255 E37.91252
G1 X88.328 Y94.338 E37.95112
G1 X88.883 Y94.408 E37.97717
G1 X89.791 Y94.563 E38.02006
G1 X90.638 Y94.783 E38.06081
G1 X91.389 Y95.011 E38.09736
G1 X93.921 Y95.742 E38.22007
G1 X96.399 Y96.382 E38.33925
G1 X98.825 Y96.935 E38.45511
G1 X101.346 Y97.437 E38.5748
G1 X103.813 Y97.854 E38.69131
G1 X106.315 Y98.205 E38.80895
G1 X108.814 Y98.485 E38.92604
G1 X111.364 Y98.697 E39.04519
G1 X113.884 Y98.835 E39.16271
G1 X116.386 Y98.901 E39.27925
G1 X118.939 Y98.896 E39.39813
G1 X121.45 Y98.821 E39.51511
G1 X123.989 Y98.672 E39.63354
G1 X126.486 Y98.455 E39.75024
G1 X129.012 Y98.163 E39.86865
G1 X131.536 Y97.8 E39.98739
G1 X133.991 Y97.374 E40.10341
G1 X136.471 Y96.872 E40.22123
G1 X138.927 Y96.303 E40.33862
G1 X141.411 Y95.65 E40.45822
G1 X143.459 Y95.056 E40.55751
G1 X144.345 Y94.788 E40.60061
G1 X145.237 Y94.56 E40.64348
G1 X145.999 Y94.429 E40.67949
G1 X146.539 Y94.356 E40.70486
G1 X146.935 Y94.31 E40.72342
G1 X147.45 Y94.26 E40.74752
G1 X148.291 Y94.212 E40.78674
G1 X149.168 Y94.198 E40.82758
G1 X200.954 Y94.198 E43.23896
G1 X201.651 Y94.208 E43.27141
G0 F6000 X201.657 Y93.808
G1 F1200 X202.544 Y93.857 E43.31278
G1 X203.369 Y93.94 E43.35139
G1 X203.92 Y94.009 E43.37725
G1 X204.845 Y94.165 E43.42093
G1 X206.038 Y94.491 E43.47851
G1 X206.859 Y94.77 E43.51889
G1 X207.289 Y94.928 E43.54022
G1 X208.155 Y95.289 E43.58391
G1 X209.039 Y95.752 E43.63038
G1 X209.5 Y96.021 E43.65523
G1 X209.947 Y96.296 E43.67967
G1 X210.409 Y96.596 E43.70532
G1 X211.173 Y97.14 E43.74899
G1 X212.018 Y97.87 E43.80099
G1 X212.379 Y98.215 E43.82424
G1 X212.666 Y98.499 E43.84304
G1 X213.052 Y98.896 E43.86882
G1 X213.676 Y99.596 E43.91249
G1 X214.365 Y100.534 E43.96668
G1 X214.637 Y100.949 E43.98979
G1 X214.832 Y101.258 E44.0068
G1 X215.12 Y101.731 E44.03259
G1 X215.574 Y102.552 E44.07627
G1 X216.036 Y103.621 E44.1305
G1 X216.211 Y104.092 E44.1539
G1 X216.338 Y104.45 E44.17158
G1 X216.512 Y104.973 E44.19725
G1 X216.769 Y105.875 E44.24092
G1 X216.984 Y107.042 E44.29618
G1 X217.05 Y107.555 E44.32026
G1 X217.088 Y107.892 E44.33605
G1 X217.138 Y108.405 E44.36005
G1 X217.188 Y109.283 E44.401
G1 X217.202 Y110.168 E44.44222
G1 X217.202 Y124.957 E45.13085
G1 X217.192 Y125.656 E45.16341
G1 X217.145 Y126.528 E45.20407
G1 X217.098 Y127.028 E45.22745
G1 X217.061 Y127.363 E45.24315
G1 X216.992 Y127.915 E45.26905
G1 X216.836 Y128.84 E45.31273
G1 X216.508 Y130.042 E45.37075
G1 X216.23 Y130.859 E45.41093
G1 X216.072 Y131.289 E45.43226
G1 X215.711 Y132.155 E45.47595
G1 X215.253 Y133.03 E45.52194
G1 X214.991 Y133.48 E45.54619
G1 X214.705 Y133.945 E45.57161
G1 X214.392 Y134.426 E45.59833
G1 X213.847 Y135.189 E45.64199
G1 X213.105 Y136.046 E45.69477
G1 X212.765 Y136.4 E45.71763
G1 X212.499 Y136.668 E45.73521
G1 X212.106 Y137.05 E45.76073
G1 X211.406 Y137.674 E45.8044
G1 X210.495 Y138.345 E45.85708
G1 X210.078 Y138.62 E45.88034
G1 X209.748 Y138.829 E45.89853
G1 X209.274 Y139.118 E45.92438
G1 X208.453 Y139.572 E45.96807
G1 X207.36 Y140.044 E46.0235
G1 X206.889 Y140.218 E46.04688
G1 X206.537 Y140.342 E46.06426
G1 X206.015 Y140.515 E46.08987
G1 X205.113 Y140.771 E46.13353
G1 X203.977 Y140.981 E46.18732
G1 X203.463 Y141.048 E46.21146
G1 X203.106 Y141.088 E46.22818
G1 X202.592 Y141.138 E46.25223
G1 X201.717 Y141.188 E46.29304
G1 X200.832 Y141.202 E46.33426
G1 X149.04 Y141.202 E48.74591
G1 X148.344 Y141.192 E48.77832
G1 X147.459 Y141.143 E48.81959
G1 X146.622 Y141.059 E48.85876
