;FLAVOR:Marlin
;TIME:13038
;Filament used: 8.65115m
;Layer height: 0.2
;MINX:47.912
;MINY:67.912
;MINZ:0.2
;MAXX:187.088
;MAXY:167.088
;MAXZ:6
;Generated with Cura_SteamEngine 4.6.1
M140 S50
M105
M190 S50
M104 S205
M105
M109 S205
M82 ;absolute extrusion mode
; Ender 3 Custom Start G-code
G92 E0 ; Reset Extruder
G28 ; Home all axes
G1 Z2.0 F3000 ; Move Z Axis up little to prevent scratching of Heat Bed
G1 X0.1 Y20 Z0.3 F5000.0 ; Move to start position
G1 X0.1 Y200.0 Z0.3 F1500.0 E15 ; Draw the first line
G1 X0.4 Y200.0 Z0.3 F5000.0 ; Move to side a little
G1 X0.4 Y20 Z0.3 F1500.0 E30 ; Draw the second line
G92 E0 ; Reset Extruder
G1 Z2.0 F3000 ; Move Z Axis up little to prevent scratching of Heat Bed
G1 X5 Y20 Z0.3 F5000.0 ; Move over to prevent blob squish
G92 E0
G92 E0
G1 F2700 E-5
;LAYER_COUNT:30
;LAYER:0
M107
G0 F6000 X137.447 Y68.719 Z0.2
;TYPE:SKIRT
G1 F2700 E0
G1 F1200 X138.099 Y68.749 E0.02171
G1 X139.296 Y68.842 E0.06164
G1 X139.647 Y68.875 E0.07337
G1 X140.322 Y68.951 E0.09596
G1 X141.214 Y69.092 E0.126
G1 X142.046 Y69.298 E0.1545
G1 X143.202 Y69.639 E0.19459
G1 X143.888 Y69.858 E0.21854
G1 X144.735 Y70.171 E0.24857
G1 X145.501 Y70.53 E0.27671
G1 X146.546 Y71.078 E0.31596
G1 X147.202 Y71.441 E0.34089
G1 X147.972 Y71.913 E0.37093
G1 X148.638 Y72.404 E0.39845
G1 X149.449 Y73.056 E0.43306
G1 X150.095 Y73.597 E0.46109
G1 X150.761 Y74.207 E0.49113
G1 X151.12 Y74.585 E0.50847
G1 X151.881 Y75.429 E0.54626
G1 X153.701 Y77.407 E0.63566
G1 X155.463 Y79.215 E0.71963
G1 X157.296 Y80.994 E0.80459
G1 X159.166 Y82.709 E0.88898
G1 X161.084 Y84.368 E0.97333
G1 X163.076 Y85.996 E1.05889
G1 X165.06 Y87.528 E1.14227
G1 X167.098 Y89.011 E1.2261
G1 X169.212 Y90.458 E1.3113
G1 X171.349 Y91.834 E1.39584
G1 X173.533 Y93.155 E1.48073
G1 X175.692 Y94.379 E1.56328
G1 X176.581 Y94.848 E1.59671
G1 X177.803 Y95.517 E1.64305
G1 X178.198 Y95.745 E1.65821
G1 X178.98 Y96.225 E1.68873
G1 X179.512 Y96.569 E1.7098
G1 X180.248 Y97.092 E1.73983
G1 X181.064 Y97.801 E1.77579
G1 X181.703 Y98.425 E1.80549
G1 X182.162 Y98.896 E1.82737
G1 X182.763 Y99.57 E1.8574
G1 X183.405 Y100.45 E1.89363
G1 X183.914 Y101.239 E1.92486
G1 X184.234 Y101.764 E1.94531
G1 X184.669 Y102.555 E1.97534
G1 X185.094 Y103.544 E2.01114
G1 X185.309 Y104.127 E2.03181
G1 X185.417 Y104.435 E2.04266
G1 X185.615 Y105.03 E2.06352
G1 X185.862 Y105.899 E2.09357
G1 X186.052 Y106.94 E2.12876
G1 X186.165 Y107.85 E2.15926
G1 X186.228 Y108.493 E2.18075
G1 X186.276 Y109.32 E2.2083
G1 X186.288 Y110.153 E2.23601
G1 X186.288 Y124.935 E2.72766
G1 X186.278 Y125.638 E2.75105
G1 X186.233 Y126.465 E2.77859
G1 X186.173 Y127.092 E2.79954
G1 X186.138 Y127.402 E2.80992
G1 X186.061 Y128.01 E2.8303
G1 X185.908 Y128.9 E2.86034
G1 X185.632 Y129.912 E2.89523
G1 X185.338 Y130.792 E2.92609
G1 X185.123 Y131.381 E2.94694
G1 X184.776 Y132.214 E2.97696
G1 X184.318 Y133.08 E3.00954
G1 X183.987 Y133.639 E3.03115
G1 X183.774 Y133.983 E3.0446
G1 X183.433 Y134.51 E3.06548
G1 X182.909 Y135.246 E3.09553
G1 X182.217 Y136.043 E3.13064
G1 X181.804 Y136.472 E3.15044
G1 X181.567 Y136.71 E3.16161
G1 X181.095 Y137.169 E3.18351
G1 X180.42 Y137.77 E3.21357
G1 X179.564 Y138.396 E3.24884
G1 X179.033 Y138.743 E3.26994
G1 X178.759 Y138.915 E3.2807
G1 X178.232 Y139.236 E3.30122
G1 X177.739 Y139.518 E3.32012
G1 X176.65 Y140.101 E3.3612
G1 X174.34 Y141.377 E3.44897
G1 X172.148 Y142.672 E3.53365
G1 X170.009 Y144.017 E3.61769
G1 X167.92 Y145.415 E3.70129
G1 X165.833 Y146.899 E3.78647
G1 X163.791 Y148.439 E3.87153
G1 X161.817 Y150.019 E3.95563
G1 X159.869 Y151.67 E4.04056
G1 X158.019 Y153.329 E4.12321
G1 X156.115 Y155.136 E4.21052
G1 X154.406 Y156.854 E4.29111
G1 X151.755 Y159.71 E4.42072
G1 X151.203 Y160.33 E4.44833
G1 X150.574 Y160.977 E4.47834
G1 X150.151 Y161.354 E4.49719
G1 X149.193 Y162.156 E4.53874
G1 X148.645 Y162.593 E4.56206
G1 X147.915 Y163.124 E4.59208
G1 X147.283 Y163.51 E4.61671
G1 X146.446 Y163.978 E4.64861
G1 X146.068 Y164.178 E4.66283
G1 X145.455 Y164.493 E4.68575
G1 X144.634 Y164.87 E4.7158
G1 X143.883 Y165.142 E4.74237
G1 X142.844 Y165.469 E4.77859
G1 X142.026 Y165.707 E4.80693
G1 X141.148 Y165.921 E4.83699
G1 X140.28 Y166.053 E4.86619
G1 X139.034 Y166.185 E4.90786
G1 X138.532 Y166.227 E4.92462
G1 X137.892 Y166.261 E4.94593
G1 X136.469 Y166.288 E4.99327
G1 X98.07 Y166.288 E6.27043
G1 X97.553 Y166.281 E6.28763
G1 X96.901 Y166.251 E6.30933
G1 X95.704 Y166.158 E6.34927
G1 X95.353 Y166.125 E6.36099
G1 X94.678 Y166.049 E6.38358
G1 X93.786 Y165.908 E6.41362
G1 X92.954 Y165.702 E6.44213
G1 X91.798 Y165.361 E6.48222
G1 X91.112 Y165.142 E6.50617
G1 X90.265 Y164.829 E6.5362
G1 X89.545 Y164.494 E6.56261
G1 X88.455 Y163.922 E6.60355
G1 X87.802 Y163.561 E6.62837
G1 X87.032 Y163.089 E6.65841
G1 X86.348 Y162.585 E6.68667
G1 X85.354 Y161.783 E6.72915
G1 X84.87 Y161.374 E6.75022
G1 X84.207 Y160.761 E6.78026
G1 X83.88 Y160.415 E6.79609
G1 X83.119 Y159.571 E6.83389
G1 X81.299 Y157.593 E6.92329
G1 X79.518 Y155.766 E7.00815
G1 X77.722 Y154.022 E7.09142
G1 X75.817 Y152.275 E7.17739
G1 X73.934 Y150.646 E7.2602
G1 X71.945 Y149.021 E7.34562
G1 X69.934 Y147.468 E7.43013
G1 X67.868 Y145.965 E7.51511
G1 X65.805 Y144.553 E7.59826
G1 X63.651 Y143.166 E7.68347
G1 X61.467 Y141.845 E7.76836
G1 X59.308 Y140.621 E7.85091
G1 X58.417 Y140.151 E7.88441
G1 X57.192 Y139.48 E7.93087
G1 X56.801 Y139.254 E7.94589
G1 X56.02 Y138.775 E7.97636
G1 X55.488 Y138.431 E7.99743
G1 X54.752 Y137.908 E8.02746
G1 X53.936 Y137.199 E8.06342
G1 X53.297 Y136.575 E8.09312
G1 X52.837 Y136.103 E8.11504
G1 X52.236 Y135.429 E8.14508
G1 X51.594 Y134.549 E8.18131
G1 X51.088 Y133.764 E8.21237
G1 X50.767 Y133.238 E8.23287
G1 X50.331 Y132.447 E8.26291
G1 X49.897 Y131.436 E8.2995
G1 X49.586 Y130.574 E8.32998
G1 X49.386 Y129.975 E8.35098
G1 X49.138 Y129.107 E8.38101
G1 X48.942 Y128.029 E8.41745
G1 X48.835 Y127.149 E8.44694
G1 X48.771 Y126.496 E8.46876
G1 X48.723 Y125.657 E8.49671
G1 X48.712 Y124.847 E8.52365
G1 X48.712 Y110.066 E9.01527
G1 X48.722 Y109.357 E9.03885
G1 X48.768 Y108.52 E9.06674
G1 X48.862 Y107.598 E9.09756
G1 X48.939 Y106.99 E9.11794
G1 X49.092 Y106.1 E9.14798
G1 X49.368 Y105.088 E9.18287
G1 X49.665 Y104.2 E9.21401
G1 X49.893 Y103.577 E9.23608
G1 X50.241 Y102.744 E9.2661
G1 X50.748 Y101.799 E9.30177
G1 X51.225 Y101.02 E9.33215
G1 X51.569 Y100.488 E9.35322
G1 X52.092 Y99.752 E9.38325
G1 X52.81 Y98.927 E9.41963
G1 X53.426 Y98.297 E9.44894
G1 X53.898 Y97.837 E9.47086
G1 X54.572 Y97.236 E9.50089
G1 X55.441 Y96.601 E9.53669
G1 X55.971 Y96.255 E9.55774
G1 X56.241 Y96.085 E9.56835
G1 X56.768 Y95.764 E9.58888
G1 X57.261 Y95.482 E9.60777
G1 X58.35 Y94.899 E9.64885
G1 X60.66 Y93.623 E9.73662
G1 X62.852 Y92.328 E9.8213
G1 X64.991 Y90.983 E9.90534
G1 X67.08 Y89.585 E9.98895
G1 X69.167 Y88.101 E10.07412
G1 X71.209 Y86.561 E10.15919
G1 X73.183 Y84.981 E10.24328
G1 X75.131 Y83.33 E10.32821
G1 X76.981 Y81.671 E10.41086
G1 X78.885 Y79.864 E10.49817
G1 X80.594 Y78.146 E10.57877
G1 X83.245 Y75.29 E10.70837
G1 X83.797 Y74.67 E10.73598
G1 X84.426 Y74.023 E10.766
G1 X84.849 Y73.646 E10.78484
G1 X85.813 Y72.839 E10.82666
G1 X86.377 Y72.39 E10.85063
G1 X87.108 Y71.859 E10.88068
G1 X87.816 Y71.432 E10.90818
G1 X88.933 Y70.822 E10.95051
G1 X89.55 Y70.505 E10.97359
G1 X90.37 Y70.129 E11.00359
G1 X91.124 Y69.856 E11.03026
G1 X92.156 Y69.532 E11.06624
G1 X92.969 Y69.295 E11.0944
G1 X93.847 Y69.08 E11.12447
G1 X94.72 Y68.947 E11.15384
G1 X95.966 Y68.815 E11.19551
G1 X96.468 Y68.773 E11.21227
G1 X97.108 Y68.739 E11.23358
G1 X98.531 Y68.712 E11.28092
G1 X136.93 Y68.712 E12.55808
G1 X137.447 Y68.719 E12.57528
G0 F6000 X137.453 Y68.319
G1 F1200 X138.13 Y68.35 E12.59782
G1 X139.327 Y68.443 E12.63775
G1 X139.692 Y68.478 E12.64994
G1 X140.367 Y68.554 E12.67254
G1 X141.277 Y68.696 E12.70317
G1 X142.159 Y68.914 E12.73339
G1 X143.324 Y69.258 E12.77379
G1 X144.01 Y69.477 E12.79774
G1 X144.874 Y69.795 E12.82836
G1 X145.686 Y70.176 E12.85819
G1 X146.739 Y70.728 E12.89774
G1 X147.395 Y71.091 E12.92267
G1 X148.181 Y71.572 E12.95332
G1 X148.888 Y72.091 E12.98249
G1 X149.706 Y72.749 E13.01741
G1 X150.352 Y73.29 E13.04544
G1 X151.031 Y73.912 E13.07606
G1 X151.417 Y74.317 E13.09467
G1 X152.207 Y75.193 E13.13391
G1 X153.999 Y77.14 E13.22192
G1 X155.745 Y78.932 E13.30513
G1 X157.562 Y80.695 E13.38934
G1 X159.451 Y82.428 E13.4746
G1 X161.314 Y84.04 E13.55654
G1 X163.311 Y85.671 E13.6423
G1 X165.295 Y87.203 E13.72567
G1 X167.354 Y88.701 E13.81036
G1 X169.424 Y90.119 E13.89381
G1 X171.55 Y91.488 E13.97791
G1 X173.742 Y92.814 E14.06312
G1 X175.909 Y94.042 E14.14597
G1 X176.773 Y94.497 E14.17844
G1 X177.995 Y95.166 E14.22478
G1 X178.406 Y95.403 E14.24056
G1 X179.198 Y95.889 E14.27147
G1 X179.73 Y96.233 E14.29254
G1 X180.48 Y96.766 E14.32314
G1 X181.342 Y97.514 E14.3611
G1 X181.989 Y98.146 E14.39118
G1 X182.448 Y98.617 E14.41306
G1 X183.062 Y99.304 E14.4437
G1 X183.74 Y100.232 E14.48193
G1 X184.255 Y101.031 E14.51354
G1 X184.575 Y101.556 E14.53399
G1 X185.02 Y102.362 E14.56462
G1 X185.469 Y103.405 E14.60238
G1 X185.684 Y103.988 E14.62305
G1 X185.797 Y104.309 E14.63437
G1 X185.995 Y104.904 E14.65523
G1 X186.247 Y105.789 E14.68583
G1 X186.449 Y106.888 E14.723
G1 X186.526 Y107.482 E14.74292
G1 X186.563 Y107.811 E14.75393
G1 X186.626 Y108.454 E14.77542
G1 X186.676 Y109.313 E14.80404
G1 X186.688 Y110.153 E14.83198
G1 X186.688 Y124.941 E15.32383
G1 X186.678 Y125.644 E15.34721
G1 X186.631 Y126.503 E15.37583
G1 X186.571 Y127.13 E15.39678
G1 X186.535 Y127.452 E15.40755
G1 X186.458 Y128.06 E15.42794
G1 X186.303 Y128.967 E15.45854
G1 X186.012 Y130.037 E15.49542
G1 X185.826 Y130.603 E15.51524
G1 X185.713 Y130.929 E15.52671
G1 X185.498 Y131.518 E15.54757
G1 X185.145 Y132.368 E15.57818
G1 X184.662 Y133.284 E15.61262
G1 X184.331 Y133.843 E15.63423
G1 X184.109 Y134.2 E15.64821
G1 X183.768 Y134.727 E15.66909
G1 X183.235 Y135.478 E15.69972
G1 X182.505 Y136.321 E15.73681
G1 X182.092 Y136.75 E15.75662
G1 X181.846 Y136.997 E15.76821
G1 X181.374 Y137.456 E15.79011
G1 X180.687 Y138.069 E15.82073
G1 X179.783 Y138.73 E15.85798
G1 X179.252 Y139.077 E15.87908
G1 X178.967 Y139.257 E15.89029
G1 X178.44 Y139.578 E15.91081
G1 X177.928 Y139.871 E15.93043
G1 X176.794 Y140.478 E15.97321
G1 X174.557 Y141.714 E16.05822
G1 X172.358 Y143.013 E16.14316
G1 X170.24 Y144.345 E16.22638
G1 X168.128 Y145.758 E16.3109
G1 X166.06 Y147.228 E16.39529
G1 X164.036 Y148.755 E16.47962
G1 X162.08 Y150.32 E16.56293
G1 X160.132 Y151.972 E16.64789
G1 X158.279 Y153.634 E16.73067
G1 X156.427 Y155.391 E16.81558
G1 X154.672 Y157.156 E16.89837
G1 X152.063 Y159.965 E17.02588
G1 X151.502 Y160.596 E17.05396
G1 X150.861 Y161.256 E17.08456
G1 X150.409 Y161.66 E17.10472
G1 X149.443 Y162.469 E17.14663
G1 X148.895 Y162.906 E17.16994
G1 X148.151 Y163.448 E17.20056
G1 X147.479 Y163.859 E17.22676
G1 X146.251 Y164.534 E17.27337
G1 X145.638 Y164.849 E17.29629
G1 X144.801 Y165.234 E17.32693
G1 X144.004 Y165.523 E17.35513
G1 X142.955 Y165.853 E17.3917
G1 X142.137 Y166.091 E17.42004
G1 X141.243 Y166.31 E17.45065
G1 X140.323 Y166.451 E17.48161
G1 X139.068 Y166.584 E17.52359
G1 X138.566 Y166.626 E17.54034
G1 X137.9 Y166.661 E17.56252
G1 X136.469 Y166.688 E17.61013
G1 X98.064 Y166.688 E18.88748
G1 X97.547 Y166.681 E18.90468
G1 X96.87 Y166.65 E18.92722
G1 X95.673 Y166.557 E18.96715
G1 X95.308 Y166.522 E18.97935
G1 X94.633 Y166.446 E19.00194
G1 X93.723 Y166.304 E19.03257
G1 X92.841 Y166.086 E19.06279
G1 X91.676 Y165.742 E19.10319
G1 X90.99 Y165.523 E19.12714
G1 X90.126 Y165.205 E19.15777
G1 X89.362 Y164.85 E19.18579
G1 X88.261 Y164.272 E19.22714
G1 X87.608 Y163.911 E19.25196
G1 X86.823 Y163.431 E19.28256
G1 X86.098 Y162.897 E19.31251
G1 X85.096 Y162.088 E19.35535
G1 X84.612 Y161.679 E19.37642
G1 X83.936 Y161.055 E19.40702
G1 X83.583 Y160.683 E19.42408
G1 X82.793 Y159.807 E19.46331
G1 X81.002 Y157.86 E19.5513
G1 X79.254 Y156.067 E19.63459
G1 X77.419 Y154.286 E19.71964
G1 X75.587 Y152.606 E19.80231
G1 X73.644 Y150.925 E19.88776
G1 X71.694 Y149.331 E19.97153
G1 X69.7 Y147.792 E20.05531
G1 X67.652 Y146.302 E20.13955
G1 X65.593 Y144.892 E20.22255
G1 X63.45 Y143.512 E20.30733
G1 X61.258 Y142.186 E20.39253
G1 X59.091 Y140.958 E20.47538
G1 X58.225 Y140.502 E20.50793
G1 X57 Y139.831 E20.55438
G1 X56.593 Y139.596 E20.57002
G1 X55.802 Y139.111 E20.60088
G1 X55.27 Y138.767 E20.62195
G1 X54.52 Y138.234 E20.65255
G1 X53.658 Y137.486 E20.69051
G1 X53.011 Y136.854 E20.72059
G1 X52.551 Y136.382 E20.74251
G1 X51.937 Y135.696 E20.77313
G1 X51.259 Y134.767 E20.81139
G1 X50.747 Y133.973 E20.84281
G1 X50.426 Y133.447 E20.8633
G1 X49.981 Y132.641 E20.89393
G1 X49.522 Y131.574 E20.93256
G1 X49.207 Y130.701 E20.96343
G1 X49.007 Y130.102 E20.98443
G1 X48.753 Y129.217 E21.01505
G1 X48.545 Y128.079 E21.05353
G1 X48.47 Y127.488 E21.07335
G1 X48.437 Y127.188 E21.08338
G1 X48.373 Y126.535 E21.10521
G1 X48.323 Y125.663 E21.13426
G1 X48.312 Y124.847 E21.1614
G1 X48.312 Y110.061 E21.65319
G1 X48.322 Y109.352 E21.67677
G1 X48.37 Y108.482 E21.70575
G1 X48.465 Y107.548 E21.73697
G1 X48.542 Y106.94 E21.75736
G1 X48.697 Y106.033 E21.78796
G1 X48.988 Y104.963 E21.82484
G1 X49.174 Y104.397 E21.84466
G1 X49.29 Y104.063 E21.85642
G1 X49.518 Y103.44 E21.87848
G1 X49.871 Y102.59 E21.9091
G1 X50.406 Y101.591 E21.94679
G1 X50.889 Y100.802 E21.97756
G1 X51.233 Y100.27 E21.99863
G1 X51.766 Y99.52 E22.02923
G1 X52.523 Y98.648 E22.06764
G1 X53.147 Y98.011 E22.0973
G1 X53.619 Y97.551 E22.11922
G1 X54.305 Y96.937 E22.14984
G1 X55.222 Y96.266 E22.18763
G1 X55.752 Y95.92 E22.20868
G1 X56.033 Y95.743 E22.21973
G1 X56.56 Y95.422 E22.24025
G1 X57.072 Y95.129 E22.25987
G1 X58.206 Y94.522 E22.30265
G1 X60.443 Y93.286 E22.38766
G1 X62.642 Y91.987 E22.4726
G1 X64.76 Y90.655 E22.55582
G1 X66.872 Y89.242 E22.64034
G1 X68.94 Y87.772 E22.72473
G1 X70.964 Y86.245 E22.80906
G1 X72.92 Y84.68 E22.89237
G1 X74.868 Y83.028 E22.97733
G1 X76.721 Y81.366 E23.06011
G1 X78.573 Y79.609 E23.14502
G1 X80.328 Y77.844 E23.22781
G1 X82.937 Y75.035 E23.35532
G1 X83.498 Y74.404 E23.3834
G1 X84.139 Y73.744 E23.414
G1 X84.591 Y73.34 E23.43416
G1 X85.564 Y72.526 E23.47636
G1 X86.128 Y72.077 E23.50033
G1 X86.872 Y71.535 E23.53095
G1 X87.623 Y71.081 E23.56014
G1 X88.75 Y70.467 E23.60282
G1 X89.367 Y70.15 E23.6259
G1 X90.203 Y69.765 E23.65651
G1 X91.003 Y69.475 E23.68481
G1 X92.044 Y69.148 E23.7211
G1 X92.857 Y68.911 E23.74927
G1 X93.752 Y68.692 E23.77991
G1 X94.677 Y68.549 E23.81105
G1 X95.932 Y68.416 E23.85302
G1 X96.434 Y68.374 E23.86978
G1 X97.1 Y68.339 E23.89196
G1 X98.531 Y68.312 E23.93956
G1 X136.936 Y68.312 E25.21692
G1 X137.453 Y68.319 E25.23411
G0 F6000 X137.458 Y67.919
G1 F1200 X138.161 Y67.951 E25.25752
G1 X139.358 Y68.044 E25.29745
G1 X139.737 Y68.08 E25.31011
G1 X140.412 Y68.156 E25.33271
G1 X141.338 Y68.301 E25.36388
G1 X142.271 Y68.53 E25.39583
G1 X143.445 Y68.877 E25.43655
G1 X144.131 Y69.096 E25.4605
G1 X145.012 Y69.419 E25.49171
G1 X145.871 Y69.821 E25.52326
G1 X146.933 Y70.378 E25.56314
G1 X147.589 Y70.741 E25.58808
G1 X148.389 Y71.23 E25.61926
G1 X149.138 Y71.779 E25.65015
G1 X149.963 Y72.443 E25.68537
G1 X150.609 Y72.984 E25.7134
G1 X151.301 Y73.616 E25.74457
G1 X151.714 Y74.049 E25.76447
G1 X152.516 Y74.938 E25.80429
G1 X154.279 Y76.854 E25.89089
G1 X156.028 Y78.649 E25.97425
G1 X157.864 Y80.431 E26.05935
G1 X159.681 Y82.097 E26.14134
G1 X161.605 Y83.761 E26.22595
G1 X163.54 Y85.343 E26.30908
G1 X165.551 Y86.896 E26.39359
G1 X167.57 Y88.364 E26.47661
G1 X169.645 Y89.785 E26.56026
G1 X171.769 Y91.152 E26.64427
G1 X173.941 Y92.466 E26.7287
G1 X176.101 Y93.691 E26.81129
G1 X176.965 Y94.146 E26.84377
G1 X178.187 Y94.815 E26.89011
G1 X178.613 Y95.061 E26.90647
G1 X179.415 Y95.553 E26.93776
G1 X179.947 Y95.897 E26.95883
G1 X180.712 Y96.439 E26.99002
G1 X181.621 Y97.226 E27.03001
G1 X182.045 Y97.636 E27.04962
G1 X182.276 Y97.867 E27.06049
G1 X182.735 Y98.338 E27.08236
G1 X183.36 Y99.037 E27.11355
G1 X184.076 Y100.013 E27.15381
G1 X184.423 Y100.546 E27.17496
G1 X184.597 Y100.823 E27.18584
G1 X184.917 Y101.348 E27.20629
G1 X185.37 Y102.169 E27.23748
G1 X185.845 Y103.267 E27.27727
G1 X186.06 Y103.85 E27.29794
G1 X186.176 Y104.183 E27.30967
G1 X186.374 Y104.778 E27.33052
G1 X186.632 Y105.679 E27.3617
G1 X186.846 Y106.837 E27.40086
G1 X186.923 Y107.431 E27.42079
