;FLAVOR:Marlin
;TIME:11279
;Filament used: 9.42625m
;Layer height: 0.28
;MINX:47.798
;MINY:67.798
;MINZ:0.28
;MAXX:187.202
;MAXY:167.202
;MAXZ:5.88
;Generated with Cura_SteamEngine 4.6.1
M140 S50
M105
M190 S50
M104 S210
M105
M109 S210
M82 ;absolute extrusion mode
; Ender 3 Custom Start G-code
G92 E0 ; Reset Extruder
G28 ; Home all axes
G1 Z2.0 F3000 ; Move Z Axis up little to prevent scratching of Heat Bed
G1 X0.1 Y20 Z0.3 F5000.0 ; Move to start position
G1 X0.1 Y200.0 Z0.3 F1500.0 E15 ; Draw the first line
G1 X0.4 Y200.0 Z0.3 F5000.0 ; Move to side a little
G1 X0.4 Y20 Z0.3 F1500.0 E30 ; Draw the second line
G92 E0 ; Reset Extruder
G1 Z2.0 F3000 ; Move Z Axis up little to prevent scratching of Heat Bed
G1 X5 Y20 Z0.3 F5000.0 ; Move over to prevent blob squish
G92 E0
G92 E0
G1 F2700 E-5
;LAYER_COUNT:21
;LAYER:0
M107
G0 F6000 X137.454 Y68.605 Z0.28
;TYPE:SKIRT
G1 F2700 E0
G1 F1200 X138.111 Y68.635 E0.03062
G1 X139.304 Y68.728 E0.08634
G1 X139.654 Y68.761 E0.10271
G1 X140.328 Y68.837 E0.1343
G1 X141.22 Y68.978 E0.17635
G1 X141.965 Y69.159 E0.21205
G1 X143.254 Y69.536 E0.27458
G1 X143.923 Y69.749 E0.30728
G1 X144.771 Y70.061 E0.34935
G1 X145.558 Y70.431 E0.38984
G1 X146.675 Y71.018 E0.4486
G1 X147.263 Y71.344 E0.47991
G1 X148.033 Y71.817 E0.52199
G1 X148.641 Y72.262 E0.55707
G1 X149.339 Y72.816 E0.59856
G1 X149.7 Y73.113 E0.62033
G1 X150.222 Y73.554 E0.65215
G1 X150.885 Y74.167 E0.6942
G1 X151.249 Y74.554 E0.71894
G1 X151.881 Y75.262 E0.76313
G1 X153.627 Y77.167 E0.88345
G1 X155.404 Y79 E1.00233
G1 X157.2 Y80.749 E1.11906
G1 X159.084 Y82.484 E1.23832
G1 X161 Y84.151 E1.35658
G1 X162.968 Y85.766 E1.47512
G1 X164.956 Y87.306 E1.59222
G1 X167.048 Y88.835 E1.71288
G1 X169.105 Y90.25 E1.82913
G1 X171.252 Y91.641 E1.94825
G1 X173.402 Y92.947 E2.06539
G1 X175.617 Y94.208 E2.18407
G1 X176.614 Y94.74 E2.23669
G1 X177.828 Y95.4 E2.30104
G1 X178.258 Y95.647 E2.32413
G1 X179.048 Y96.133 E2.36732
G1 X179.591 Y96.485 E2.39745
G1 X180.327 Y97.009 E2.43952
G1 X181.12 Y97.699 E2.48847
G1 X181.559 Y98.122 E2.51685
G1 X181.793 Y98.355 E2.53223
G1 X182.257 Y98.832 E2.56321
G1 X182.858 Y99.506 E2.60526
G1 X183.479 Y100.356 E2.65428
G1 X183.813 Y100.866 E2.68267
G1 X183.991 Y101.147 E2.69816
G1 X184.32 Y101.687 E2.7276
G1 X184.755 Y102.478 E2.76964
G1 X185.146 Y103.376 E2.81524
G1 X185.393 Y104.027 E2.84766
G1 X185.534 Y104.424 E2.86728
G1 X185.728 Y105.007 E2.89589
G1 X185.975 Y105.876 E2.93796
G1 X186.171 Y106.961 E2.9893
G1 X186.284 Y107.896 E3.03315
G1 X186.343 Y108.498 E3.06132
G1 X186.391 Y109.34 E3.10059
G1 X186.402 Y110.16 E3.13878
G1 X186.402 Y124.935 E3.82676
G1 X186.392 Y125.637 E3.85945
G1 X186.347 Y126.463 E3.89797
G1 X186.288 Y127.08 E3.92683
G1 X186.253 Y127.389 E3.94131
G1 X186.17 Y128.045 E3.9721
G1 X186.017 Y128.935 E4.01415
G1 X185.734 Y129.971 E4.06416
G1 X185.538 Y130.563 E4.0932
G1 X185.429 Y130.874 E4.10854
G1 X185.213 Y131.462 E4.13771
G1 X184.865 Y132.295 E4.17975
G1 X184.399 Y133.17 E4.22591
G1 X184.068 Y133.725 E4.256
G1 X183.874 Y134.037 E4.27311
G1 X183.523 Y134.58 E4.30322
G1 X183 Y135.316 E4.34526
G1 X182.294 Y136.129 E4.3954
G1 X181.653 Y136.786 E4.43814
G1 X181.177 Y137.25 E4.46909
G1 X180.503 Y137.851 E4.51114
G1 X179.638 Y138.484 E4.56105
G1 X179.127 Y138.818 E4.58948
G1 X178.847 Y138.994 E4.60488
G1 X178.293 Y139.331 E4.63507
G1 X177.813 Y139.606 E4.66083
G1 X176.711 Y140.197 E4.71906
G1 X174.391 Y141.48 E4.8425
G1 X172.217 Y142.764 E4.96007
G1 X170.077 Y144.112 E5.07784
G1 X167.977 Y145.517 E5.19549
G1 X165.88 Y147.01 E5.31536
G1 X163.862 Y148.532 E5.43305
G1 X161.893 Y150.108 E5.55049
G1 X159.932 Y151.771 E5.67022
G1 X158.072 Y153.44 E5.78658
G1 X156.197 Y155.221 E5.907
G1 X154.442 Y156.985 E6.02287
G1 X151.974 Y159.638 E6.19159
G1 X151.259 Y160.437 E6.24152
G1 X150.628 Y161.083 E6.28357
G1 X150.22 Y161.445 E6.30896
G1 X149.269 Y162.24 E6.36668
G1 X148.68 Y162.709 E6.40174
G1 X147.949 Y163.24 E6.44381
G1 X147.226 Y163.676 E6.48312
G1 X146.137 Y164.269 E6.54086
G1 X145.55 Y164.573 E6.57165
G1 X144.73 Y164.953 E6.61373
G1 X143.98 Y165.227 E6.65091
G1 X143.034 Y165.531 E6.69718
G1 X142.715 Y165.628 E6.7127
G1 X142.001 Y165.832 E6.74728
G1 X141.123 Y166.041 E6.78931
G1 X140.365 Y166.157 E6.82501
G1 X139.047 Y166.298 E6.88673
G1 X138.504 Y166.343 E6.91211
G1 X137.872 Y166.376 E6.94157
G1 X136.499 Y166.402 E7.00552
G1 X98.072 Y166.402 E8.79484
G1 X97.546 Y166.395 E8.81934
G1 X96.889 Y166.365 E8.84996
G1 X95.696 Y166.272 E8.90568
G1 X95.346 Y166.239 E8.92205
G1 X94.672 Y166.163 E8.95363
G1 X93.78 Y166.022 E8.99568
G1 X93.035 Y165.841 E9.03138
G1 X91.746 Y165.464 E9.09392
G1 X91.077 Y165.251 E9.12661
G1 X90.229 Y164.939 E9.16868
G1 X89.442 Y164.569 E9.20918
G1 X88.327 Y163.983 E9.26783
G1 X87.742 Y163.659 E9.29897
G1 X86.972 Y163.187 E9.34103
G1 X86.358 Y162.738 E9.37644
G1 X85.657 Y162.181 E9.41814
G1 X85.299 Y161.886 E9.43974
G1 X84.777 Y161.445 E9.47156
G1 X84.114 Y160.832 E9.5136
G1 X83.75 Y160.444 E9.53837
G1 X83.153 Y159.775 E9.58013
G1 X81.373 Y157.833 E9.70279
G1 X79.595 Y155.999 E9.82173
G1 X77.8 Y154.251 E9.9384
G1 X75.915 Y152.515 E10.05773
G1 X73.999 Y150.849 E10.17595
G1 X72.036 Y149.237 E10.29423
G1 X70.039 Y147.69 E10.41186
G1 X67.952 Y146.165 E10.53221
G1 X65.895 Y144.75 E10.64847
G1 X63.748 Y143.359 E10.76759
G1 X61.598 Y142.053 E10.88473
G1 X59.383 Y140.792 E11.00341
G1 X58.385 Y140.259 E11.05609
G1 X57.166 Y139.596 E11.12071
G1 X56.737 Y139.349 E11.14376
G1 X55.952 Y138.867 E11.18665
G1 X55.409 Y138.515 E11.21678
G1 X54.673 Y137.991 E11.25885
G1 X53.88 Y137.301 E11.3078
G1 X53.199 Y136.638 E11.35206
G1 X52.734 Y136.159 E11.38314
G1 X52.135 Y135.484 E11.42516
G1 X51.515 Y134.634 E11.47415
G1 X51.009 Y133.851 E11.51756
G1 X50.668 Y133.291 E11.54809
G1 X50.233 Y132.5 E11.59013
G1 X49.824 Y131.554 E11.63812
G1 X49.588 Y130.922 E11.66953
G1 X49.472 Y130.595 E11.68569
G1 X49.278 Y130.016 E11.71412
G1 X49.03 Y129.147 E11.7562
G1 X48.828 Y128.036 E11.80878
G1 X48.714 Y127.091 E11.85311
G1 X48.655 Y126.481 E11.88164
G1 X48.609 Y125.654 E11.92021
G1 X48.598 Y124.84 E11.95812
G1 X48.598 Y110.066 E12.64606
G1 X48.608 Y109.357 E12.67907
G1 X48.654 Y108.519 E12.71815
G1 X48.745 Y107.624 E12.76004
G1 X48.827 Y106.969 E12.79078
G1 X48.979 Y106.079 E12.83282
G1 X49.273 Y105.006 E12.88463
G1 X49.566 Y104.14 E12.9272
G1 X49.792 Y103.522 E12.95784
G1 X50.14 Y102.688 E12.99992
G1 X50.667 Y101.709 E13.05169
G1 X51.128 Y100.96 E13.09264
G1 X51.478 Y100.419 E13.12265
G1 X52.002 Y99.684 E13.16468
G1 X52.69 Y98.89 E13.2136
G1 X53.117 Y98.446 E13.24228
G1 X53.365 Y98.197 E13.25865
G1 X53.841 Y97.735 E13.28954
G1 X54.516 Y97.135 E13.33159
G1 X55.361 Y96.518 E13.38031
G1 X55.87 Y96.185 E13.40863
G1 X56.149 Y96.009 E13.42399
G1 X56.704 Y95.671 E13.45425
G1 X57.18 Y95.399 E13.47978
G1 X58.244 Y94.827 E13.53603
G1 X60.601 Y93.523 E13.66146
G1 X62.77 Y92.243 E13.77873
G1 X64.949 Y90.871 E13.89863
G1 X67.04 Y89.471 E14.0158
G1 X69.103 Y88.004 E14.13368
G1 X71.152 Y86.457 E14.25323
G1 X73.102 Y84.897 E14.36951
G1 X75.059 Y83.237 E14.489
G1 X76.934 Y81.555 E14.60629
G1 X78.804 Y79.779 E14.72638
G1 X80.558 Y78.016 E14.84218
G1 X83.024 Y75.366 E15.01074
G1 X83.739 Y74.566 E15.0607
G1 X84.37 Y73.92 E15.10275
G1 X84.771 Y73.564 E15.12772
G1 X85.729 Y72.761 E15.18592
G1 X86.315 Y72.294 E15.22081
G1 X87.046 Y71.763 E15.26288
G1 X87.727 Y71.35 E15.29997
G1 X88.864 Y70.73 E15.36027
G1 X89.455 Y70.424 E15.39126
G1 X90.275 Y70.045 E15.43333
G1 X90.978 Y69.786 E15.46821
G1 X92.285 Y69.372 E15.53205
G1 X92.999 Y69.168 E15.56663
G1 X93.877 Y68.959 E15.60866
G1 X94.635 Y68.843 E15.64436
G1 X95.953 Y68.702 E15.70608
G1 X96.496 Y68.657 E15.73145
G1 X97.128 Y68.624 E15.76092
G1 X98.501 Y68.598 E15.82487
G1 X136.928 Y68.598 E17.61419
G1 X137.454 Y68.605 E17.63868
G0 F6000 X137.459 Y68.205
G1 F1200 X138.142 Y68.236 E17.67052
G1 X139.335 Y68.329 E17.72624
G1 X139.699 Y68.364 E17.74327
G1 X140.373 Y68.44 E17.77485
G1 X141.282 Y68.583 E17.8177
G1 X142.074 Y68.774 E17.85563
G1 X143.376 Y69.155 E17.9188
G1 X144.045 Y69.368 E17.9515
G1 X144.909 Y69.685 E17.99435
G1 X145.744 Y70.076 E18.03728
G1 X146.869 Y70.668 E18.09648
G1 X147.457 Y70.994 E18.12778
G1 X148.242 Y71.475 E18.17065
G1 X148.889 Y71.948 E18.20797
G1 X149.593 Y72.507 E18.24983
G1 X149.958 Y72.808 E18.27186
G1 X150.48 Y73.249 E18.30368
G1 X151.157 Y73.873 E18.34655
G1 X151.547 Y74.288 E18.37307
G1 X152.154 Y74.968 E18.41551
G1 X153.909 Y76.883 E18.53647
G1 X155.688 Y78.718 E18.65547
G1 X157.486 Y80.469 E18.77234
G1 X159.351 Y82.187 E18.89041
G1 X161.271 Y83.856 E19.00887
G1 X163.182 Y85.425 E19.124
G1 X165.237 Y87.017 E19.24505
G1 X167.241 Y88.482 E19.36064
G1 X169.328 Y89.917 E19.47857
G1 X171.472 Y91.306 E19.59753
G1 X173.628 Y92.616 E19.715
G1 X175.797 Y93.851 E19.83122
G1 X176.805 Y94.388 E19.8844
G1 X178.019 Y95.048 E19.94875
G1 X178.466 Y95.306 E19.97278
G1 X179.266 Y95.797 E20.01649
G1 X179.809 Y96.149 E20.04662
G1 X180.559 Y96.683 E20.08949
G1 X181.398 Y97.411 E20.14121
G1 X181.837 Y97.834 E20.1696
G1 X182.08 Y98.076 E20.18557
G1 X182.544 Y98.553 E20.21656
G1 X183.157 Y99.24 E20.25943
G1 X183.814 Y100.137 E20.3112
G1 X184.148 Y100.647 E20.33959
G1 X184.332 Y100.939 E20.35566
G1 X184.661 Y101.479 E20.3851
G1 X185.106 Y102.285 E20.42798
G1 X185.52 Y103.234 E20.47619
G1 X185.767 Y103.885 E20.50861
G1 X185.914 Y104.298 E20.52902
G1 X186.108 Y104.881 E20.55763
G1 X186.36 Y105.767 E20.60052
G1 X186.568 Y106.911 E20.65467
G1 X186.682 Y107.857 E20.69903
G1 X186.741 Y108.459 E20.7272
G1 X186.791 Y109.334 E20.76801
G1 X186.802 Y110.16 E20.80648
G1 X186.802 Y124.941 E21.49474
G1 X186.792 Y125.643 E21.52743
G1 X186.745 Y126.501 E21.56744
G1 X186.686 Y127.118 E21.59631
G1 X186.65 Y127.44 E21.61139
G1 X186.567 Y128.096 E21.64218
G1 X186.412 Y129.003 E21.68503
G1 X186.114 Y130.097 E21.73783
G1 X185.918 Y130.689 E21.76686
G1 X185.805 Y131.012 E21.7828
G1 X185.589 Y131.6 E21.81197
G1 X185.234 Y132.45 E21.85486
G1 X184.743 Y133.375 E21.90362
G1 X184.412 Y133.93 E21.93371
G1 X184.21 Y134.254 E21.95149
G1 X183.859 Y134.797 E21.9816
G1 X183.326 Y135.548 E22.02448
G1 X182.581 Y136.407 E22.07743
G1 X181.932 Y137.072 E22.12069
G1 X181.456 Y137.536 E22.15165
G1 X180.77 Y138.15 E22.19452
G1 X179.856 Y138.819 E22.24726
G1 X179.345 Y139.153 E22.27569
G1 X179.055 Y139.336 E22.29165
G1 X178.501 Y139.673 E22.32185
G1 X178.002 Y139.958 E22.34861
G1 X176.952 Y140.521 E22.40408
G1 X174.609 Y141.817 E22.52876
G1 X172.429 Y143.104 E22.64664
G1 X170.274 Y144.461 E22.76522
G1 X168.178 Y145.864 E22.88267
G1 X166.154 Y147.305 E22.99836
G1 X164.086 Y148.865 E23.11898
G1 X162.138 Y150.424 E23.23516
G1 X160.191 Y152.075 E23.35403
G1 X158.351 Y153.727 E23.46917
G1 X156.49 Y155.493 E23.58863
G1 X154.722 Y157.272 E23.70542
G1 X152.306 Y159.868 E23.87055
G1 X151.558 Y160.704 E23.92279
G1 X150.915 Y161.363 E23.96566
G1 X150.477 Y161.751 E23.99291
G1 X149.518 Y162.553 E24.05112
G1 X148.929 Y163.022 E24.08618
G1 X148.184 Y163.564 E24.12908
G1 X147.418 Y164.027 E24.17076
G1 X146.321 Y164.625 E24.22893
G1 X145.734 Y164.929 E24.25971
G1 X144.899 Y165.316 E24.30257
G1 X144.102 Y165.608 E24.34209
G1 X143.156 Y165.912 E24.38836
G1 X142.825 Y166.012 E24.40446
G1 X142.111 Y166.216 E24.43904
G1 X141.216 Y166.43 E24.48189
G1 X140.411 Y166.555 E24.51982
G1 X139.08 Y166.697 E24.58215
G1 X138.537 Y166.742 E24.60752
G1 X137.881 Y166.776 E24.63811
G1 X136.499 Y166.802 E24.70247
G1 X98.067 Y166.802 E26.49203
G1 X97.541 Y166.795 E26.51652
G1 X96.858 Y166.764 E26.54836
G1 X95.665 Y166.671 E26.60408
G1 X95.301 Y166.636 E26.6211
G1 X94.627 Y166.56 E26.65269
G1 X93.718 Y166.417 E26.69554
G1 X92.926 Y166.226 E26.73347
G1 X91.624 Y165.845 E26.79664
G1 X90.955 Y165.632 E26.82933
G1 X90.091 Y165.315 E26.87219
G1 X89.256 Y164.924 E26.91512
G1 X88.133 Y164.333 E26.97421
G1 X87.548 Y164.009 E27.00535
G1 X86.763 Y163.528 E27.04822
G1 X86.11 Y163.051 E27.08587
G1 X85.403 Y162.49 E27.1279
G1 X85.041 Y162.191 E27.14976
G1 X84.519 Y161.75 E27.18158
G1 X83.842 Y161.126 E27.22445
G1 X83.451 Y160.711 E27.251
G1 X82.796 Y159.977 E27.29681
G1 X81.091 Y158.117 E27.4143
G1 X79.311 Y156.281 E27.53338
G1 X77.514 Y154.531 E27.65018
G1 X75.648 Y152.812 E27.76831
G1 X73.746 Y151.159 E27.88565
G1 X71.783 Y149.547 E28.00393
G1 X69.781 Y147.996 E28.12185
G1 X67.759 Y146.518 E28.23848
G1 X65.672 Y145.083 E28.35641
G1 X63.528 Y143.694 E28.47536
G1 X61.372 Y142.384 E28.59284
G1 X59.203 Y141.149 E28.70906
G1 X58.193 Y140.611 E28.76234
G1 X56.974 Y139.948 E28.82696
G1 X56.529 Y139.691 E28.85089
G1 X55.734 Y139.203 E28.89432
G1 X55.191 Y138.851 E28.92446
G1 X54.441 Y138.317 E28.96733
G1 X53.602 Y137.589 E29.01905
G1 X53.163 Y137.166 E29.04744
G1 X52.912 Y136.916 E29.06393
G1 X52.447 Y136.437 E29.09502
G1 X51.835 Y135.75 E29.13786
G1 X51.18 Y134.853 E29.18958
G1 X50.667 Y134.059 E29.2336
G1 X50.326 Y133.499 E29.26413
G1 X49.882 Y132.693 E29.30697
G1 X49.45 Y131.694 E29.35766
G1 X49.214 Y131.062 E29.38907
G1 X49.093 Y130.722 E29.40587
G1 X48.899 Y130.143 E29.43431
G1 X48.645 Y129.258 E29.47718
G1 X48.431 Y128.086 E29.53266
G1 X48.316 Y127.129 E29.57754
G1 X48.257 Y126.519 E29.60607
G1 X48.209 Y125.66 E29.64614
G1 X48.198 Y124.84 E29.68432
G1 X48.198 Y110.061 E30.37249
G1 X48.208 Y109.352 E30.40551
G1 X48.256 Y108.481 E30.44613
G1 X48.348 Y107.574 E30.48858
G1 X48.43 Y106.919 E30.51932
G1 X48.584 Y106.012 E30.56216
G1 X48.894 Y104.879 E30.61685
G1 X49.191 Y104.002 E30.65997
G1 X49.417 Y103.384 E30.69061
G1 X49.77 Y102.534 E30.73347
G1 X50.326 Y101.5 E30.78813
G1 X50.792 Y100.743 E30.82952
G1 X51.142 Y100.202 E30.85953
G1 X51.675 Y99.452 E30.90237
G1 X52.402 Y98.612 E30.9541
G1 X52.829 Y98.168 E30.98278
G1 X53.086 Y97.91 E30.99974
G1 X53.562 Y97.448 E31.03063
G1 X54.25 Y96.836 E31.07351
G1 X55.142 Y96.184 E31.12495
G1 X55.651 Y95.851 E31.15328
G1 X55.94 Y95.668 E31.1692
G1 X56.495 Y95.33 E31.19946
G1 X56.99 Y95.046 E31.22604
G1 X58.101 Y94.449 E31.28477
G1 X60.425 Y93.163 E31.40844
G1 X62.559 Y91.904 E31.52382
G1 X64.71 Y90.549 E31.64219
G1 X66.815 Y89.14 E31.76014
G1 X68.875 Y87.674 E31.87787
G1 X70.884 Y86.158 E31.99507
G1 X72.86 Y84.578 E32.11287
G1 X74.817 Y82.918 E32.23237
G1 X76.655 Y81.268 E32.34738
G1 X78.511 Y79.507 E32.46651
G1 X80.278 Y77.729 E32.58324
G1 X82.692 Y75.136 E32.7482
G1 X83.44 Y74.299 E32.80047
G1 X84.083 Y73.64 E32.84334
G1 X84.513 Y73.258 E32.87013
G1 X85.48 Y72.448 E32.92886
G1 X86.066 Y71.981 E32.96376
G1 X86.81 Y71.439 E33.00662
G1 X87.533 Y71 E33.046
G1 X88.68 Y70.375 E33.10683
G1 X89.271 Y70.069 E33.13782
G1 X90.106 Y69.682 E33.18067
G1 X90.854 Y69.406 E33.2178
G1 X92.175 Y68.988 E33.28231
G1 X92.889 Y68.784 E33.31689
G1 X93.784 Y68.57 E33.35974
G1 X94.589 Y68.445 E33.39767
G1 X95.92 Y68.303 E33.46
G1 X96.463 Y68.258 E33.48537
G1 X97.119 Y68.224 E33.51596
G1 X98.501 Y68.198 E33.58032
G1 X136.933 Y68.198 E35.36988
G1 X137.459 Y68.205 E35.39437
G0 F6000 X137.464 Y67.805
G1 F1200 X138.173 Y67.837 E35.42742
G1 X139.366 Y67.93 E35.48314
G1 X139.744 Y67.966 E35.50082
G1 X140.418 Y68.042 E35.5324
G1 X141.344 Y68.187 E35.57605
G1 X142.183 Y68.389 E35.61623
G1 X143.497 Y68.773 E35.67998
G1 X144.166 Y68.986 E35.71267
G1 X145.047 Y69.309 E35.75636
G1 X145.929 Y69.722 E35.80171
G1 X147.063 Y70.319 E35.86139
G1 X147.651 Y70.645 E35.89269
G1 X148.451 Y71.134 E35.93635
G1 X149.137 Y71.634 E35.97588
G1 X149.847 Y72.198 E36.0181
G1 X150.216 Y72.502 E36.04036
G1 X150.738 Y72.943 E36.07218
G1 X151.428 Y73.579 E36.11588
G1 X151.846 Y74.021 E36.14421
G1 X152.499 Y74.753 E36.18988
G1 X154.192 Y76.599 E36.30652
G1 X155.971 Y78.435 E36.42556
G1 X157.753 Y80.17 E36.54137
G1 X159.621 Y81.891 E36.65964
G1 X161.521 Y83.543 E36.77687
G1 X163.457 Y85.132 E36.8935
G1 X165.472 Y86.694 E37.01222
G1 X167.482 Y88.162 E37.12811
G1 X169.542 Y89.579 E37.24454
G1 X171.691 Y90.971 E37.36376
G1 X173.812 Y92.26 E37.47933
G1 X176.004 Y93.508 E37.59679
G1 X176.996 Y94.037 E37.64914
G1 X178.21 Y94.697 E37.71348
G1 X178.674 Y94.964 E37.73841
G1 X179.484 Y95.462 E37.78268
G1 X180.027 Y95.814 E37.81281
G1 X180.791 Y96.357 E37.85646
G1 X181.675 Y97.123 E37.91092
G1 X182.114 Y97.546 E37.93931
G1 X182.367 Y97.797 E37.95591
G1 X182.831 Y98.274 E37.98689
G1 X183.456 Y98.974 E38.03059
