;FLAVOR:Marlin
;TIME:8431
;Filament used: 9.32415m
;Layer height: 0.28
;MINX:47.797
;MINY:67.797
;MINZ:0.28
;MAXX:187.203
;MAXY:167.203
;MAXZ:5.88
;Generated with Cura_SteamEngine 4.6.1
M140 S50
M105
M190 S50
M104 S210
M105
M109 S210
M82 ;absolute extrusion mode
; Ender 3 Custom Start G-code
G92 E0 ; Reset Extruder
G28 ; Home all axes
G1 Z2.0 F3000 ; Move Z Axis up little to prevent scratching of Heat Bed
G1 X0.1 Y20 Z0.3 F5000.0 ; Move to start position
G1 X0.1 Y200.0 Z0.3 F1500.0 E15 ; Draw the first line
G1 X0.4 Y200.0 Z0.3 F5000.0 ; Move to side a little
G1 X0.4 Y20 Z0.3 F1500.0 E30 ; Draw the second line
G92 E0 ; Reset Extruder
G1 Z2.0 F3000 ; Move Z Axis up little to prevent scratching of Heat Bed
G1 X5 Y20 Z0.3 F5000.0 ; Move over to prevent blob squish
G92 E0
G92 E0
G1 F2700 E-5
;LAYER_COUNT:21
;LAYER:0
M107
G0 F6000 X137.446 Y68.605 Z0.28
;TYPE:SKIRT
G1 F2700 E0
G1 F1200 X138.096 Y68.635 E0.0303
G1 X139.308 Y68.729 E0.0869
G1 X139.672 Y68.763 E0.10393
G1 X140.34 Y68.839 E0.13523
G1 X141.232 Y68.981 E0.17729
G1 X141.966 Y69.16 E0.21247
G1 X142.766 Y69.388 E0.25121
G1 X143.206 Y69.522 E0.27262
G1 X143.91 Y69.745 E0.30701
G1 X144.758 Y70.056 E0.34907
G1 X145.555 Y70.43 E0.39006
G1 X146.678 Y71.02 E0.44913
G1 X147.264 Y71.345 E0.48033
G1 X148.034 Y71.818 E0.52241
G1 X148.641 Y72.262 E0.55743
G1 X149.339 Y72.816 E0.59893
G1 X149.701 Y73.115 E0.62079
G1 X150.224 Y73.557 E0.65267
G1 X150.887 Y74.169 E0.69469
G1 X151.245 Y74.549 E0.719
G1 X151.913 Y75.296 E0.76566
G1 X153.646 Y77.187 E0.8851
G1 X155.419 Y79.013 E1.00361
G1 X157.216 Y80.763 E1.12041
G1 X159.101 Y82.498 E1.2397
G1 X161.03 Y84.174 E1.35869
G1 X162.982 Y85.776 E1.47628
G1 X164.988 Y87.33 E1.59443
G1 X167.05 Y88.835 E1.7133
G1 X169.123 Y90.261 E1.83046
G1 X171.279 Y91.656 E1.95004
G1 X173.406 Y92.947 E2.0659
G1 X176.651 Y94.769 E2.23919
G1 X177.762 Y95.364 E2.29787
G1 X178.247 Y95.641 E2.32388
G1 X179.069 Y96.146 E2.3688
G1 X179.596 Y96.488 E2.39805
G1 X180.331 Y97.012 E2.44009
G1 X181.12 Y97.699 E2.4888
G1 X181.559 Y98.122 E2.51719
G1 X181.793 Y98.355 E2.53256
G1 X182.257 Y98.832 E2.56355
G1 X182.858 Y99.506 E2.6056
G1 X183.479 Y100.356 E2.65462
G1 X183.813 Y100.866 E2.683
G1 X183.991 Y101.147 E2.69849
G1 X184.32 Y101.687 E2.72794
G1 X184.755 Y102.478 E2.76997
G1 X185.146 Y103.376 E2.81558
G1 X185.393 Y104.027 E2.848
G1 X185.531 Y104.414 E2.86713
G1 X185.725 Y104.995 E2.89565
G1 X185.973 Y105.864 E2.93773
G1 X186.167 Y106.93 E2.98819
G1 X186.278 Y107.831 E3.03046
G1 X186.344 Y108.504 E3.06194
G1 X186.392 Y109.341 E3.10098
G1 X186.403 Y110.14 E3.13819
G1 X186.402 Y124.939 E3.82729
G1 X186.392 Y125.637 E3.8598
G1 X186.345 Y126.483 E3.89925
G1 X186.251 Y127.401 E3.94222
G1 X186.173 Y128.025 E3.97151
G1 X186.022 Y128.915 E4.01354
G1 X185.739 Y129.955 E4.06373
G1 X185.552 Y130.522 E4.09153
G1 X185.449 Y130.818 E4.10612
G1 X185.213 Y131.466 E4.13823
G1 X184.867 Y132.3 E4.18028
G1 X184.33 Y133.298 E4.23305
G1 X183.862 Y134.057 E4.27457
G1 X183.521 Y134.584 E4.3038
G1 X182.997 Y135.32 E4.34587
G1 X182.294 Y136.129 E4.39577
G1 X181.644 Y136.795 E4.43911
G1 X181.173 Y137.253 E4.4697
G1 X180.498 Y137.853 E4.51175
G1 X179.674 Y138.457 E4.55933
G1 X179.158 Y138.797 E4.5881
G1 X178.84 Y138.999 E4.60564
G1 X178.285 Y139.336 E4.63588
G1 X177.82 Y139.601 E4.6608
G1 X176.756 Y140.173 E4.71705
G1 X174.399 Y141.477 E4.84248
G1 X172.23 Y142.757 E4.95975
G1 X170.051 Y144.129 E5.07965
G1 X167.96 Y145.529 E5.19682
G1 X165.897 Y146.996 E5.3147
G1 X163.848 Y148.543 E5.43425
G1 X161.898 Y150.103 E5.55053
G1 X159.941 Y151.763 E5.67002
G1 X158.066 Y153.445 E5.78731
G1 X156.196 Y155.221 E5.9074
G1 X154.442 Y156.984 E6.0232
G1 X151.999 Y159.61 E6.19021
G1 X151.26 Y160.436 E6.24182
G1 X150.629 Y161.082 E6.28387
G1 X150.227 Y161.438 E6.30887
G1 X149.271 Y162.239 E6.36695
G1 X148.685 Y162.706 E6.40184
G1 X147.954 Y163.237 E6.44391
G1 X147.273 Y163.65 E6.48099
G1 X146.137 Y164.269 E6.54123
G1 X145.55 Y164.573 E6.57202
G1 X144.73 Y164.953 E6.6141
G1 X143.98 Y165.227 E6.65128
G1 X143.034 Y165.531 E6.69755
G1 X142.715 Y165.628 E6.71307
G1 X142.001 Y165.832 E6.74765
G1 X141.123 Y166.041 E6.78968
G1 X140.324 Y166.162 E6.82731
G1 X139.058 Y166.298 E6.8866
G1 X138.514 Y166.343 E6.91201
G1 X137.887 Y166.376 E6.94125
G1 X136.482 Y166.403 E7.00668
G1 X98.068 Y166.402 E8.7954
G1 X97.554 Y166.395 E8.81934
G1 X96.904 Y166.365 E8.84964
G1 X95.692 Y166.271 E8.90624
G1 X95.328 Y166.237 E8.92326
G1 X94.66 Y166.161 E8.95457
G1 X93.768 Y166.019 E8.99663
G1 X93.034 Y165.84 E9.03181
G1 X92.243 Y165.615 E9.0701
G1 X91.797 Y165.479 E9.09181
G1 X91.099 Y165.259 E9.12589
G1 X90.25 Y164.95 E9.16796
G1 X89.416 Y164.558 E9.21087
G1 X88.322 Y163.98 E9.26848
G1 X87.744 Y163.66 E9.29925
G1 X86.974 Y163.188 E9.3413
G1 X86.358 Y162.738 E9.37682
G1 X85.657 Y162.181 E9.41852
G1 X85.299 Y161.886 E9.44012
G1 X84.777 Y161.445 E9.47194
G1 X84.114 Y160.832 E9.51398
G1 X83.755 Y160.451 E9.53836
G1 X83.081 Y159.697 E9.58545
G1 X81.354 Y157.813 E9.70446
G1 X79.58 Y155.986 E9.82304
G1 X77.784 Y154.237 E9.93977
G1 X75.898 Y152.501 E10.05913
G1 X73.97 Y150.825 E10.17808
G1 X72.022 Y149.227 E10.2954
G1 X70.008 Y147.667 E10.41403
G1 X67.95 Y146.165 E10.53266
G1 X65.877 Y144.739 E10.64983
G1 X63.721 Y143.344 E10.7694
G1 X61.594 Y142.053 E10.88526
G1 X58.337 Y140.224 E11.05919
G1 X57.226 Y139.629 E11.11788
G1 X56.747 Y139.355 E11.14357
G1 X55.932 Y138.855 E11.1881
G1 X55.408 Y138.515 E11.21718
G1 X54.673 Y137.99 E11.25924
G1 X53.89 Y137.31 E11.30753
G1 X53.448 Y136.885 E11.33608
G1 X53.199 Y136.638 E11.35241
G1 X52.734 Y136.159 E11.3835
G1 X52.135 Y135.484 E11.42552
G1 X51.515 Y134.634 E11.47451
G1 X51.009 Y133.851 E11.51792
G1 X50.668 Y133.291 E11.54845
G1 X50.233 Y132.5 E11.59049
G1 X49.824 Y131.554 E11.63848
G1 X49.588 Y130.922 E11.66989
G1 X49.472 Y130.595 E11.68605
G1 X49.278 Y130.016 E11.71448
G1 X49.03 Y129.147 E11.75656
G1 X48.832 Y128.065 E11.80778
G1 X48.722 Y127.168 E11.84986
G1 X48.655 Y126.486 E11.88177
G1 X48.607 Y125.635 E11.92146
G1 X48.597 Y124.86 E11.95755
G1 X48.598 Y110.061 E12.64665
G1 X48.608 Y109.363 E12.67916
G1 X48.655 Y108.517 E12.71861
G1 X48.749 Y107.599 E12.76158
G1 X48.827 Y106.975 E12.79086
G1 X48.978 Y106.085 E12.8329
G1 X49.261 Y105.045 E12.88309
G1 X49.448 Y104.478 E12.91089
G1 X49.553 Y104.178 E12.92569
G1 X49.789 Y103.531 E12.95776
G1 X50.135 Y102.697 E12.9998
G1 X50.662 Y101.717 E13.05161
G1 X51.15 Y100.924 E13.09497
G1 X51.49 Y100.401 E13.12402
G1 X52.016 Y99.666 E13.1661
G1 X52.69 Y98.89 E13.21396
G1 X53.115 Y98.448 E13.24251
G1 X53.355 Y98.206 E13.25838
G1 X53.831 Y97.743 E13.2893
G1 X54.506 Y97.143 E13.33136
G1 X55.351 Y96.525 E13.3801
G1 X55.862 Y96.19 E13.40856
G1 X56.16 Y96.001 E13.42499
G1 X56.715 Y95.664 E13.45522
G1 X57.18 Y95.399 E13.48014
G1 X58.246 Y94.826 E13.5365
G1 X60.601 Y93.523 E13.66182
G1 X62.77 Y92.243 E13.7791
G1 X64.949 Y90.871 E13.899
G1 X67.04 Y89.471 E14.01617
G1 X69.103 Y88.004 E14.13404
G1 X71.152 Y86.457 E14.25359
G1 X73.102 Y84.897 E14.36987
G1 X75.059 Y83.237 E14.48937
G1 X76.934 Y81.555 E14.60666
G1 X78.804 Y79.779 E14.72675
G1 X80.558 Y78.016 E14.84255
G1 X83.024 Y75.366 E15.0111
G1 X83.739 Y74.566 E15.06106
G1 X84.37 Y73.92 E15.10311
G1 X84.771 Y73.564 E15.12808
G1 X85.729 Y72.761 E15.18629
G1 X86.315 Y72.294 E15.22118
G1 X87.046 Y71.763 E15.26325
G1 X87.773 Y71.325 E15.30277
G1 X88.864 Y70.73 E15.36064
G1 X89.455 Y70.424 E15.39163
G1 X90.275 Y70.045 E15.43369
G1 X90.978 Y69.786 E15.46858
G1 X92.285 Y69.372 E15.53242
G1 X92.999 Y69.168 E15.56699
G1 X93.877 Y68.959 E15.60902
G1 X94.676 Y68.838 E15.64665
G1 X95.942 Y68.702 E15.70594
G1 X96.486 Y68.657 E15.73136
G1 X97.113 Y68.624 E15.76059
G1 X98.518 Y68.597 E15.82603
G1 X136.932 Y68.598 E17.61474
G1 X137.446 Y68.605 E17.63868
G0 F6000 X137.451 Y68.205
G1 F1200 X138.127 Y68.236 E17.67019
G1 X139.339 Y68.33 E17.7268
G1 X139.717 Y68.366 E17.74448
G1 X140.385 Y68.442 E17.77578
G1 X141.295 Y68.586 E17.81868
G1 X142.075 Y68.775 E17.85605
G1 X142.882 Y69.005 E17.89513
G1 X143.327 Y69.141 E17.91679
G1 X144.031 Y69.364 E17.95118
G1 X144.896 Y69.68 E17.99406
G1 X145.741 Y70.075 E18.0375
G1 X146.872 Y70.67 E18.097
G1 X147.458 Y70.995 E18.12821
G1 X148.243 Y71.476 E18.17107
G1 X148.889 Y71.948 E18.20833
G1 X149.593 Y72.507 E18.25019
G1 X149.959 Y72.809 E18.27228
G1 X150.482 Y73.251 E18.30417
G1 X151.159 Y73.875 E18.34704
G1 X151.543 Y74.283 E18.37313
G1 X152.185 Y75.001 E18.41798
G1 X153.929 Y76.904 E18.53817
G1 X155.702 Y78.73 E18.65669
G1 X157.502 Y80.483 E18.77368
G1 X159.368 Y82.201 E18.89179
G1 X161.279 Y83.861 E19.00966
G1 X163.217 Y85.451 E19.12638
G1 X165.246 Y87.022 E19.24587
G1 X167.283 Y88.51 E19.36333
G1 X169.345 Y89.928 E19.47986
G1 X171.482 Y91.311 E19.59839
G1 X173.608 Y92.602 E19.71421
G1 X176.874 Y94.435 E19.8886
G1 X177.95 Y95.011 E19.94543
G1 X178.454 Y95.299 E19.97246
G1 X179.286 Y95.81 E20.01793
G1 X179.813 Y96.152 E20.04718
G1 X180.563 Y96.687 E20.09008
G1 X181.398 Y97.411 E20.14154
G1 X181.837 Y97.834 E20.16993
G1 X182.08 Y98.076 E20.18589
G1 X182.544 Y98.553 E20.21688
G1 X183.157 Y99.24 E20.25975
G1 X183.814 Y100.137 E20.31153
G1 X184.148 Y100.647 E20.33991
G1 X184.332 Y100.939 E20.35599
G1 X184.661 Y101.479 E20.38543
G1 X185.106 Y102.285 E20.4283
G1 X185.52 Y103.234 E20.47651
G1 X185.767 Y103.885 E20.50893
G1 X185.91 Y104.288 E20.52884
G1 X186.104 Y104.869 E20.55737
G1 X186.358 Y105.754 E20.60024
G1 X186.564 Y106.879 E20.6535
G1 X186.676 Y107.792 E20.69633
G1 X186.742 Y108.465 E20.72782
G1 X186.792 Y109.334 E20.76835
G1 X186.803 Y110.14 E20.80588
G1 X186.802 Y124.945 E21.49526
G1 X186.792 Y125.643 E21.52777
G1 X186.743 Y126.521 E21.56872
G1 X186.648 Y127.451 E21.61225
G1 X186.57 Y128.075 E21.64153
G1 X186.416 Y128.982 E21.68437
G1 X186.119 Y130.08 E21.73733
G1 X185.932 Y130.647 E21.76513
G1 X185.825 Y130.954 E21.78027
G1 X185.589 Y131.602 E21.81238
G1 X185.237 Y132.453 E21.85526
G1 X184.671 Y133.507 E21.91097
G1 X184.197 Y134.274 E21.95296
G1 X183.856 Y134.801 E21.98219
G1 X183.323 Y135.552 E22.02507
G1 X182.581 Y136.407 E22.07778
G1 X182.157 Y136.846 E22.1062
G1 X181.923 Y137.081 E22.12164
G1 X181.452 Y137.539 E22.15223
G1 X180.764 Y138.152 E22.19514
G1 X179.894 Y138.791 E22.24541
G1 X179.378 Y139.131 E22.27418
G1 X179.048 Y139.34 E22.29237
G1 X178.493 Y139.677 E22.3226
G1 X178.01 Y139.954 E22.34853
G1 X176.899 Y140.551 E22.40726
G1 X174.575 Y141.837 E22.53094
G1 X172.441 Y143.096 E22.64631
G1 X170.29 Y144.451 E22.76468
G1 X168.185 Y145.86 E22.88263
G1 X166.125 Y147.326 E23.00037
G1 X164.116 Y148.842 E23.11756
G1 X162.14 Y150.422 E23.23537
G1 X160.183 Y152.082 E23.35486
G1 X158.345 Y153.732 E23.46987
G1 X156.489 Y155.493 E23.58901
G1 X154.722 Y157.271 E23.70573
G1 X152.282 Y159.892 E23.87247
G1 X151.558 Y160.702 E23.92306
G1 X150.915 Y161.361 E23.96593
G1 X150.485 Y161.744 E23.99275
G1 X149.52 Y162.552 E24.05135
G1 X148.934 Y163.019 E24.08625
G1 X148.19 Y163.561 E24.12911
G1 X147.466 Y164 E24.16853
G1 X146.321 Y164.625 E24.22927
G1 X145.734 Y164.929 E24.26006
G1 X144.899 Y165.316 E24.30291
G1 X144.102 Y165.608 E24.34243
G1 X143.156 Y165.912 E24.3887
G1 X142.825 Y166.012 E24.4048
G1 X142.111 Y166.216 E24.43938
G1 X141.216 Y166.43 E24.48223
G1 X140.368 Y166.559 E24.52217
G1 X139.091 Y166.697 E24.58198
G1 X138.547 Y166.742 E24.6074
G1 X137.895 Y166.776 E24.6378
G1 X136.482 Y166.803 E24.7036
G1 X98.063 Y166.802 E26.49255
G1 X97.549 Y166.795 E26.51649
G1 X96.873 Y166.764 E26.548
G1 X95.661 Y166.67 E26.60461
G1 X95.283 Y166.634 E26.62229
G1 X94.615 Y166.558 E26.65359
G1 X93.705 Y166.414 E26.69649
G1 X92.925 Y166.225 E26.73386
G1 X92.128 Y165.998 E26.77245
G1 X91.677 Y165.861 E26.7944
G1 X90.979 Y165.641 E26.82848
G1 X90.113 Y165.326 E26.87139
G1 X89.23 Y164.912 E26.9168
G1 X88.128 Y164.33 E26.97483
G1 X87.55 Y164.01 E27.00559
G1 X86.764 Y163.529 E27.0485
G1 X86.11 Y163.051 E27.08622
G1 X85.403 Y162.49 E27.12825
G1 X85.041 Y162.191 E27.15011
G1 X84.519 Y161.75 E27.18193
G1 X83.842 Y161.126 E27.2248
G1 X83.457 Y160.717 E27.25096
G1 X82.815 Y159.999 E27.29581
G1 X81.071 Y158.096 E27.416
G1 X79.297 Y156.269 E27.53458
G1 X77.498 Y154.517 E27.65151
G1 X75.631 Y152.798 E27.76968
G1 X73.717 Y151.135 E27.88775
G1 X71.769 Y149.537 E28.00507
G1 X69.772 Y147.99 E28.1227
G1 X67.717 Y146.49 E28.24116
G1 X65.655 Y145.072 E28.35769
G1 X63.518 Y143.689 E28.47622
G1 X61.392 Y142.398 E28.59204
G1 X58.151 Y140.579 E28.7651
G1 X57.037 Y139.982 E28.82395
G1 X56.539 Y139.697 E28.85067
G1 X55.714 Y139.19 E28.89576
G1 X55.19 Y138.85 E28.92484
G1 X54.44 Y138.316 E28.96771
G1 X53.613 Y137.599 E29.01868
G1 X53.171 Y137.174 E29.04723
G1 X52.912 Y136.916 E29.06425
G1 X52.447 Y136.437 E29.09534
G1 X51.835 Y135.75 E29.13818
G1 X51.18 Y134.853 E29.1899
G1 X50.667 Y134.059 E29.23392
G1 X50.326 Y133.499 E29.26445
G1 X49.882 Y132.693 E29.3073
G1 X49.45 Y131.694 E29.35798
G1 X49.214 Y131.062 E29.38939
G1 X49.093 Y130.722 E29.40619
G1 X48.899 Y130.143 E29.43463
G1 X48.645 Y129.258 E29.4775
G1 X48.435 Y128.115 E29.53162
G1 X48.324 Y127.207 E29.57421
G1 X48.257 Y126.525 E29.60612
G1 X48.207 Y125.641 E29.64735
G1 X48.197 Y124.86 E29.68372
G1 X48.198 Y110.055 E30.3731
G1 X48.208 Y109.357 E30.40561
G1 X48.257 Y108.479 E30.44655
G1 X48.352 Y107.549 E30.49008
G1 X48.43 Y106.925 E30.51937
G1 X48.584 Y106.018 E30.5622
G1 X48.881 Y104.92 E30.61517
G1 X49.068 Y104.353 E30.64297
G1 X49.177 Y104.041 E30.65836
G1 X49.413 Y103.394 E30.69043
G1 X49.766 Y102.543 E30.73333
G1 X50.32 Y101.509 E30.78795
G1 X50.815 Y100.706 E30.83187
G1 X51.155 Y100.183 E30.86092
G1 X51.69 Y99.433 E30.90382
G1 X52.401 Y98.613 E30.95436
G1 X52.826 Y98.171 E30.98291
G1 X53.076 Y97.92 E30.9994
G1 X53.552 Y97.457 E31.03032
G1 X54.239 Y96.844 E31.0732
G1 X55.131 Y96.19 E31.1247
G1 X55.642 Y95.855 E31.15315
G1 X55.952 Y95.66 E31.1702
G1 X56.507 Y95.323 E31.20044
G1 X56.99 Y95.046 E31.22637
G1 X58.101 Y94.449 E31.28509
G1 X60.425 Y93.163 E31.40877
G1 X62.559 Y91.904 E31.52415
G1 X64.71 Y90.549 E31.64252
G1 X66.815 Y89.14 E31.76047
G1 X68.875 Y87.674 E31.8782
G1 X70.884 Y86.158 E31.9954
G1 X72.86 Y84.578 E32.1132
G1 X74.817 Y82.918 E32.2327
G1 X76.655 Y81.268 E32.34771
G1 X78.511 Y79.507 E32.46684
G1 X80.278 Y77.729 E32.58357
G1 X82.692 Y75.136 E32.74853
G1 X83.44 Y74.299 E32.8008
G1 X84.083 Y73.64 E32.84367
G1 X84.513 Y73.258 E32.87046
G1 X85.48 Y72.448 E32.92919
G1 X86.066 Y71.981 E32.96408
G1 X86.81 Y71.439 E33.00695
G1 X87.581 Y70.974 E33.04887
G1 X88.68 Y70.375 E33.10715
G1 X89.271 Y70.069 E33.13814
G1 X90.106 Y69.682 E33.181
G1 X90.854 Y69.406 E33.21812
G1 X92.175 Y68.988 E33.28264
G1 X92.889 Y68.784 E33.31722
G1 X93.784 Y68.57 E33.36007
G1 X94.632 Y68.441 E33.40001
G1 X95.909 Y68.303 E33.45982
G1 X96.453 Y68.258 E33.48523
G1 X97.105 Y68.224 E33.51563
G1 X98.518 Y68.197 E33.58144
G1 X136.937 Y68.198 E35.37039
G1 X137.451 Y68.205 E35.39433
G0 F6000 X137.457 Y67.805
G1 F1200 X138.158 Y67.837 E35.427
G1 X139.37 Y67.931 E35.48361
G1 X139.762 Y67.969 E35.50195
G1 X140.43 Y68.045 E35.53325
G1 X141.357 Y68.19 E35.57694
G1 X142.184 Y68.39 E35.61656
G1 X142.997 Y68.622 E35.65593
G1 X143.448 Y68.76 E35.67789
G1 X144.152 Y68.983 E35.71228
G1 X145.033 Y69.304 E35.75594
G1 X145.926 Y69.721 E35.80183
G1 X147.066 Y70.32 E35.86179
G1 X147.652 Y70.645 E35.893
G1 X148.452 Y71.135 E35.93668
G1 X149.137 Y71.634 E35.97614
G1 X149.847 Y72.198 E36.01837
G1 X150.217 Y72.503 E36.04069
G1 X150.74 Y72.945 E36.07258
G1 X151.43 Y73.581 E36.11627
G1 X151.841 Y74.016 E36.14414
G1 X152.492 Y74.745 E36.18965
G1 X154.211 Y76.62 E36.3081
G1 X155.985 Y78.447 E36.42668
G1 X157.788 Y80.203 E36.54387
G1 X159.619 Y81.889 E36.65977
G1 X161.55 Y83.566 E36.77886
G1 X163.471 Y85.142 E36.89456
G1 X165.497 Y86.712 E37.01391
G1 X167.483 Y88.162 E37.12841
G1 X169.608 Y89.623 E37.24849
G1 X171.661 Y90.951 E37.36234
G1 X173.832 Y92.27 E37.48063
G1 X177.06 Y94.081 E37.65298
G1 X178.139 Y94.659 E37.70997
G1 X178.662 Y94.957 E37.738
G1 X179.231 Y95.303 E37.76901
G1 X179.504 Y95.475 E37.78404
G1 X180.031 Y95.817 E37.81329
G1 X180.795 Y96.36 E37.85694
G1 X181.675 Y97.123 E37.91117
G1 X182.114 Y97.546 E37.93956
G1 X182.367 Y97.797 E37.95615
G1 X182.831 Y98.274 E37.98714
G1 X183.456 Y98.974 E38.03083
