;FLAVOR:Marlin
;TIME:5736
;Filament used: 5.91182m
;Layer height: 0.28
;MINX:22.202
;MINY:22.202
;MINZ:0.28
;MAXX:197.798
;MAXY:197.798
;MAXZ:5.88
;Generated with Cura_SteamEngine 4.8.0
M140 S60
M105
M190 S60
M104 S205
M105
M109 S205
M82 ;absolute extrusion mode
; Ender 3 Custom Start G-code
G92 E0 ; Reset Extruder
G28 ; Home all axes
G1 Z2.0 F3000 ; Move Z Axis up little to prevent scratching of Heat Bed
G1 X0.1 Y20 Z0.3 F5000.0 ; Move to start position
G1 X0.1 Y200.0 Z0.3 F1500.0 E15 ; Draw the first line
G1 X0.4 Y200.0 Z0.3 F5000.0 ; Move to side a little
G1 X0.4 Y20 Z0.3 F1500.0 E30 ; Draw the second line
G92 E0 ; Reset Extruder
G1 Z2.0 F3000 ; Move Z Axis up little to prevent scratching of Heat Bed
G1 X5 Y20 Z0.3 F5000.0 ; Move over to prevent blob squish
G92 E0
G92 E0
G1 F2400 E-6.5
;LAYER_COUNT:21
;LAYER:0
M107
G0 F6000 X27.248 Y37.609 Z0.28
;TYPE:SKIRT
G1 F2400 E0
G1 F1200 X37.72 Y27.137 E0.6896
G1 X38.239 Y26.635 E0.72322
G1 X38.911 Y26.037 E0.76511
G1 X39.328 Y25.695 E0.79022
G1 X39.557 Y25.512 E0.80387
G1 X39.942 Y25.213 E0.82657
G1 X40.706 Y24.67 E0.87021
G1 X41.307 Y24.307 E0.90291
G1 X41.84 Y24.025 E0.93099
G1 X42.247 Y23.823 E0.95214
G1 X42.54 Y23.683 E0.96726
G1 X43.053 Y23.447 E0.99356
G1 X43.921 Y23.091 E1.03724
G1 X44.907 Y22.787 E1.08529
G1 X45.276 Y22.692 E1.10303
G1 X45.752 Y22.581 E1.12579
G1 X46.393 Y22.446 E1.15629
G1 X47.318 Y22.292 E1.19996
G1 X48.104 Y22.224 E1.23669
G1 X48.602 Y22.207 E1.2599
G1 X49.004 Y22.202 E1.27862
G1 X49.296 Y22.202 E1.29221
G1 X49.863 Y22.21 E1.31862
G1 X50.8 Y22.263 E1.36232
G1 X51.72 Y22.395 E1.40559
G1 X52.114 Y22.47 E1.42427
G1 X52.384 Y22.526 E1.43711
G1 X52.814 Y22.624 E1.45765
G1 X53.407 Y22.772 E1.48611
G1 X54.306 Y23.038 E1.52976
G1 X55.368 Y23.465 E1.58306
G1 X55.778 Y23.655 E1.6041
G1 X56.057 Y23.789 E1.61851
G1 X56.579 Y24.049 E1.64567
G1 X57.4 Y24.502 E1.68933
G1 X58.111 Y24.975 E1.72909
G1 X58.49 Y25.256 E1.75106
G1 X58.805 Y25.5 E1.76962
G1 X59.037 Y25.684 E1.78341
G1 X59.456 Y26.027 E1.80862
G1 X60.152 Y26.649 E1.85208
G1 X60.79 Y27.27 E1.89354
G1 X83.082 Y49.563 E3.36154
G1 X97.247 Y63.725 E4.29423
G1 X97.905 Y64.402 E4.33819
G1 X98.505 Y65.074 E4.38014
G1 X98.828 Y65.467 E4.40383
G1 X99.03 Y65.72 E4.4189
G1 X99.341 Y66.122 E4.44257
G1 X99.883 Y66.888 E4.48626
G1 X100.487 Y67.948 E4.54307
G1 X101.957 Y70.903 E4.69675
G1 X103.147 Y73.138 E4.81466
G1 X104.387 Y75.315 E4.93132
G1 X105.699 Y77.475 E5.049
G1 X107.053 Y79.57 E5.16515
G1 X108.499 Y81.67 E5.28387
G1 X109.967 Y83.68 E5.39977
G1 X111.506 Y85.667 E5.5168
G1 X113.1 Y87.609 E5.63379
G1 X114.777 Y89.538 E5.75281
G1 X116.467 Y91.375 E5.86904
G1 X118.238 Y93.196 E5.98732
G1 X126.84 Y101.796 E6.55371
G1 X128.676 Y103.579 E6.67288
G1 X130.548 Y105.299 E6.79126
G1 X132.446 Y106.944 E6.90821
G1 X134.417 Y108.56 E7.0269
G1 X136.381 Y110.078 E7.14248
G1 X138.408 Y111.556 E7.25929
G1 X140.495 Y112.988 E7.37715
G1 X142.622 Y114.361 E7.49503
G1 X144.756 Y115.654 E7.61122
G1 X146.939 Y116.895 E7.72814
G1 X149.176 Y118.083 E7.84609
G1 X152.038 Y119.507 E7.99494
G1 X152.859 Y119.961 E8.03862
G1 X153.632 Y120.477 E8.0819
G1 X153.937 Y120.706 E8.09966
G1 X154.251 Y120.949 E8.11815
G1 X154.505 Y121.151 E8.13326
G1 X154.955 Y121.521 E8.16039
G1 X155.642 Y122.136 E8.20332
G1 X156.238 Y122.718 E8.24211
G1 X178.541 Y145.022 E9.71083
G1 X192.823 Y159.302 E10.65126
G1 X193.349 Y159.844 E10.68643
G1 X193.96 Y160.529 E10.72917
G1 X194.275 Y160.913 E10.7523
G1 X194.467 Y161.154 E10.76665
G1 X194.8 Y161.584 E10.79197
G1 X195.342 Y162.349 E10.83563
G1 X195.708 Y162.958 E10.86871
G1 X195.981 Y163.474 E10.8959
G1 X196.169 Y163.853 E10.91559
G1 X196.3 Y164.125 E10.92965
G1 X196.545 Y164.655 E10.95684
G1 X196.902 Y165.523 E11.00054
G1 X197.218 Y166.548 E11.05049
G1 X197.311 Y166.912 E11.06798
G1 X197.416 Y167.364 E11.08959
G1 X197.554 Y168.018 E11.12071
G1 X197.708 Y168.943 E11.16438
G1 X197.782 Y169.849 E11.20671
G1 X197.794 Y170.267 E11.22618
G1 X197.798 Y170.628 E11.24299
G1 X197.798 Y170.902 E11.25575
G1 X197.79 Y171.482 E11.28276
G1 X197.737 Y172.418 E11.32641
G1 X197.608 Y173.328 E11.36921
G1 X197.532 Y173.723 E11.38794
G1 X197.472 Y174.012 E11.40168
G1 X197.377 Y174.431 E11.42169
G1 X197.232 Y175.014 E11.44966
G1 X196.967 Y175.914 E11.49335
G1 X196.623 Y176.795 E11.53739
G1 X196.48 Y177.115 E11.55371
G1 X196.354 Y177.386 E11.56762
G1 X196.225 Y177.653 E11.58143
G1 X195.951 Y178.203 E11.61004
G1 X195.497 Y179.024 E11.65373
G1 X194.996 Y179.775 E11.69577
G1 X194.744 Y180.112 E11.71536
G1 X194.491 Y180.438 E11.73458
G1 X194.299 Y180.679 E11.74892
G1 X193.939 Y181.117 E11.77532
G1 X193.325 Y181.803 E11.81819
G1 X192.752 Y182.391 E11.85642
G1 X182.413 Y192.731 E12.5373
G1 X181.778 Y193.348 E12.57852
G1 X181.078 Y193.974 E12.62225
G1 X180.653 Y194.321 E12.6478
G1 X180.435 Y194.494 E12.66076
G1 X180.048 Y194.794 E12.68356
G1 X179.283 Y195.336 E12.72722
G1 X178.255 Y195.925 E12.78238
G1 X177.808 Y196.15 E12.80569
G1 X177.467 Y196.315 E12.82333
G1 X176.955 Y196.551 E12.84958
G1 X176.087 Y196.907 E12.89326
G1 X175.065 Y197.221 E12.94305
G1 X174.696 Y197.315 E12.96078
G1 X174.248 Y197.419 E12.98219
G1 X173.607 Y197.554 E13.0127
G1 X172.682 Y197.708 E13.05636
G1 X171.896 Y197.776 E13.0931
G1 X171.398 Y197.793 E13.1163
G1 X170.996 Y197.798 E13.13502
G1 X170.704 Y197.798 E13.14862
G1 X170.137 Y197.79 E13.17502
G1 X169.2 Y197.737 E13.21872
G1 X168.28 Y197.605 E13.262
G1 X167.886 Y197.53 E13.28067
G1 X167.616 Y197.474 E13.29351
G1 X167.182 Y197.375 E13.31424
G1 X166.59 Y197.227 E13.34266
G1 X165.691 Y196.961 E13.38631
G1 X164.866 Y196.64 E13.42753
G1 X164.543 Y196.495 E13.44402
G1 X164.181 Y196.326 E13.46262
G1 X163.922 Y196.202 E13.47599
G1 X163.413 Y195.948 E13.50248
G1 X162.593 Y195.493 E13.54615
G1 X161.824 Y194.979 E13.58922
G1 X161.509 Y194.743 E13.60755
G1 X161.2 Y194.504 E13.62574
G1 X160.944 Y194.3 E13.64098
G1 X160.511 Y193.944 E13.66708
G1 X159.828 Y193.333 E13.70975
G1 X159.21 Y192.73 E13.74996
G1 X136.908 Y170.427 E15.21861
G1 X122.753 Y156.275 E16.15065
G1 X122.101 Y155.605 E16.19418
G1 X121.483 Y154.914 E16.23735
G1 X121.161 Y154.521 E16.261
G1 X120.946 Y154.25 E16.27711
G1 X120.628 Y153.836 E16.30142
G1 X120.089 Y153.068 E16.34511
G1 X119.504 Y152.035 E16.40039
G1 X118.018 Y149.049 E16.55569
G1 X116.833 Y146.826 E16.67299
G1 X115.587 Y144.643 E16.79004
G1 X114.266 Y142.471 E16.90841
G1 X112.907 Y140.372 E17.02485
G1 X111.474 Y138.292 E17.14246
G1 X109.998 Y136.274 E17.25888
G1 X108.436 Y134.26 E17.37756
G1 X106.871 Y132.357 E17.49229
G1 X105.187 Y130.423 E17.6117
G1 X103.492 Y128.582 E17.72822
G1 X101.806 Y126.85 E17.84077
G1 X93.161 Y118.206 E18.41003
G1 X91.31 Y116.408 E18.53019
G1 X89.463 Y114.711 E18.64698
G1 X87.536 Y113.041 E18.76572
G1 X85.618 Y111.467 E18.88125
G1 X83.6 Y109.907 E19.00002
G1 X81.583 Y108.438 E19.11621
G1 X79.529 Y107.029 E19.23219
G1 X77.375 Y105.637 E19.35161
G1 X75.267 Y104.359 E19.4664
G1 X73.045 Y103.096 E19.58541
G1 X70.801 Y101.904 E19.70373
G1 X67.964 Y100.493 E19.85127
G1 X67.143 Y100.04 E19.89493
G1 X66.368 Y99.523 E19.93831
G1 X66.06 Y99.292 E19.95624
G1 X65.732 Y99.038 E19.97556
G1 X65.463 Y98.823 E19.99159
G1 X65.021 Y98.458 E20.01828
G1 X64.353 Y97.859 E20.06006
G1 X63.762 Y97.282 E20.09852
G1 X41.449 Y74.968 E21.5679
G1 X27.294 Y60.816 E22.49994
G1 X26.657 Y60.162 E22.54245
G1 X26.014 Y59.44 E22.58747
G1 X25.698 Y59.052 E22.61077
G1 X25.526 Y58.835 E22.62366
G1 X25.195 Y58.407 E22.64885
G1 X24.653 Y57.642 E22.69251
G1 X24.337 Y57.121 E22.72088
G1 X24.019 Y56.526 E22.7523
G1 X23.831 Y56.147 E22.772
G1 X23.7 Y55.873 E22.78614
G1 X23.456 Y55.345 E22.81322
G1 X23.099 Y54.478 E22.85688
G1 X22.785 Y53.46 E22.90649
G1 X22.69 Y53.089 E22.92432
G1 X22.585 Y52.641 E22.94575
G1 X22.45 Y52.004 E22.97607
G1 X22.295 Y51.079 E23.01974
G1 X22.227 Y50.311 E23.05564
G1 X22.221 Y50.199 E23.06086
G1 X22.206 Y49.733 E23.08257
G1 X22.202 Y49.372 E23.09939
G1 X22.202 Y49.081 E23.11294
G1 X22.211 Y48.496 E23.14018
G1 X22.266 Y47.559 E23.18388
G1 X22.395 Y46.657 E23.22631
G1 X22.472 Y46.258 E23.24523
G1 X22.529 Y45.984 E23.25827
G1 X22.622 Y45.573 E23.27789
G1 X22.767 Y44.989 E23.30591
G1 X23.032 Y44.09 E23.34955
G1 X23.391 Y43.172 E23.39545
G1 X23.522 Y42.883 E23.41022
G1 X23.656 Y42.595 E23.42501
G1 X23.787 Y42.323 E23.43907
G1 X24.053 Y41.79 E23.46681
G1 X24.507 Y40.969 E23.51049
G1 X25.004 Y40.225 E23.55216
G1 X25.255 Y39.89 E23.57165
G1 X25.511 Y39.56 E23.5911
G1 X25.707 Y39.314 E23.60574
G1 X26.064 Y38.88 E23.63191
G1 X26.675 Y38.197 E23.67458
G1 X27.248 Y37.609 E23.71281
G0 F6000 X27.531 Y37.892
G1 F1200 X37.998 Y27.425 E24.40208
G1 X38.517 Y26.923 E24.4357
G1 X39.165 Y26.346 E24.47611
G1 X39.582 Y26.004 E24.50122
G1 X39.802 Y25.828 E24.51434
G1 X40.187 Y25.529 E24.53704
G1 X40.938 Y24.997 E24.57989
G1 X41.544 Y24.633 E24.61281
G1 X42.018 Y24.383 E24.63776
G1 X42.425 Y24.181 E24.65892
G1 X42.707 Y24.046 E24.67348
G1 X43.22 Y23.81 E24.69977
G1 X44.072 Y23.462 E24.74262
G1 X45.007 Y23.175 E24.78817
G1 X45.376 Y23.08 E24.80591
G1 X45.834 Y22.973 E24.82781
G1 X46.475 Y22.838 E24.85831
G1 X47.384 Y22.687 E24.90122
G1 X48.124 Y22.624 E24.9358
G1 X48.607 Y22.607 E24.95831
G1 X49.009 Y22.602 E24.97703
G1 X49.291 Y22.602 E24.99016
G1 X49.858 Y22.61 E25.01656
G1 X50.777 Y22.663 E25.05943
G1 X51.647 Y22.788 E25.10035
G1 X52.033 Y22.862 E25.11865
G1 X52.303 Y22.918 E25.13149
G1 X52.717 Y23.012 E25.15126
G1 X53.31 Y23.16 E25.17972
G1 X54.193 Y23.422 E25.22261
G1 X55.2 Y23.828 E25.27317
G1 X55.61 Y24.018 E25.29421
G1 X55.879 Y24.147 E25.3081
G1 X56.401 Y24.407 E25.33525
G1 X57.206 Y24.853 E25.37811
G1 X57.877 Y25.299 E25.41562
G1 X58.245 Y25.572 E25.43696
G1 X58.56 Y25.816 E25.45551
G1 X58.783 Y25.994 E25.4688
G1 X59.202 Y26.337 E25.49401
G1 X59.874 Y26.936 E25.53593
G1 X60.507 Y27.553 E25.57709
G1 X82.8 Y49.846 E27.04512
G1 X96.965 Y64.008 E27.97781
G1 X97.618 Y64.68 E28.02145
G1 X98.196 Y65.328 E28.06188
G1 X98.519 Y65.721 E28.08557
G1 X98.714 Y65.965 E28.10011
G1 X99.025 Y66.367 E28.12378
G1 X99.556 Y67.119 E28.16664
G1 X100.129 Y68.126 E28.22059
G1 X101.603 Y71.09 E28.37473
G1 X102.805 Y73.345 E28.49372
G1 X104.04 Y75.515 E28.60998
G1 X105.354 Y77.678 E28.72783
G1 X106.72 Y79.791 E28.84499
G1 X108.162 Y81.886 E28.96342
G1 X109.656 Y83.932 E29.08138
G1 X111.197 Y85.921 E29.19854
G1 X112.805 Y87.88 E29.31656
G1 X114.464 Y89.789 E29.43432
G1 X116.187 Y91.661 E29.55279
G1 X117.935 Y93.459 E29.66956
G1 X126.527 Y102.049 E30.23529
G1 X128.428 Y103.895 E30.35868
G1 X130.279 Y105.595 E30.47571
G1 X132.196 Y107.258 E30.59388
G1 X134.147 Y108.857 E30.71134
G1 X136.14 Y110.398 E30.82864
G1 X138.199 Y111.899 E30.94729
G1 X140.257 Y113.31 E31.06348
G1 X142.404 Y114.696 E31.18248
G1 X144.565 Y116.006 E31.30015
G1 X146.76 Y117.253 E31.4177
G1 X149.003 Y118.445 E31.53597
G1 X151.859 Y119.866 E31.68451
G1 X152.665 Y120.311 E31.72738
G1 X153.395 Y120.8 E31.7683
G1 X153.692 Y121.022 E31.78556
G1 X154.006 Y121.265 E31.80405
G1 X154.251 Y121.46 E31.81863
G1 X154.701 Y121.83 E31.84576
G1 X155.363 Y122.423 E31.88714
G1 X155.955 Y123.001 E31.92567
G1 X178.259 Y145.305 E33.39443
G1 X192.424 Y159.467 E34.32712
G1 X193.062 Y160.123 E34.36973
G1 X193.65 Y160.782 E34.41085
G1 X193.965 Y161.166 E34.43398
G1 X194.151 Y161.399 E34.44786
G1 X194.484 Y161.829 E34.47319
G1 X195.015 Y162.58 E34.51601
G1 X195.359 Y163.153 E34.54713
G1 X195.623 Y163.652 E34.57342
G1 X195.811 Y164.031 E34.59312
G1 X195.937 Y164.293 E34.60666
G1 X196.182 Y164.823 E34.63385
G1 X196.531 Y165.675 E34.67672
G1 X196.83 Y166.647 E34.72407
G1 X196.923 Y167.011 E34.74156
G1 X197.025 Y167.446 E34.76237
G1 X197.163 Y168.1 E34.79349
G1 X197.313 Y169.009 E34.83639
G1 X197.383 Y169.865 E34.87638
G1 X197.394 Y170.272 E34.89534
G1 X197.398 Y170.633 E34.91215
G1 X197.398 Y170.896 E34.9244
G1 X197.39 Y171.476 E34.95141
G1 X197.337 Y172.395 E34.99427
G1 X197.215 Y173.255 E35.03472
G1 X197.141 Y173.642 E35.05307
G1 X197.081 Y173.931 E35.06681
G1 X196.989 Y174.334 E35.08606
G1 X196.844 Y174.917 E35.11403
G1 X196.583 Y175.8 E35.15691
G1 X196.257 Y176.634 E35.1986
G1 X196.117 Y176.946 E35.21453
G1 X195.991 Y177.217 E35.22844
G1 X195.867 Y177.475 E35.24177
G1 X195.593 Y178.025 E35.27038
G1 X195.147 Y178.83 E35.31324
G1 X194.672 Y179.54 E35.35301
G1 X194.428 Y179.867 E35.37201
G1 X194.175 Y180.193 E35.39123
G1 X193.99 Y180.425 E35.40504
G1 X193.63 Y180.863 E35.43144
G1 X193.039 Y181.524 E35.47273
G1 X192.469 Y182.108 E35.51073
G1 X182.006 Y192.571 E36.19974
G1 X181.5 Y193.061 E36.23254
G1 X180.825 Y193.664 E36.27468
G1 X180.4 Y194.011 E36.30023
G1 X180.19 Y194.178 E36.31272
G1 X179.803 Y194.478 E36.33552
G1 X179.052 Y195.01 E36.37838
G1 X178.075 Y195.568 E36.43077
G1 X177.628 Y195.793 E36.45407
G1 X177.299 Y195.952 E36.47109
G1 X176.787 Y196.188 E36.49734
G1 X175.935 Y196.536 E36.54019
G1 X174.967 Y196.833 E36.58734
G1 X174.598 Y196.927 E36.60507
G1 X174.166 Y197.027 E36.62572
G1 X173.525 Y197.162 E36.65622
G1 X172.616 Y197.313 E36.69913
G1 X171.876 Y197.376 E36.73371
G1 X171.393 Y197.393 E36.75622
G1 X170.991 Y197.398 E36.77494
G1 X170.709 Y197.398 E36.78807
G1 X170.142 Y197.39 E36.81447
G1 X169.223 Y197.337 E36.85733
G1 X168.353 Y197.212 E36.89826
G1 X167.967 Y197.138 E36.91656
G1 X167.697 Y197.082 E36.9294
G1 X167.279 Y196.987 E36.94936
G1 X166.687 Y196.839 E36.97778
G1 X165.804 Y196.577 E37.02067
G1 X165.026 Y196.273 E37.05956
G1 X164.712 Y196.133 E37.07557
G1 X164.35 Y195.964 E37.09417
G1 X164.101 Y195.844 E37.10704
G1 X163.592 Y195.59 E37.13353
G1 X162.787 Y195.143 E37.1764
G1 X162.061 Y194.656 E37.21711
G1 X161.754 Y194.427 E37.23495
G1 X161.445 Y194.188 E37.25314
G1 X161.198 Y193.991 E37.26785
G1 X160.765 Y193.635 E37.29395
G1 X160.107 Y193.046 E37.33507
G1 X159.493 Y192.447 E37.37501
G1 X137.191 Y170.145 E38.84364
G1 X123.035 Y155.992 E39.77574
G1 X122.388 Y155.327 E39.81894
G1 X121.793 Y154.66 E39.86056
G1 X121.471 Y154.267 E39.88422
G1 X121.264 Y154.006 E39.89973
G1 X120.946 Y153.592 E39.92404
G1 X120.417 Y152.838 E39.96692
G1 X119.862 Y151.857 E40.01941
G1 X118.372 Y148.862 E40.17517
G1 X117.19 Y146.646 E40.29212
G1 X115.918 Y144.416 E40.41166
G1 X114.611 Y142.267 E40.52878
G1 X113.245 Y140.158 E40.64579
G1 X111.794 Y138.052 E40.76487
G1 X110.321 Y136.038 E40.88106
G1 X108.753 Y134.016 E41.0002
G1 X107.166 Y132.086 E41.11655
G1 X105.5 Y130.173 E41.23468
G1 X103.772 Y128.296 E41.35347
G1 X102.093 Y126.571 E41.46556
G1 X93.44 Y117.919 E42.03535
G1 X91.577 Y116.109 E42.1563
G1 X89.73 Y114.412 E42.27309
G1 X87.81 Y112.748 E42.3914
G1 X85.85 Y111.14 E42.50945
G1 X83.874 Y109.612 E42.62576
G1 X81.822 Y108.118 E42.74395
G1 X79.726 Y106.68 E42.86231
G1 X77.593 Y105.302 E42.98055
G1 X75.45 Y104.003 E43.09724
G1 X73.224 Y102.738 E43.21646
G1 X71.017 Y101.565 E43.33284
G1 X68.142 Y100.135 E43.48236
G1 X67.336 Y99.69 E43.52523
G1 X66.605 Y99.2 E43.56621
G1 X66.305 Y98.976 E43.58364
G1 X65.977 Y98.722 E43.60296
G1 X65.717 Y98.514 E43.61846
G1 X65.275 Y98.149 E43.64516
G1 X64.632 Y97.572 E43.68538
G1 X64.045 Y96.999 E43.72358
G1 X41.732 Y74.686 E45.19293
G1 X27.471 Y60.427 E46.13198
G1 X26.943 Y59.884 E46.16724
G1 X26.324 Y59.188 E46.21061
G1 X26.008 Y58.8 E46.23392
G1 X25.842 Y58.591 E46.24634
G1 X25.511 Y58.163 E46.27154
G1 X24.98 Y57.411 E46.3144
G1 X24.684 Y56.922 E46.34102
G1 X24.377 Y56.348 E46.37133
G1 X24.189 Y55.969 E46.39103
G1 X24.063 Y55.706 E46.40461
G1 X23.819 Y55.178 E46.43169
G1 X23.469 Y54.326 E46.47458
G1 X23.172 Y53.36 E46.52164
G1 X23.077 Y52.989 E46.53947
G1 X22.976 Y52.558 E46.56009
G1 X22.841 Y51.921 E46.59041
G1 X22.69 Y51.013 E46.63327
G1 X22.626 Y50.29 E46.66707
G1 X22.62 Y50.178 E46.67229
G1 X22.606 Y49.728 E46.69325
G1 X22.602 Y49.367 E46.71006
G1 X22.602 Y49.087 E46.7231
G1 X22.611 Y48.502 E46.75035
G1 X22.665 Y47.583 E46.79321
G1 X22.788 Y46.73 E46.83334
G1 X22.863 Y46.339 E46.85188
G1 X22.92 Y46.065 E46.86491
G1 X23.01 Y45.67 E46.88378
G1 X23.155 Y45.086 E46.9118
G1 X23.416 Y44.203 E46.95467
G1 X23.757 Y43.335 E46.99809
G1 X23.884 Y43.051 E47.01258
G1 X24.018 Y42.763 E47.02737
G1 X24.145 Y42.502 E47.04089
G1 X24.411 Y41.969 E47.06863
G1 X24.857 Y41.164 E47.11148
G1 X25.328 Y40.46 E47.15092
G1 X25.571 Y40.135 E47.16981
