;FLAVOR:Marlin
;TIME:16457
;Filament used: 11.5079m
;Layer height: 0.2
;MINX:47.889
;MINY:54.17
;MINZ:0.2
;MAXX:187.111
;MAXY:180.816
;MAXZ:6
;Generated with Cura_SteamEngine 4.6.1
M140 S50
M105
M190 S50
M104 S205
M105
M109 S205
M82 ;absolute extrusion mode
; Ender 3 Custom Start G-code
G92 E0 ; Reset Extruder
G28 ; Home all axes
G1 Z2.0 F3000 ; Move Z Axis up little to prevent scratching of Heat Bed
G1 X0.1 Y20 Z0.3 F5000.0 ; Move to start position
G1 X0.1 Y200.0 Z0.3 F1500.0 E15 ; Draw the first line
G1 X0.4 Y200.0 Z0.3 F5000.0 ; Move to side a little
G1 X0.4 Y20 Z0.3 F1500.0 E30 ; Draw the second line
G92 E0 ; Reset Extruder
G1 Z2.0 F3000 ; Move Z Axis up little to prevent scratching of Heat Bed
G1 X5 Y20 Z0.3 F5000.0 ; Move over to prevent blob squish
G92 E0
G92 E0
G1 F2700 E-5
;LAYER_COUNT:30
;LAYER:0
M107
G0 F6000 X177.272 Y55.108 Z0.2
;TYPE:SKIRT
G1 F2700 E0
G1 F1200 X178.155 Y55.296 E0.03003
G1 X178.778 Y55.478 E0.05161
G1 X179.628 Y55.784 E0.08166
G1 X180.447 Y56.163 E0.11168
G1 X181.564 Y56.836 E0.15505
G1 X181.753 Y56.967 E0.1627
G1 X182.471 Y57.514 E0.19272
G1 X183.139 Y58.122 E0.22276
G1 X183.75 Y58.787 E0.2528
G1 X184.197 Y59.359 E0.27694
G1 X184.287 Y59.483 E0.28204
G1 X184.784 Y60.236 E0.31205
G1 X185.213 Y61.031 E0.3421
G1 X185.677 Y62.154 E0.38251
G1 X185.751 Y62.369 E0.39007
G1 X186.007 Y63.236 E0.42014
G1 X186.185 Y64.121 E0.45016
G1 X186.284 Y65.019 E0.48021
G1 X186.305 Y65.812 E0.5066
G1 X186.296 Y66.582 E0.53221
G1 X186.289 Y67.71 E0.56973
G1 X186.288 Y71.247 E0.68737
G1 X186.311 Y73.24 E0.75366
G1 X186.282 Y74.143 E0.78371
G1 X186.189 Y74.936 E0.81027
G1 X186.16 Y75.121 E0.81649
G1 X185.981 Y76.006 E0.84652
G1 X185.724 Y76.872 E0.87657
G1 X185.393 Y77.709 E0.90651
G1 X184.893 Y78.823 E0.94712
G1 X184.444 Y79.792 E0.98264
G1 X161.002 Y132.537 E2.9024
G1 X159.963 Y134.964 E2.99021
G1 X159.025 Y137.336 E3.07505
G1 X158.178 Y139.681 E3.15798
G1 X157.368 Y142.133 E3.24387
G1 X156.651 Y144.529 E3.32705
G1 X155.987 Y147 E3.41215
G1 X155.387 Y149.51 E3.49798
G1 X155.291 Y149.951 E3.513
G1 X155.164 Y150.494 E3.53154
G1 X155.02 Y151.042 E3.55039
G1 X154.76 Y151.922 E3.58091
G1 X154.172 Y153.806 E3.64655
G1 X153.955 Y154.471 E3.66982
G1 X153.643 Y155.302 E3.69934
G1 X153.266 Y156.185 E3.73127
G1 X152.485 Y157.946 E3.79535
G1 X152.187 Y158.594 E3.81907
G1 X151.782 Y159.382 E3.84854
G1 X151.347 Y160.143 E3.87769
G1 X150.326 Y161.875 E3.94456
G1 X149.963 Y162.472 E3.9678
G1 X149.466 Y163.215 E3.99753
G1 X148.947 Y163.919 E4.02662
G1 X147.734 Y165.521 E4.09346
G1 X147.306 Y166.069 E4.11658
G1 X146.751 Y166.721 E4.14506
G1 X146.096 Y167.427 E4.17709
G1 X144.748 Y168.832 E4.24185
G1 X144.245 Y169.342 E4.26568
G1 X143.623 Y169.922 E4.29396
G1 X142.926 Y170.519 E4.32449
G1 X141.419 Y171.765 E4.38952
G1 X140.848 Y172.225 E4.41391
G1 X140.137 Y172.749 E4.44329
G1 X139.362 Y173.268 E4.47431
G1 X137.734 Y174.327 E4.53891
G1 X137.131 Y174.707 E4.56261
G1 X136.386 Y175.134 E4.59117
G1 X135.542 Y175.57 E4.62277
G1 X133.736 Y176.466 E4.68982
G1 X133.153 Y176.745 E4.71132
G1 X132.358 Y177.085 E4.74008
G1 X131.461 Y177.423 E4.77196
G1 X129.636 Y178.08 E4.83647
G1 X128.969 Y178.31 E4.85994
G1 X128.124 Y178.561 E4.88926
G1 X127.227 Y178.785 E4.92001
G1 X125.328 Y179.231 E4.98489
G1 X124.652 Y179.381 E5.00792
G1 X123.746 Y179.539 E5.03851
G1 X122.824 Y179.657 E5.06942
G1 X120.851 Y179.886 E5.13549
G1 X120.193 Y179.952 E5.15748
G1 X119.346 Y180.002 E5.1857
G1 X118.4 Y180.016 E5.21717
G1 X116.408 Y180.015 E5.28342
G1 X115.731 Y180.005 E5.30594
G1 X114.872 Y179.956 E5.33456
G1 X113.869 Y179.855 E5.36809
G1 X111.94 Y179.629 E5.43269
G1 X111.274 Y179.542 E5.45503
G1 X110.419 Y179.393 E5.48389
G1 X109.532 Y179.198 E5.5141
G1 X107.567 Y178.735 E5.58124
G1 X106.902 Y178.568 E5.60405
G1 X106.088 Y178.327 E5.63228
G1 X105.203 Y178.023 E5.66341
G1 X103.406 Y177.373 E5.72697
G1 X102.692 Y177.105 E5.75233
G1 X101.866 Y176.753 E5.78219
G1 X101.077 Y176.374 E5.81131
G1 X99.264 Y175.472 E5.87866
G1 X98.679 Y175.171 E5.90054
G1 X97.912 Y174.733 E5.92992
G1 X97.091 Y174.215 E5.96221
G1 X95.462 Y173.153 E6.02688
G1 X94.882 Y172.763 E6.05013
G1 X94.2 Y172.263 E6.07826
G1 X93.491 Y171.693 E6.10851
G1 X91.964 Y170.426 E6.17451
G1 X91.409 Y169.952 E6.19878
G1 X90.769 Y169.356 E6.22787
G1 X90.113 Y168.689 E6.25899
G1 X88.78 Y167.296 E6.32311
G1 X88.306 Y166.788 E6.34622
G1 X87.721 Y166.102 E6.37621
G1 X87.117 Y165.326 E6.40891
G1 X85.963 Y163.8 E6.47255
G1 X85.537 Y163.218 E6.49654
G1 X85.068 Y162.518 E6.52456
G1 X84.572 Y161.703 E6.55629
G1 X83.571 Y160.002 E6.62194
G1 X83.243 Y159.429 E6.6439
G1 X82.829 Y158.626 E6.67395
G1 X82.441 Y157.78 E6.7049
G1 X81.641 Y155.973 E6.77063
G1 X81.381 Y155.366 E6.79259
G1 X81.061 Y154.517 E6.82277
G1 X80.776 Y153.641 E6.85341
G1 X80.19 Y151.757 E6.91903
G1 X79.987 Y151.07 E6.94286
G1 X79.841 Y150.521 E6.96175
G1 X79.65 Y149.703 E6.98969
G1 X79.428 Y148.687 E7.02428
G1 X78.813 Y146.21 E7.10917
G1 X78.13 Y143.764 E7.19364
G1 X77.381 Y141.342 E7.27796
G1 X76.568 Y138.955 E7.36183
G1 X75.669 Y136.542 E7.44747
G1 X74.715 Y134.187 E7.53198
G1 X74.038 Y132.624 E7.58864
G1 X50.514 Y79.698 E9.51501
G1 X49.89 Y78.345 E9.56457
G1 X49.601 Y77.697 E9.58816
G1 X49.27 Y76.856 E9.61822
G1 X49.015 Y75.99 E9.64825
G1 X48.837 Y75.105 E9.67828
G1 X48.747 Y74.328 E9.70429
G1 X48.718 Y73.953 E9.7168
G1 X48.689 Y73.039 E9.74722
G1 X48.711 Y71.289 E9.80543
G1 X48.711 Y67.753 E9.92303
G1 X48.705 Y66.675 E9.95889
G1 X48.695 Y65.801 E9.98796
G1 X48.724 Y64.899 E10.01798
G1 X48.833 Y64.002 E10.04803
G1 X49.021 Y63.119 E10.07806
G1 X49.203 Y62.496 E10.09964
G1 X49.509 Y61.646 E10.12969
G1 X49.888 Y60.827 E10.15971
G1 X50.575 Y59.69 E10.20389
G1 X50.706 Y59.502 E10.21151
G1 X51.255 Y58.784 E10.24157
G1 X51.865 Y58.118 E10.27161
G1 X52.531 Y57.509 E10.30163
G1 X53.072 Y57.087 E10.32445
G1 X53.197 Y56.996 E10.32959
G1 X53.95 Y56.497 E10.35964
G1 X54.744 Y56.067 E10.38967
G1 X55.92 Y55.584 E10.43195
G1 X56.132 Y55.512 E10.4394
G1 X56.999 Y55.26 E10.46943
G1 X57.885 Y55.085 E10.49947
G1 X58.783 Y54.989 E10.52951
G1 X59.526 Y54.971 E10.55422
G1 X60.279 Y54.979 E10.57927
G1 X61.441 Y54.986 E10.61792
G1 X98.688 Y54.987 E11.85676
G1 X173.467 Y54.986 E14.34392
G1 X174.597 Y54.98 E14.3815
G1 X175.473 Y54.97 E14.41064
G1 X176.375 Y54.999 E14.44066
G1 X177.272 Y55.108 E14.47071
G0 F6000 X177.302 Y54.708
G1 F1200 X178.204 Y54.896 E14.50136
G1 X178.897 Y55.096 E14.52535
G1 X179.763 Y55.407 E14.55595
G1 X180.6 Y55.792 E14.58659
G1 X181.399 Y56.248 E14.61719
G1 X181.791 Y56.507 E14.63282
G1 X181.98 Y56.638 E14.64047
G1 X182.714 Y57.195 E14.67111
G1 X183.396 Y57.813 E14.70173
G1 X184.022 Y58.488 E14.73234
G1 X184.521 Y59.124 E14.75923
G1 X184.611 Y59.248 E14.76433
G1 X185.119 Y60.015 E14.79493
G1 X185.558 Y60.825 E14.82557
G1 X186.055 Y62.024 E14.86874
G1 X186.129 Y62.239 E14.8763
G1 X186.39 Y63.122 E14.90693
G1 X186.574 Y64.024 E14.93754
G1 X186.679 Y64.939 E14.96818
G1 X186.705 Y65.817 E14.99739
G1 X186.696 Y66.585 E15.02294
G1 X186.689 Y67.713 E15.06046
G1 X186.688 Y71.247 E15.178
G1 X186.711 Y73.236 E15.24416
G1 X186.682 Y74.156 E15.27477
G1 X186.584 Y74.998 E15.30296
G1 X186.555 Y75.183 E15.30919
G1 X186.373 Y76.085 E15.3398
G1 X186.114 Y76.968 E15.3704
G1 X185.758 Y77.872 E15.40272
G1 X185.256 Y78.991 E15.44351
G1 X184.786 Y80.006 E15.48071
G1 X161.376 Y132.678 E17.39783
G1 X160.331 Y135.12 E17.48617
G1 X159.397 Y137.482 E17.57065
G1 X158.559 Y139.805 E17.65279
G1 X157.748 Y142.258 E17.73872
G1 X157.031 Y144.651 E17.82181
G1 X156.378 Y147.082 E17.90553
G1 X155.777 Y149.601 E17.99166
G1 X155.68 Y150.042 E18.00668
G1 X155.553 Y150.585 E18.02523
G1 X155.404 Y151.154 E18.04479
G1 X155.142 Y152.041 E18.07555
G1 X154.552 Y153.93 E18.14137
G1 X154.335 Y154.595 E18.16464
G1 X154.011 Y155.459 E18.19533
G1 X153.632 Y156.347 E18.22744
G1 X152.848 Y158.113 E18.29171
G1 X152.55 Y158.761 E18.31543
G1 X152.13 Y159.58 E18.34604
G1 X151.692 Y160.346 E18.37539
G1 X150.668 Y162.083 E18.44246
G1 X150.305 Y162.68 E18.4657
G1 X149.788 Y163.452 E18.4966
G1 X149.267 Y164.16 E18.52584
G1 X148.049 Y165.768 E18.59293
G1 X147.621 Y166.316 E18.61606
G1 X147.045 Y166.993 E18.64562
G1 X146.385 Y167.703 E18.67786
G1 X145.033 Y169.113 E18.74283
G1 X144.53 Y169.623 E18.76666
G1 X143.884 Y170.226 E18.79605
G1 X143.181 Y170.827 E18.82681
G1 X141.67 Y172.077 E18.89204
G1 X141.099 Y172.537 E18.91642
G1 X140.36 Y173.081 E18.94695
G1 X139.58 Y173.603 E18.97816
G1 X137.947 Y174.666 E19.04297
G1 X137.344 Y175.046 E19.06667
G1 X136.57 Y175.49 E19.09635
G1 X135.719 Y175.928 E19.12819
G1 X133.909 Y176.827 E19.1954
G1 X133.326 Y177.106 E19.2169
G1 X132.499 Y177.459 E19.24681
G1 X131.596 Y177.799 E19.2789
G1 X129.767 Y178.458 E19.34356
G1 X129.1 Y178.688 E19.36703
G1 X128.221 Y178.949 E19.39752
G1 X127.318 Y179.174 E19.42848
G1 X125.414 Y179.621 E19.49353
G1 X124.738 Y179.771 E19.51656
G1 X123.797 Y179.936 E19.54833
G1 X122.87 Y180.055 E19.57942
G1 X120.891 Y180.284 E19.64568
G1 X120.233 Y180.35 E19.66767
G1 X119.353 Y180.402 E19.69699
G1 X118.4 Y180.416 E19.72869
G1 X116.402 Y180.415 E19.79515
G1 X115.725 Y180.405 E19.81767
G1 X114.832 Y180.354 E19.84742
G1 X113.822 Y180.252 E19.88118
G1 X111.888 Y180.026 E19.94594
G1 X111.222 Y179.939 E19.96828
G1 X110.333 Y179.784 E19.9983
G1 X109.441 Y179.588 E20.02867
G1 X107.469 Y179.123 E20.09606
G1 X106.804 Y178.956 E20.11887
G1 X105.959 Y178.706 E20.14817
G1 X105.067 Y178.399 E20.17955
G1 X103.265 Y177.748 E20.24328
G1 X102.551 Y177.48 E20.26864
G1 X101.693 Y177.114 E20.29967
G1 X100.899 Y176.732 E20.32897
G1 X99.081 Y175.828 E20.3965
G1 X98.496 Y175.527 E20.41838
G1 X97.699 Y175.072 E20.44891
G1 X96.873 Y174.55 E20.48141
G1 X95.239 Y173.485 E20.54628
G1 X94.659 Y173.095 E20.56953
G1 X93.95 Y172.575 E20.59877
G1 X93.236 Y172.001 E20.62924
G1 X91.704 Y170.73 E20.69545
G1 X91.149 Y170.256 E20.71972
G1 X90.484 Y169.637 E20.74994
G1 X89.824 Y168.966 E20.78124
G1 X88.488 Y167.568 E20.84556
G1 X88.014 Y167.06 E20.86867
G1 X87.406 Y166.348 E20.89981
G1 X86.798 Y165.568 E20.9327
G1 X85.641 Y164.036 E20.99656
G1 X85.215 Y163.454 E21.02054
G1 X84.727 Y162.726 E21.04969
G1 X84.227 Y161.906 E21.08164
G1 X83.224 Y160.201 E21.14743
G1 X82.896 Y159.628 E21.16939
G1 X82.466 Y158.793 E21.20063
G1 X82.075 Y157.942 E21.23178
G1 X81.273 Y156.131 E21.29765
G1 X81.013 Y155.524 E21.31962
G1 X80.681 Y154.641 E21.35099
G1 X80.394 Y153.76 E21.38181
G1 X79.807 Y151.871 E21.4476
G1 X79.604 Y151.184 E21.47143
G1 X79.452 Y150.613 E21.49108
G1 X79.259 Y149.788 E21.51926
G1 X79.037 Y148.771 E21.55389
G1 X78.425 Y146.309 E21.63826
G1 X77.746 Y143.875 E21.72231
G1 X77.006 Y141.484 E21.80556
G1 X76.177 Y139.05 E21.89108
G1 X75.307 Y136.715 E21.97396
G1 X74.349 Y134.349 E22.05886
G1 X73.633 Y132.697 E22.11874
G1 X50.157 Y79.878 E24.04121
G1 X49.525 Y78.508 E24.09139
G1 X49.236 Y77.86 E24.11499
G1 X48.898 Y77.003 E24.14563
G1 X48.635 Y76.121 E24.17625
G1 X48.45 Y75.219 E24.20687
G1 X48.349 Y74.359 E24.23567
G1 X48.32 Y73.984 E24.24818
G1 X48.289 Y73.034 E24.2798
G1 X48.311 Y71.244 E24.33934
G1 X48.311 Y67.753 E24.45545
G1 X48.305 Y66.677 E24.49124
G1 X48.295 Y65.806 E24.52021
G1 X48.324 Y64.886 E24.55082
G1 X48.433 Y63.972 E24.58144
G1 X48.621 Y63.071 E24.61205
G1 X48.821 Y62.377 E24.63607
G1 X49.132 Y61.511 E24.66668
G1 X49.517 Y60.674 E24.69732
G1 X49.973 Y59.875 E24.72792
G1 X50.247 Y59.461 E24.74443
G1 X50.378 Y59.273 E24.75205
G1 X50.937 Y58.541 E24.78268
G1 X51.557 Y57.861 E24.81329
G1 X52.234 Y57.236 E24.84394
G1 X52.836 Y56.763 E24.8694
G1 X52.961 Y56.672 E24.87454
G1 X53.728 Y56.163 E24.90516
G1 X54.537 Y55.723 E24.93579
G1 X55.791 Y55.205 E24.98091
G1 X56.003 Y55.133 E24.98836
G1 X56.887 Y54.875 E25.01899
G1 X57.79 Y54.695 E25.04961
G1 X58.705 Y54.594 E25.08023
G1 X59.53 Y54.571 E25.10768
G1 X60.282 Y54.579 E25.1327
G1 X61.444 Y54.586 E25.17134
G1 X98.688 Y54.587 E26.41009
G1 X173.465 Y54.586 E28.89718
G1 X174.595 Y54.58 E28.93476
G1 X175.468 Y54.57 E28.9638
G1 X176.388 Y54.599 E28.99442
G1 X177.302 Y54.708 E29.02503
G0 F6000 X177.332 Y54.308
G1 F1200 X178.251 Y54.495 E29.05622
G1 X179.015 Y54.714 E29.08266
G1 X179.898 Y55.03 E29.11385
G1 X180.751 Y55.42 E29.14505
G1 X181.568 Y55.882 E29.17626
G1 X182.019 Y56.178 E29.19421
G1 X182.208 Y56.309 E29.20185
G1 X182.956 Y56.876 E29.23307
G1 X183.652 Y57.504 E29.26425
G1 X184.292 Y58.189 E29.29543
G1 X184.844 Y58.889 E29.32508
G1 X184.934 Y59.013 E29.33018
G1 X185.452 Y59.794 E29.36135
G1 X185.902 Y60.618 E29.39258
G1 X186.433 Y61.894 E29.43854
G1 X186.507 Y62.109 E29.44611
G1 X186.774 Y63.008 E29.4773
G1 X186.964 Y63.927 E29.50851
G1 X187.075 Y64.858 E29.53969
G1 X187.105 Y65.822 E29.57177
G1 X187.096 Y66.587 E29.59722
G1 X187.089 Y67.715 E29.63474
G1 X187.088 Y71.247 E29.75221
G1 X187.111 Y73.231 E29.8182
G1 X187.082 Y74.168 E29.84938
G1 X186.979 Y75.06 E29.87925
G1 X186.95 Y75.245 E29.88548
G1 X186.766 Y76.164 E29.91665
G1 X186.503 Y77.064 E29.94784
G1 X186.123 Y78.036 E29.98255
G1 X185.619 Y79.159 E30.02349
G1 X185.157 Y80.156 E30.06004
G1 X161.735 Y132.856 E31.97816
G1 X160.707 Y135.258 E32.06506
G1 X159.781 Y137.599 E32.14879
G1 X158.92 Y139.984 E32.23313
G1 X158.145 Y142.329 E32.31527
G1 X157.416 Y144.764 E32.39981
G1 X156.76 Y147.208 E32.48398
G1 X156.166 Y149.691 E32.56889
G1 X156.07 Y150.133 E32.58394
G1 X155.943 Y150.676 E32.60249
G1 X155.787 Y151.267 E32.62282
G1 X155.524 Y152.16 E32.65378
G1 X154.932 Y154.054 E32.71978
G1 X154.715 Y154.719 E32.74304
G1 X154.379 Y155.616 E32.7749
G1 X153.998 Y156.509 E32.8072
G1 X153.212 Y158.28 E32.87164
G1 X152.914 Y158.928 E32.89536
G1 X152.477 Y159.778 E32.92715
G1 X152.036 Y160.549 E32.95669
G1 X151.01 Y162.291 E33.02393
G1 X150.647 Y162.888 E33.04717
G1 X150.11 Y163.689 E33.07925
G1 X149.586 Y164.401 E33.10865
G1 X148.364 Y166.014 E33.17596
G1 X147.936 Y166.562 E33.19908
G1 X147.338 Y167.265 E33.22978
G1 X146.674 Y167.98 E33.26223
G1 X145.318 Y169.394 E33.3274
G1 X144.815 Y169.904 E33.35122
G1 X144.144 Y170.53 E33.38174
G1 X143.436 Y171.135 E33.41272
G1 X141.921 Y172.388 E33.47811
G1 X141.35 Y172.848 E33.50249
G1 X140.583 Y173.413 E33.53418
G1 X139.799 Y173.938 E33.56556
G1 X138.161 Y175.004 E33.63056
G1 X137.558 Y175.384 E33.65427
G1 X136.754 Y175.845 E33.68509
G1 X135.897 Y176.287 E33.71717
G1 X134.081 Y177.187 E33.78458
G1 X133.498 Y177.466 E33.80607
G1 X132.641 Y177.833 E33.83708
G1 X131.732 Y178.175 E33.86938
G1 X129.897 Y178.836 E33.93425
G1 X129.23 Y179.066 E33.95772
G1 X128.319 Y179.337 E33.98933
G1 X127.41 Y179.564 E34.0205
G1 X125.501 Y180.012 E34.08571
G1 X124.825 Y180.162 E34.10874
G1 X123.848 Y180.333 E34.14173
G1 X122.917 Y180.452 E34.17295
G1 X120.931 Y180.682 E34.23945
G1 X120.273 Y180.748 E34.26144
G1 X119.359 Y180.801 E34.29189
G1 X118.4 Y180.816 E34.32379
G1 X116.397 Y180.815 E34.39041
G1 X115.72 Y180.805 E34.41293
G1 X114.793 Y180.752 E34.44382
G1 X113.776 Y180.649 E34.47781
G1 X111.836 Y180.422 E34.54278
G1 X111.17 Y180.335 E34.56512
G1 X110.248 Y180.175 E34.59624
G1 X109.349 Y179.977 E34.62686
G1 X107.372 Y179.511 E34.69442
G1 X106.707 Y179.344 E34.71722
G1 X105.83 Y179.084 E34.74765
G1 X104.931 Y178.776 E34.77925
G1 X103.124 Y178.122 E34.84317
G1 X102.41 Y177.854 E34.86853
G1 X101.52 Y177.475 E34.90071
G1 X100.721 Y177.09 E34.93021
G1 X98.898 Y176.183 E34.99793
G1 X98.313 Y175.882 E35.01981
G1 X97.486 Y175.41 E35.05148
G1 X96.654 Y174.885 E35.0842
G1 X95.016 Y173.817 E35.14924
G1 X94.436 Y173.427 E35.17249
G1 X93.701 Y172.887 E35.20282
G1 X92.981 Y172.309 E35.23353
G1 X91.444 Y171.035 E35.29993
G1 X90.889 Y170.561 E35.32421
G1 X90.199 Y169.918 E35.35558
G1 X89.535 Y169.242 E35.38709
G1 X88.195 Y167.841 E35.45157
G1 X87.721 Y167.333 E35.47468
G1 X87.09 Y166.594 E35.507
G1 X86.48 Y165.809 E35.54007
G1 X85.318 Y164.272 E35.60415
G1 X84.892 Y163.69 E35.62814
G1 X84.386 Y162.935 E35.65837
G1 X83.882 Y162.109 E35.69055
G1 X82.876 Y160.4 E35.75651
G1 X82.548 Y159.827 E35.77847
G1 X82.102 Y158.96 E35.8109
G1 X81.709 Y158.104 E35.84223
G1 X80.906 Y156.288 E35.90827
G1 X80.646 Y155.681 E35.93023
G1 X80.301 Y154.765 E35.96279
G1 X80.012 Y153.879 E35.99379
G1 X79.423 Y151.984 E36.05979
G1 X79.22 Y151.297 E36.08361
G1 X79.063 Y150.705 E36.10398
