;FLAVOR:Marlin
;TIME:10271
;Filament used: 12.2831m
;Layer height: 0.28
;MINX:40.287
;MINY:46.565
;MINZ:0.28
;MAXX:179.71
;MAXY:173.429
;MAXZ:5.88
;Generated with Cura_SteamEngine 4.8.0
M140 S60
M105
M190 S60
M104 S205
M105
M109 S205
M82 ;absolute extrusion mode
; Ender 3 Custom Start G-code
G92 E0 ; Reset Extruder
G28 ; Home all axes
G1 Z2.0 F3000 ; Move Z Axis up little to prevent scratching of Heat Bed
G1 X0.1 Y20 Z0.3 F5000.0 ; Move to start position
G1 X0.1 Y200.0 Z0.3 F1500.0 E15 ; Draw the first line
G1 X0.4 Y200.0 Z0.3 F5000.0 ; Move to side a little
G1 X0.4 Y20 Z0.3 F1500.0 E30 ; Draw the second line
G92 E0 ; Reset Extruder
G1 Z2.0 F3000 ; Move Z Axis up little to prevent scratching of Heat Bed
G1 X5 Y20 Z0.3 F5000.0 ; Move over to prevent blob squish
G92 E0
G92 E0
G1 F2400 E-6.5
;LAYER_COUNT:21
;LAYER:0
M107
G0 F6000 X43.912 Y49.838 Z0.28
;TYPE:SKIRT
G1 F2400 E0
G1 F1200 X44.615 Y49.218 E0.04365
G1 X45.3 Y48.707 E0.08344
G1 X45.479 Y48.584 E0.09355
G1 X46.274 Y48.086 E0.13724
G1 X47.109 Y47.658 E0.18093
G1 X48.043 Y47.279 E0.22786
G1 X48.275 Y47.197 E0.23932
G1 X49.172 Y46.922 E0.28301
G1 X50.089 Y46.725 E0.32668
G1 X51.019 Y46.607 E0.37033
G1 X51.723 Y46.57 E0.40316
G1 X52.174 Y46.565 E0.42416
G1 X53.112 Y46.572 E0.46784
G1 X167.45 Y46.573 E5.79189
G1 X168.151 Y46.583 E5.82454
G1 X169.087 Y46.636 E5.86819
G1 X170.039 Y46.774 E5.91299
G1 X170.579 Y46.886 E5.93867
G1 X170.788 Y46.935 E5.94866
G1 X171.691 Y47.188 E5.99233
G1 X172.569 Y47.517 E6.03599
G1 X173.416 Y47.919 E6.07964
G1 X174.607 Y48.649 E6.14469
G1 X174.823 Y48.801 E6.15699
G1 X175.567 Y49.373 E6.20069
G1 X176.259 Y50.006 E6.24436
G1 X176.894 Y50.696 E6.28802
G1 X177.492 Y51.472 E6.33364
G1 X177.615 Y51.647 E6.3436
G1 X178.122 Y52.436 E6.38727
G1 X178.559 Y53.266 E6.43095
G1 X178.93 Y54.147 E6.47546
G1 X179.019 Y54.387 E6.48738
G1 X179.307 Y55.28 E6.53107
G1 X179.518 Y56.194 E6.57475
G1 X179.651 Y57.122 E6.6184
G1 X179.698 Y57.814 E6.6507
G1 X179.703 Y57.952 E6.65713
G1 X179.71 Y58.431 E6.67944
G1 X179.703 Y59.38 E6.72363
G1 X179.701 Y65.309 E6.99971
G1 X179.691 Y65.996 E7.0317
G1 X179.641 Y66.894 E7.07358
G1 X179.615 Y67.163 E7.08616
G1 X179.485 Y68.092 E7.12984
G1 X179.276 Y69.006 E7.1735
G1 X178.991 Y69.9 E7.21719
G1 X178.691 Y70.633 E7.25407
G1 X178.106 Y71.928 E7.32024
G1 X154.306 Y125.477 E10.04889
G1 X153.328 Y127.766 E10.1648
G1 X152.394 Y130.131 E10.2832
G1 X151.534 Y132.506 E10.40082
G1 X150.74 Y134.906 E10.51853
G1 X150.025 Y137.297 E10.63473
G1 X149.373 Y139.719 E10.75153
G1 X148.777 Y142.221 E10.87129
G1 X148.707 Y142.548 E10.88686
G1 X148.654 Y142.782 E10.89803
G1 X148.55 Y143.221 E10.91904
G1 X148.401 Y143.783 E10.94612
G1 X148.129 Y144.705 E10.99088
G1 X147.548 Y146.569 E11.08179
G1 X147.32 Y147.268 E11.11603
G1 X146.981 Y148.171 E11.16094
G1 X146.62 Y149.015 E11.20368
G1 X145.805 Y150.85 E11.29718
G1 X145.521 Y151.469 E11.32889
G1 X145.075 Y152.336 E11.37429
G1 X144.626 Y153.121 E11.4164
G1 X143.607 Y154.848 E11.50977
G1 X143.243 Y155.446 E11.54237
G1 X142.718 Y156.231 E11.58634
G1 X142.138 Y157.02 E11.63194
G1 X140.968 Y158.565 E11.72218
G1 X140.525 Y159.133 E11.75572
G1 X139.914 Y159.85 E11.79959
G1 X139.273 Y160.539 E11.84341
G1 X138.005 Y161.865 E11.92884
G1 X137.401 Y162.479 E11.96895
G1 X136.718 Y163.117 E12.01247
G1 X135.979 Y163.747 E12.05768
G1 X134.453 Y165.01 E12.14992
G1 X133.936 Y165.427 E12.18085
G1 X133.171 Y165.991 E12.22511
G1 X132.338 Y166.55 E12.27182
G1 X130.709 Y167.609 E12.36229
G1 X130.107 Y167.988 E12.39541
G1 X129.304 Y168.447 E12.43848
G1 X128.47 Y168.877 E12.48218
G1 X126.655 Y169.778 E12.57653
G1 X126.05 Y170.068 E12.60777
G1 X125.182 Y170.439 E12.65173
G1 X124.263 Y170.785 E12.69745
G1 X122.428 Y171.446 E12.78827
G1 X121.75 Y171.679 E12.82165
G1 X120.859 Y171.943 E12.86492
G1 X119.919 Y172.179 E12.91005
G1 X118.027 Y172.622 E13.00054
G1 X117.33 Y172.776 E13.03377
G1 X116.382 Y172.942 E13.07859
G1 X115.441 Y173.064 E13.12277
G1 X113.447 Y173.294 E13.21624
G1 X112.787 Y173.361 E13.24713
G1 X111.844 Y173.416 E13.29111
G1 X110.892 Y173.429 E13.33544
G1 X108.892 Y173.428 E13.42857
G1 X108.207 Y173.418 E13.46047
G1 X107.271 Y173.364 E13.50413
G1 X106.316 Y173.267 E13.54883
G1 X104.317 Y173.035 E13.64253
G1 X103.661 Y172.949 E13.67334
G1 X102.752 Y172.79 E13.71631
G1 X101.748 Y172.571 E13.76416
G1 X100.058 Y172.174 E13.845
G1 X99.177 Y171.954 E13.88728
G1 X98.286 Y171.69 E13.93055
G1 X97.371 Y171.375 E13.97561
G1 X95.529 Y170.71 E14.0668
G1 X94.858 Y170.457 E14.10019
G1 X93.997 Y170.089 E14.14379
G1 X93.163 Y169.689 E14.18686
G1 X91.381 Y168.801 E14.27957
G1 X90.746 Y168.474 E14.31283
G1 X89.918 Y168.002 E14.35721
G1 X89.1 Y167.485 E14.40227
G1 X87.498 Y166.441 E14.49131
G1 X86.868 Y166.018 E14.52664
G1 X86.111 Y165.461 E14.5704
G1 X85.388 Y164.879 E14.61362
G1 X83.874 Y163.624 E14.70519
G1 X83.316 Y163.148 E14.73934
G1 X82.62 Y162.5 E14.78363
G1 X81.969 Y161.837 E14.82689
G1 X80.606 Y160.412 E14.91871
G1 X80.113 Y159.881 E14.95245
G1 X79.507 Y159.17 E14.99595
G1 X78.888 Y158.376 E15.04283
G1 X77.73 Y156.844 E15.13225
G1 X77.304 Y156.263 E15.1658
G1 X76.786 Y155.49 E15.20913
G1 X76.288 Y154.671 E15.25376
G1 X75.27 Y152.944 E15.34711
G1 X74.933 Y152.353 E15.37879
G1 X74.5 Y151.51 E15.42292
G1 X74.132 Y150.71 E15.46392
G1 X73.308 Y148.851 E15.55861
G1 X73.031 Y148.203 E15.59142
G1 X72.689 Y147.292 E15.63673
G1 X72.411 Y146.436 E15.67864
G1 X71.813 Y144.514 E15.77237
G1 X71.609 Y143.823 E15.80592
G1 X71.452 Y143.228 E15.83457
G1 X71.238 Y142.317 E15.87815
G1 X71.015 Y141.303 E15.92649
G1 X70.411 Y138.878 E16.04286
G1 X69.739 Y136.478 E16.15891
G1 X68.985 Y134.045 E16.27752
G1 X68.176 Y131.677 E16.39404
G1 X67.291 Y129.31 E16.51171
G1 X66.336 Y126.956 E16.63
G1 X65.698 Y125.484 E16.7047
G1 X41.537 Y71.12 E19.47486
G1 X41.259 Y70.472 E19.50769
G1 X40.871 Y69.423 E19.55977
G1 X40.793 Y69.174 E19.57192
G1 X40.551 Y68.268 E19.61559
G1 X40.387 Y67.345 E19.65924
G1 X40.293 Y66.123 E19.71631
G1 X40.287 Y65.655 E19.7381
G1 X40.297 Y64.462 E19.79366
G1 X40.298 Y58.811 E20.05679
G1 X40.309 Y58.105 E20.08967
G1 X40.364 Y57.168 E20.13337
G1 X40.574 Y55.87 E20.1946
G1 X40.639 Y55.58 E20.20844
G1 X40.883 Y54.675 E20.25208
G1 X41.203 Y53.793 E20.29577
G1 X41.598 Y52.942 E20.33946
G1 X42.063 Y52.128 E20.38311
G1 X42.518 Y51.459 E20.42078
G1 X42.675 Y51.246 E20.43311
G1 X43.264 Y50.516 E20.47678
G1 X43.912 Y49.838 E20.52045
G0 F6000 X44.213 Y50.103
G1 F1200 X44.906 Y49.497 E20.56332
G1 X45.527 Y49.037 E20.59931
G1 X45.706 Y48.914 E20.60942
G1 X46.487 Y48.426 E20.6523
G1 X47.307 Y48.007 E20.69518
G1 X48.177 Y47.656 E20.73886
G1 X48.409 Y47.574 E20.75032
G1 X49.289 Y47.305 E20.79317
G1 X50.19 Y47.114 E20.83606
G1 X51.103 Y47.001 E20.87889
G1 X51.73 Y46.97 E20.90812
G1 X52.171 Y46.965 E20.92866
G1 X53.109 Y46.972 E20.97234
G1 X167.444 Y46.973 E26.29626
G1 X168.145 Y46.983 E26.3289
G1 X169.064 Y47.036 E26.37176
G1 X169.964 Y47.167 E26.41411
G1 X170.488 Y47.276 E26.43904
G1 X170.697 Y47.325 E26.44903
G1 X171.583 Y47.574 E26.49189
G1 X172.444 Y47.899 E26.53474
G1 X173.274 Y48.297 E26.5776
G1 X174.377 Y48.976 E26.63791
G1 X174.593 Y49.128 E26.65021
G1 X175.322 Y49.69 E26.69307
G1 X176 Y50.313 E26.73595
G1 X176.621 Y50.993 E26.77883
G1 X177.165 Y51.702 E26.82044
G1 X177.288 Y51.877 E26.8304
G1 X177.784 Y52.652 E26.87325
G1 X178.211 Y53.468 E26.91613
G1 X178.555 Y54.286 E26.95745
G1 X178.644 Y54.526 E26.96937
G1 X178.926 Y55.403 E27.01226
G1 X179.131 Y56.3 E27.05511
G1 X179.258 Y57.212 E27.09799
G1 X179.298 Y57.828 E27.12673
G1 X179.303 Y57.966 E27.13316
G1 X179.31 Y58.428 E27.15468
G1 X179.303 Y59.377 E27.19887
G1 X179.301 Y65.303 E27.47481
G1 X179.291 Y65.99 E27.5068
G1 X179.243 Y66.856 E27.54718
G1 X179.217 Y67.125 E27.55977
G1 X179.089 Y68.036 E27.60261
G1 X178.882 Y68.934 E27.64552
G1 X178.598 Y69.809 E27.68835
G1 X178.326 Y70.469 E27.72159
G1 X177.741 Y71.764 E27.78776
G1 X154.001 Y125.176 E30.50945
G1 X152.947 Y127.641 E30.63428
G1 X152.022 Y129.985 E30.75162
G1 X151.15 Y132.392 E30.87083
G1 X150.363 Y134.771 E30.98751
G1 X149.641 Y137.183 E31.10474
G1 X148.984 Y139.628 E31.22263
G1 X148.377 Y142.172 E31.34442
G1 X148.265 Y142.69 E31.36909
G1 X148.161 Y143.129 E31.3901
G1 X148.017 Y143.67 E31.41617
G1 X147.747 Y144.586 E31.46064
G1 X147.212 Y146.306 E31.54451
G1 X146.939 Y147.144 E31.58555
G1 X146.613 Y148.014 E31.62881
G1 X146.254 Y148.853 E31.67131
G1 X145.441 Y150.683 E31.76455
G1 X145.157 Y151.302 E31.79626
G1 X144.728 Y152.138 E31.84002
G1 X144.282 Y152.918 E31.88185
G1 X143.266 Y154.64 E31.97495
G1 X142.902 Y155.238 E32.00755
G1 X142.395 Y155.995 E32.04998
G1 X141.819 Y156.778 E32.09524
G1 X140.652 Y158.319 E32.18525
G1 X140.209 Y158.887 E32.21879
G1 X139.621 Y159.578 E32.26104
G1 X138.984 Y160.263 E32.3046
G1 X137.604 Y161.705 E32.39753
G1 X137.117 Y162.199 E32.42984
G1 X136.458 Y162.813 E32.47178
G1 X135.724 Y163.439 E32.5167
G1 X134.202 Y164.699 E32.6087
G1 X133.685 Y165.116 E32.63963
G1 X132.948 Y165.659 E32.68226
G1 X132.119 Y166.215 E32.72874
G1 X130.495 Y167.27 E32.81891
G1 X129.893 Y167.649 E32.85204
G1 X129.12 Y168.092 E32.89352
G1 X128.292 Y168.519 E32.9369
G1 X126.482 Y169.418 E33.03101
G1 X125.877 Y169.708 E33.06225
G1 X125.041 Y170.065 E33.10458
G1 X124.127 Y170.409 E33.15005
G1 X122.298 Y171.068 E33.24058
G1 X121.62 Y171.301 E33.27396
G1 X120.762 Y171.556 E33.31564
G1 X119.991 Y171.75 E33.35266
G1 X118.078 Y172.2 E33.44417
G1 X117.244 Y172.385 E33.48395
G1 X116.33 Y172.546 E33.52716
G1 X115.395 Y172.667 E33.57106
G1 X113.407 Y172.896 E33.66424
G1 X112.747 Y172.963 E33.69513
G1 X111.838 Y173.016 E33.73753
G1 X110.892 Y173.029 E33.78159
G1 X108.898 Y173.028 E33.87443
G1 X108.213 Y173.018 E33.90633
G1 X107.311 Y172.966 E33.94841
G1 X106.362 Y172.87 E33.99282
G1 X104.369 Y172.638 E34.08625
G1 X103.713 Y172.552 E34.11706
G1 X102.837 Y172.4 E34.15846
G1 X102.01 Y172.22 E34.19787
G1 X100.15 Y171.784 E34.28682
G1 X99.274 Y171.566 E34.32886
G1 X98.416 Y171.312 E34.37052
G1 X97.507 Y170.999 E34.41529
G1 X95.815 Y170.389 E34.49904
G1 X94.999 Y170.082 E34.53964
G1 X94.169 Y169.728 E34.58165
G1 X93.341 Y169.331 E34.62441
G1 X91.564 Y168.446 E34.71685
G1 X90.929 Y168.119 E34.75011
G1 X90.131 Y167.663 E34.79291
G1 X89.318 Y167.149 E34.83769
G1 X87.721 Y166.109 E34.92643
G1 X87.091 Y165.686 E34.96177
G1 X86.361 Y165.15 E35.00394
G1 X85.643 Y164.571 E35.04689
G1 X84.251 Y163.418 E35.13105
G1 X83.576 Y162.843 E35.17234
G1 X82.905 Y162.219 E35.21501
G1 X82.258 Y161.561 E35.25798
G1 X80.899 Y160.14 E35.34954
G1 X80.406 Y159.609 E35.38328
G1 X79.822 Y158.924 E35.42519
G1 X79.207 Y158.135 E35.47177
G1 X78.053 Y156.608 E35.5609
G1 X77.627 Y156.027 E35.59444
G1 X77.127 Y155.281 E35.63626
G1 X76.632 Y154.468 E35.68058
G1 X75.618 Y152.746 E35.77363
G1 X75.281 Y152.155 E35.80531
G1 X74.863 Y151.342 E35.84788
G1 X74.498 Y150.548 E35.88857
G1 X73.676 Y148.693 E35.98305
G1 X73.399 Y148.045 E36.01586
G1 X73.069 Y147.167 E36.05954
G1 X72.792 Y146.317 E36.10117
G1 X72.242 Y144.551 E36.1873
G1 X71.993 Y143.709 E36.22818
G1 X71.841 Y143.137 E36.25574
G1 X71.629 Y142.231 E36.29907
G1 X71.408 Y141.226 E36.34698
G1 X70.8 Y138.788 E36.46398
G1 X70.118 Y136.347 E36.582
G1 X69.362 Y133.913 E36.70068
G1 X68.554 Y131.544 E36.81723
G1 X67.672 Y129.186 E36.93446
G1 X66.699 Y126.788 E37.05496
G1 X66.024 Y125.231 E37.13398
G1 X41.905 Y70.962 E39.8993
G1 X41.627 Y70.314 E39.93213
G1 X41.253 Y69.304 E39.98228
G1 X41.175 Y69.055 E39.99443
G1 X40.938 Y68.165 E40.03732
G1 X40.779 Y67.258 E40.0802
G1 X40.692 Y66.115 E40.13357
G1 X40.689 Y65.976 E40.14005
G1 X40.687 Y65.658 E40.15486
G1 X40.697 Y64.465 E40.21041
G1 X40.698 Y58.817 E40.4734
G1 X40.709 Y58.111 E40.50628
G1 X40.764 Y57.192 E40.54915
G1 X40.965 Y55.958 E40.60737
G1 X41.03 Y55.668 E40.62121
G1 X41.27 Y54.779 E40.66409
G1 X41.586 Y53.914 E40.70697
G1 X41.976 Y53.08 E40.74984
G1 X42.438 Y52.284 E40.79269
G1 X42.84 Y51.697 E40.82582
G1 X42.997 Y51.484 E40.83814
G1 X43.575 Y50.767 E40.88103
G1 X44.213 Y50.103 E40.9239
G0 F6000 X44.514 Y50.369
G1 F1200 X45.197 Y49.777 E40.96599
G1 X45.753 Y49.366 E40.99819
G1 X45.932 Y49.243 E41.0083
G1 X46.699 Y48.765 E41.05038
G1 X47.504 Y48.357 E41.09241
G1 X48.31 Y48.033 E41.13286
G1 X48.542 Y47.951 E41.14431
G1 X49.406 Y47.688 E41.18637
G1 X50.29 Y47.503 E41.22842
G1 X51.187 Y47.396 E41.27049
G1 X51.738 Y47.37 E41.29617
G1 X52.168 Y47.365 E41.3162
G1 X53.106 Y47.372 E41.35987
G1 X167.438 Y47.373 E46.68365
G1 X168.139 Y47.383 E46.7163
G1 X169.041 Y47.436 E46.75837
G1 X169.89 Y47.56 E46.79832
G1 X170.396 Y47.665 E46.82239
G1 X170.605 Y47.714 E46.83238
G1 X171.475 Y47.959 E46.87447
G1 X172.319 Y48.28 E46.91651
G1 X173.131 Y48.674 E46.95854
G1 X174.147 Y49.303 E47.01418
G1 X174.363 Y49.455 E47.02648
G1 X175.078 Y50.007 E47.06854
G1 X175.741 Y50.62 E47.11059
G1 X176.347 Y51.29 E47.15265
G1 X176.838 Y51.932 E47.19029
G1 X176.961 Y52.107 E47.20025
G1 X177.447 Y52.868 E47.24229
G1 X177.864 Y53.669 E47.28434
G1 X178.18 Y54.426 E47.32254
G1 X178.269 Y54.666 E47.33446
G1 X178.545 Y55.525 E47.37647
G1 X178.744 Y56.406 E47.41853
G1 X178.864 Y57.301 E47.46058
G1 X178.898 Y57.843 E47.48586
G1 X178.903 Y57.981 E47.49229
G1 X178.91 Y58.425 E47.51297
G1 X178.903 Y59.374 E47.55716
G1 X178.901 Y65.297 E47.83296
G1 X178.891 Y65.984 E47.86495
G1 X178.845 Y66.817 E47.9038
G1 X178.819 Y67.086 E47.91639
G1 X178.692 Y67.98 E47.95843
G1 X178.487 Y68.86 E48.00051
G1 X178.205 Y69.718 E48.04256
G1 X177.962 Y70.304 E48.0721
G1 X177.377 Y71.599 E48.13827
G1 X153.605 Y125.085 E50.86371
G1 X152.578 Y127.486 E50.98531
G1 X151.633 Y129.88 E51.10515
G1 X150.784 Y132.224 E51.22124
G1 X149.983 Y134.646 E51.34002
G1 X149.258 Y137.07 E51.45784
G1 X148.586 Y139.568 E51.57829
G1 X147.997 Y142.041 E51.69666
G1 X147.875 Y142.597 E51.72317
G1 X147.771 Y143.036 E51.74418
G1 X147.633 Y143.557 E51.76927
G1 X147.365 Y144.468 E51.81349
G1 X146.83 Y146.188 E51.89737
G1 X146.559 Y147.02 E51.93811
G1 X146.245 Y147.857 E51.97974
G1 X145.888 Y148.691 E52.02198
G1 X145.078 Y150.516 E52.11495
G1 X144.794 Y151.135 E52.14667
G1 X144.381 Y151.94 E52.1888
G1 X143.937 Y152.715 E52.23039
G1 X142.924 Y154.432 E52.32321
G1 X142.56 Y155.03 E52.35581
G1 X142.073 Y155.758 E52.3966
G1 X141.5 Y156.537 E52.44163
G1 X140.337 Y158.073 E52.53134
G1 X139.894 Y158.641 E52.56488
G1 X139.328 Y159.306 E52.60554
G1 X138.695 Y159.986 E52.6488
G1 X137.319 Y161.424 E52.74148
G1 X136.832 Y161.918 E52.77378
G1 X136.198 Y162.509 E52.81414
G1 X135.469 Y163.131 E52.85876
G1 X134.056 Y164.302 E52.94421
G1 X133.434 Y164.804 E52.98143
G1 X132.725 Y165.327 E53.02245
G1 X131.901 Y165.88 E53.06866
G1 X130.282 Y166.932 E53.15857
G1 X129.68 Y167.311 E53.19169
G1 X128.937 Y167.737 E53.23157
G1 X128.265 Y168.085 E53.26681
G1 X126.44 Y168.993 E53.36173
G1 X125.704 Y169.347 E53.39976
G1 X124.9 Y169.691 E53.44048
G1 X123.991 Y170.033 E53.4857
G1 X122.314 Y170.638 E53.56871
G1 X121.49 Y170.922 E53.6093
G1 X120.664 Y171.168 E53.64943
G1 X119.736 Y171.4 E53.69397
G1 X117.855 Y171.841 E53.78393
G1 X117.158 Y171.995 E53.81717
G1 X116.278 Y172.149 E53.85877
G1 X115.349 Y172.269 E53.90239
G1 X113.366 Y172.498 E53.99534
G1 X112.706 Y172.565 E54.02623
G1 X111.832 Y172.616 E54.067
G1 X110.892 Y172.629 E54.11077
G1 X108.904 Y172.628 E54.20334
G1 X108.219 Y172.618 E54.23524
G1 X107.351 Y172.568 E54.27572
G1 X106.408 Y172.472 E54.31986
G1 X104.421 Y172.241 E54.41301
G1 X103.765 Y172.155 E54.44382
G1 X102.922 Y172.009 E54.48365
G1 X101.931 Y171.792 E54.53089
G1 X100.094 Y171.359 E54.61877
G1 X99.372 Y171.178 E54.65343
G1 X98.546 Y170.933 E54.69355
G1 X97.643 Y170.622 E54.73802
G1 X95.811 Y169.961 E54.82871
G1 X95.14 Y169.708 E54.8621
G1 X94.342 Y169.367 E54.90251
G1 X93.519 Y168.973 E54.945
G1 X91.747 Y168.09 E55.03719
G1 X91.112 Y167.763 E55.07045
G1 X90.344 Y167.325 E55.11162
G1 X89.536 Y166.814 E55.15613
G1 X87.944 Y165.777 E55.2446
G1 X87.314 Y165.354 E55.27994
G1 X86.612 Y164.838 E55.3205
G1 X85.898 Y164.263 E55.36319
G1 X84.393 Y163.015 E55.45423
G1 X83.835 Y162.539 E55.48838
G1 X83.19 Y161.938 E55.52943
G1 X82.546 Y161.284 E55.57217
G1 X81.3 Y159.983 E55.65606
G1 X80.699 Y159.337 E55.69714
G1 X80.137 Y158.678 E55.73747
G1 X79.622 Y158.019 E55.77641
