;FLAVOR:Marlin
;TIME:10244
;Filament used: 12.2855m
;Layer height: 0.28
;MINX:47.789
;MINY:54.065
;MINZ:0.28
;MAXX:187.209
;MAXY:180.93
;MAXZ:5.88
;Generated with Cura_SteamEngine 4.6.1
M140 S50
M105
M190 S50
M104 S210
M105
M109 S210
M82 ;absolute extrusion mode
; Ender 3 Custom Start G-code
G92 E0 ; Reset Extruder
G28 ; Home all axes
G1 Z2.0 F3000 ; Move Z Axis up little to prevent scratching of Heat Bed
G1 X0.1 Y20 Z0.3 F5000.0 ; Move to start position
G1 X0.1 Y200.0 Z0.3 F1500.0 E15 ; Draw the first line
G1 X0.4 Y200.0 Z0.3 F5000.0 ; Move to side a little
G1 X0.4 Y20 Z0.3 F1500.0 E30 ; Draw the second line
G92 E0 ; Reset Extruder
G1 Z2.0 F3000 ; Move Z Axis up little to prevent scratching of Heat Bed
G1 X5 Y20 Z0.3 F5000.0 ; Move over to prevent blob squish
G92 E0
G92 E0
G1 F2700 E-5
;LAYER_COUNT:21
;LAYER:0
M107
G0 F6000 X177.231 Y55.013 Z0.28
;TYPE:SKIRT
G1 F2700 E0
G1 F1200 X178.273 Y55.249 E0.04975
G1 X178.549 Y55.327 E0.0631
G1 X179.406 Y55.611 E0.10514
G1 X180.235 Y55.97 E0.14721
G1 X181.029 Y56.4 E0.18925
G1 X181.536 Y56.726 E0.21732
G1 X181.742 Y56.867 E0.22895
G1 X182.464 Y57.409 E0.27098
G1 X183.135 Y58.014 E0.31305
G1 X183.75 Y58.675 E0.35509
G1 X184.078 Y59.081 E0.3794
G1 X184.209 Y59.252 E0.38943
G1 X184.726 Y59.993 E0.4315
G1 X185.175 Y60.776 E0.47353
G1 X185.686 Y61.938 E0.53264
G1 X185.776 Y62.183 E0.54479
G1 X186.05 Y63.044 E0.58686
G1 X186.246 Y63.925 E0.62889
G1 X186.364 Y64.82 E0.67093
G1 X186.402 Y65.7 E0.71194
G1 X186.402 Y71.921 E1.00162
G1 X186.409 Y73.097 E1.05638
G1 X186.353 Y74.224 E1.10892
G1 X186.304 Y74.689 E1.13069
G1 X186.17 Y75.582 E1.17274
G1 X185.957 Y76.46 E1.21481
G1 X185.667 Y77.315 E1.25685
G1 X185.474 Y77.777 E1.28016
G1 X184.749 Y79.392 E1.36259
G1 X161.107 Y132.581 E4.07294
G1 X160.075 Y134.994 E4.19514
G1 X159.129 Y137.385 E4.31488
G1 X158.288 Y139.713 E4.43013
G1 X157.485 Y142.145 E4.54939
G1 X156.752 Y144.592 E4.66834
G1 X156.092 Y147.05 E4.78685
G1 X155.494 Y149.55 E4.90654
G1 X155.397 Y149.994 E4.9277
G1 X155.279 Y150.501 E4.95194
G1 X155.131 Y151.066 E4.97914
G1 X154.866 Y151.963 E5.02269
G1 X154.265 Y153.892 E5.11677
G1 X154.063 Y154.511 E5.14709
G1 X153.753 Y155.337 E5.18817
G1 X153.38 Y156.211 E5.23242
G1 X152.574 Y158.027 E5.32494
G1 X152.307 Y158.61 E5.35479
G1 X151.894 Y159.415 E5.39692
G1 X151.392 Y160.294 E5.44406
G1 X150.451 Y161.888 E5.53025
G1 X150.052 Y162.544 E5.566
G1 X149.558 Y163.281 E5.60732
G1 X149.037 Y163.989 E5.64825
G1 X147.841 Y165.569 E5.74052
G1 X147.395 Y166.141 E5.77429
G1 X146.826 Y166.809 E5.81515
G1 X146.192 Y167.49 E5.85848
G1 X144.812 Y168.932 E5.95142
G1 X144.326 Y169.424 E5.98362
G1 X143.709 Y169.999 E6.02289
G1 X142.966 Y170.634 E6.0684
G1 X141.428 Y171.907 E6.16137
G1 X140.922 Y172.314 E6.19161
G1 X140.222 Y172.829 E6.23207
G1 X139.428 Y173.362 E6.2766
G1 X137.795 Y174.424 E6.36731
G1 X137.193 Y174.804 E6.40046
G1 X136.431 Y175.24 E6.44133
G1 X135.603 Y175.667 E6.48471
G1 X133.794 Y176.565 E6.57876
G1 X133.203 Y176.848 E6.60927
G1 X132.418 Y177.184 E6.64903
G1 X131.498 Y177.532 E6.69483
G1 X129.654 Y178.195 E6.78608
G1 X128.988 Y178.424 E6.81887
G1 X128.154 Y178.671 E6.85937
G1 X127.283 Y178.889 E6.90118
G1 X125.28 Y179.359 E6.99698
G1 X124.673 Y179.493 E7.02593
G1 X123.809 Y179.645 E7.06678
G1 X122.869 Y179.768 E7.11092
G1 X120.838 Y180.002 E7.20612
G1 X120.204 Y180.066 E7.23579
G1 X119.336 Y180.117 E7.27628
G1 X118.396 Y180.13 E7.32005
G1 X116.404 Y180.129 E7.41281
G1 X115.717 Y180.119 E7.4448
G1 X114.849 Y180.069 E7.48528
G1 X113.925 Y179.976 E7.52853
G1 X111.929 Y179.744 E7.62209
G1 X111.249 Y179.655 E7.65403
G1 X110.393 Y179.505 E7.69449
G1 X109.536 Y179.317 E7.73535
G1 X107.503 Y178.838 E7.83261
G1 X106.878 Y178.681 E7.86261
G1 X106.056 Y178.437 E7.90254
G1 X105.157 Y178.128 E7.9468
G1 X103.319 Y177.464 E8.0378
G1 X102.659 Y177.216 E8.07063
G1 X101.838 Y176.866 E8.11219
G1 X100.98 Y176.453 E8.15653
G1 X99.247 Y175.591 E8.24666
G1 X98.617 Y175.267 E8.27965
G1 X97.845 Y174.826 E8.32105
G1 X97.037 Y174.316 E8.36554
G1 X95.422 Y173.264 E8.45529
G1 X94.812 Y172.854 E8.48951
G1 X94.119 Y172.344 E8.52957
G1 X93.39 Y171.757 E8.57316
G1 X91.899 Y170.52 E8.66337
G1 X91.341 Y170.044 E8.69752
G1 X90.705 Y169.453 E8.73795
G1 X90.012 Y168.75 E8.78391
G1 X88.694 Y167.371 E8.87274
G1 X88.198 Y166.837 E8.90667
G1 X87.63 Y166.17 E8.94747
G1 X87.037 Y165.408 E8.99243
G1 X85.856 Y163.846 E9.08361
G1 X85.445 Y163.285 E9.11599
G1 X84.968 Y162.573 E9.1559
G1 X84.473 Y161.76 E9.20022
G1 X83.497 Y160.103 E9.28977
G1 X83.131 Y159.463 E9.3241
G1 X82.72 Y158.666 E9.36585
G1 X82.349 Y157.858 E9.40725
G1 X81.537 Y156.021 E9.50077
G1 X81.269 Y155.395 E9.53248
G1 X80.953 Y154.556 E9.57423
G1 X80.68 Y153.72 E9.61518
G1 X80.066 Y151.742 E9.71162
G1 X79.88 Y151.111 E9.74225
G1 X79.738 Y150.575 E9.76807
G1 X79.511 Y149.61 E9.81423
G1 X79.302 Y148.654 E9.8598
G1 X78.693 Y146.206 E9.97726
G1 X78.007 Y143.754 E10.09582
G1 X77.258 Y141.339 E10.21356
G1 X76.428 Y138.909 E10.33313
G1 X75.555 Y136.568 E10.44947
G1 X74.57 Y134.14 E10.57147
G1 X73.931 Y132.667 E10.64624
G1 X50.044 Y78.924 E13.38479
G1 X49.543 Y77.817 E13.44137
G1 X49.208 Y76.979 E13.48339
G1 X48.855 Y75.716 E13.54446
G1 X48.808 Y75.493 E13.55507
G1 X48.661 Y74.601 E13.59717
G1 X48.589 Y73.332 E13.65635
G1 X48.597 Y71.906 E13.72275
G1 X48.597 Y66.928 E13.95455
G1 X48.589 Y65.889 E14.00293
G1 X48.622 Y64.986 E14.04501
G1 X48.735 Y64.09 E14.08706
G1 X48.903 Y63.299 E14.12471
G1 X48.982 Y62.988 E14.13965
G1 X49.243 Y62.123 E14.18173
G1 X49.579 Y61.285 E14.22377
G1 X49.988 Y60.48 E14.26581
G1 X50.464 Y59.719 E14.30761
G1 X50.605 Y59.514 E14.31919
G1 X51.149 Y58.793 E14.36125
G1 X51.755 Y58.123 E14.40332
G1 X52.418 Y57.51 E14.44536
G1 X52.829 Y57.18 E14.4699
G1 X53.001 Y57.049 E14.47997
G1 X53.743 Y56.534 E14.52203
G1 X54.527 Y56.086 E14.56408
G1 X55.658 Y55.591 E14.62156
G1 X55.908 Y55.499 E14.63397
G1 X56.769 Y55.225 E14.67604
G1 X57.65 Y55.028 E14.71808
G1 X58.546 Y54.91 E14.76016
G1 X59.439 Y54.871 E14.80178
G1 X60.674 Y54.872 E14.85929
G1 X130.039 Y54.873 E18.08921
G1 X174.36 Y54.872 E20.15298
G1 X175.432 Y54.865 E20.2029
G1 X176.335 Y54.899 E20.24498
G1 X177.231 Y55.013 E20.28704
G0 F6000 X177.263 Y54.613
G1 F1200 X178.382 Y54.865 E20.34045
G1 X178.658 Y54.943 E20.3538
G1 X179.532 Y55.231 E20.39665
G1 X180.378 Y55.595 E20.43954
G1 X181.189 Y56.03 E20.48239
G1 X181.762 Y56.396 E20.51405
G1 X181.968 Y56.537 E20.52567
G1 X182.705 Y57.089 E20.56855
G1 X183.39 Y57.704 E20.61141
G1 X184.02 Y58.375 E20.65427
G1 X184.396 Y58.838 E20.68204
G1 X184.527 Y59.009 E20.69207
G1 X185.054 Y59.763 E20.73491
G1 X185.514 Y60.561 E20.7778
G1 X186.062 Y61.8 E20.84088
G1 X186.152 Y62.045 E20.85304
G1 X186.432 Y62.922 E20.89591
G1 X186.634 Y63.82 E20.93876
G1 X186.758 Y64.733 E20.98167
G1 X186.802 Y65.7 E21.02674
G1 X186.802 Y71.921 E21.31642
G1 X186.809 Y73.095 E21.37109
G1 X186.751 Y74.266 E21.42568
G1 X186.702 Y74.731 E21.44745
G1 X186.565 Y75.641 E21.4903
G1 X186.351 Y76.537 E21.5332
G1 X186.059 Y77.41 E21.57606
G1 X185.84 Y77.94 E21.60276
G1 X185.105 Y79.573 E21.68615
G1 X161.476 Y132.734 E24.39506
G1 X160.443 Y135.15 E24.51741
G1 X159.513 Y137.502 E24.63518
G1 X158.65 Y139.891 E24.75346
G1 X157.869 Y142.257 E24.86947
G1 X157.135 Y144.704 E24.98843
G1 X156.483 Y147.132 E25.1055
G1 X155.884 Y149.641 E25.22561
G1 X155.787 Y150.085 E25.24677
G1 X155.669 Y150.592 E25.27101
G1 X155.515 Y151.178 E25.29922
G1 X155.248 Y152.082 E25.34311
G1 X154.645 Y154.016 E25.43745
G1 X154.443 Y154.635 E25.46776
G1 X154.121 Y155.493 E25.51044
G1 X153.746 Y156.373 E25.55498
G1 X152.937 Y158.194 E25.64776
G1 X152.67 Y158.777 E25.67762
G1 X152.242 Y159.613 E25.72136
G1 X151.736 Y160.497 E25.76878
G1 X150.792 Y162.095 E25.85521
G1 X150.393 Y162.751 E25.89096
G1 X149.88 Y163.518 E25.93393
G1 X149.356 Y164.23 E25.97509
G1 X148.156 Y165.815 E26.06766
G1 X147.71 Y166.387 E26.10144
G1 X147.12 Y167.081 E26.14385
G1 X146.481 Y167.767 E26.18751
G1 X145.096 Y169.213 E26.28074
G1 X144.61 Y169.705 E26.31294
G1 X143.97 Y170.302 E26.3537
G1 X143.221 Y170.942 E26.39957
G1 X141.679 Y172.219 E26.4928
G1 X141.173 Y172.626 E26.52304
G1 X140.445 Y173.161 E26.5651
G1 X139.646 Y173.697 E26.6099
G1 X138.008 Y174.763 E26.70091
G1 X137.406 Y175.143 E26.73406
G1 X136.615 Y175.596 E26.7765
G1 X135.781 Y176.025 E26.82017
G1 X133.967 Y176.925 E26.91446
G1 X133.376 Y177.208 E26.94498
G1 X132.56 Y177.558 E26.98632
G1 X131.633 Y177.908 E27.03246
G1 X129.784 Y178.573 E27.12396
G1 X129.118 Y178.802 E27.15675
G1 X128.252 Y179.059 E27.19881
G1 X127.375 Y179.278 E27.2409
G1 X125.366 Y179.75 E27.337
G1 X124.759 Y179.884 E27.36594
G1 X123.862 Y180.042 E27.40835
G1 X122.915 Y180.165 E27.45282
G1 X120.879 Y180.4 E27.54825
G1 X120.245 Y180.464 E27.57793
G1 X119.342 Y180.517 E27.62005
G1 X118.396 Y180.53 E27.6641
G1 X116.398 Y180.529 E27.75713
G1 X115.711 Y180.519 E27.78913
G1 X114.809 Y180.467 E27.8312
G1 X113.879 Y180.373 E27.87472
G1 X111.877 Y180.14 E27.96857
G1 X111.197 Y180.051 E28.00051
G1 X110.308 Y179.896 E28.04253
G1 X109.444 Y179.706 E28.08372
G1 X107.406 Y179.226 E28.18122
G1 X106.781 Y179.069 E28.21122
G1 X105.927 Y178.815 E28.25271
G1 X105.022 Y178.504 E28.29727
G1 X103.179 Y177.839 E28.3885
G1 X102.519 Y177.591 E28.42133
G1 X101.665 Y177.227 E28.46456
G1 X100.802 Y176.812 E28.50915
G1 X99.064 Y175.946 E28.59957
G1 X98.434 Y175.622 E28.63256
G1 X97.632 Y175.165 E28.67554
G1 X96.819 Y174.651 E28.72033
G1 X95.199 Y173.595 E28.81037
G1 X94.589 Y173.185 E28.84459
G1 X93.869 Y172.656 E28.8862
G1 X93.134 Y172.065 E28.93011
G1 X91.64 Y170.824 E29.02055
G1 X91.082 Y170.348 E29.0547
G1 X90.421 Y169.734 E29.09671
G1 X89.723 Y169.026 E29.14301
G1 X88.4 Y167.643 E29.23213
G1 X87.904 Y167.109 E29.26606
G1 X87.314 Y166.416 E29.30844
G1 X86.718 Y165.65 E29.35364
G1 X85.533 Y164.082 E29.44515
G1 X85.122 Y163.521 E29.47754
G1 X84.626 Y162.781 E29.51902
G1 X84.128 Y161.963 E29.56361
G1 X83.149 Y160.301 E29.65343
G1 X82.783 Y159.661 E29.68776
G1 X82.357 Y158.833 E29.73112
G1 X81.984 Y158.019 E29.77281
G1 X81.169 Y156.179 E29.86652
G1 X80.901 Y155.553 E29.89823
G1 X80.573 Y154.68 E29.94165
G1 X80.298 Y153.839 E29.98285
G1 X79.683 Y151.855 E30.07957
G1 X79.497 Y151.224 E30.1102
G1 X79.349 Y150.667 E30.13704
G1 X79.12 Y149.695 E30.18354
G1 X78.909 Y148.73 E30.22953
G1 X78.308 Y146.314 E30.34546
G1 X77.626 Y143.875 E30.46339
G1 X76.87 Y141.439 E30.58216
G1 X76.062 Y139.072 E30.69862
G1 X75.169 Y136.679 E30.81755
G1 X74.213 Y134.322 E30.93599
G1 X73.566 Y132.829 E31.01176
G1 X49.679 Y79.086 E33.75031
G1 X49.179 Y77.982 E33.80674
G1 X48.836 Y77.128 E33.84959
G1 X48.569 Y76.247 E33.89246
G1 X48.464 Y75.798 E33.91393
G1 X48.417 Y75.575 E33.92454
G1 X48.266 Y74.667 E33.9674
G1 X48.189 Y73.33 E34.02976
G1 X48.197 Y71.904 E34.09617
G1 X48.197 Y66.931 E34.32773
G1 X48.189 Y65.892 E34.37611
G1 X48.222 Y64.972 E34.41898
G1 X48.335 Y64.058 E34.46186
G1 X48.515 Y63.2 E34.50268
G1 X48.594 Y62.889 E34.51762
G1 X48.859 Y62.008 E34.56046
G1 X49.2 Y61.152 E34.60337
G1 X49.614 Y60.33 E34.64622
G1 X50.134 Y59.492 E34.69215
G1 X50.275 Y59.287 E34.70373
G1 X50.83 Y58.552 E34.74662
G1 X51.445 Y57.867 E34.78948
G1 X52.118 Y57.239 E34.83235
G1 X52.586 Y56.861 E34.86036
G1 X52.758 Y56.73 E34.87043
G1 X53.514 Y56.205 E34.91328
G1 X54.313 Y55.747 E34.95617
G1 X55.52 Y55.215 E35.01759
G1 X55.77 Y55.123 E35.02999
G1 X56.647 Y54.843 E35.07286
G1 X57.545 Y54.64 E35.11573
G1 X58.457 Y54.516 E35.15859
G1 X59.44 Y54.471 E35.20441
G1 X60.675 Y54.472 E35.26191
G1 X130.039 Y54.473 E38.49179
G1 X174.358 Y54.472 E40.55547
G1 X175.43 Y54.465 E40.60539
G1 X176.35 Y54.499 E40.64826
G1 X177.263 Y54.613 E40.6911
G0 F6000 X177.295 Y54.213
G1 F1200 X178.491 Y54.48 E40.74816
G1 X178.767 Y54.558 E40.76152
G1 X179.657 Y54.851 E40.80515
G1 X180.52 Y55.219 E40.84883
G1 X181.348 Y55.659 E40.89249
G1 X181.988 Y56.066 E40.92781
G1 X182.194 Y56.207 E40.93943
G1 X182.945 Y56.769 E40.98311
G1 X183.645 Y57.393 E41.02678
G1 X184.289 Y58.075 E41.07046
G1 X184.713 Y58.594 E41.10166
G1 X184.844 Y58.765 E41.11169
G1 X185.382 Y59.534 E41.15539
G1 X185.853 Y60.345 E41.19906
G1 X186.253 Y61.193 E41.24272
G1 X186.437 Y61.662 E41.26618
G1 X186.527 Y61.907 E41.27833
G1 X186.813 Y62.8 E41.322
G1 X187.021 Y63.715 E41.36569
G1 X187.151 Y64.644 E41.40937
G1 X187.202 Y65.7 E41.4586
G1 X187.202 Y71.921 E41.74828
G1 X187.209 Y73.093 E41.80285
G1 X187.148 Y74.308 E41.8595
G1 X187.099 Y74.773 E41.88127
G1 X186.961 Y75.7 E41.92491
G1 X186.745 Y76.613 E41.9686
G1 X186.452 Y77.504 E42.01227
G1 X186.205 Y78.103 E42.04244
G1 X185.463 Y79.755 E42.12677
G1 X161.841 Y132.899 E44.83482
G1 X160.807 Y135.319 E44.95736
G1 X159.885 Y137.648 E45.074
G1 X159.03 Y140.015 E45.19118
G1 X158.249 Y142.382 E45.30725
G1 X157.519 Y144.818 E45.42566
G1 X156.872 Y147.224 E45.54167
G1 X156.273 Y149.731 E45.6617
G1 X156.177 Y150.176 E45.68289
G1 X156.059 Y150.683 E45.70713
G1 X155.898 Y151.291 E45.73642
G1 X155.63 Y152.201 E45.78059
G1 X155.025 Y154.141 E45.87522
G1 X154.823 Y154.76 E45.90554
G1 X154.49 Y155.65 E45.94979
G1 X154.112 Y156.536 E45.99464
G1 X153.301 Y158.36 E46.08759
G1 X153.034 Y158.943 E46.11745
G1 X152.589 Y159.811 E46.16287
G1 X152.081 Y160.7 E46.21054
G1 X151.134 Y162.303 E46.29724
G1 X150.735 Y162.959 E46.33299
G1 X150.203 Y163.754 E46.37753
G1 X149.675 Y164.472 E46.41903
G1 X148.472 Y166.061 E46.51184
G1 X148.026 Y166.633 E46.54561
G1 X147.413 Y167.353 E46.58964
G1 X146.77 Y168.043 E46.63356
G1 X145.381 Y169.494 E46.72709
G1 X144.895 Y169.986 E46.75929
G1 X144.23 Y170.606 E46.80163
G1 X143.476 Y171.25 E46.8478
G1 X141.929 Y172.53 E46.9413
G1 X141.423 Y172.937 E46.97154
G1 X140.669 Y173.493 E47.01516
G1 X139.865 Y174.033 E47.06026
G1 X138.222 Y175.101 E47.1515
G1 X137.62 Y175.481 E47.18465
G1 X136.798 Y175.951 E47.22874
G1 X135.959 Y176.383 E47.27269
G1 X134.14 Y177.286 E47.36725
G1 X133.549 Y177.569 E47.39776
G1 X132.702 Y177.932 E47.44067
G1 X131.769 Y178.284 E47.4871
G1 X129.914 Y178.951 E47.57889
G1 X129.248 Y179.18 E47.61169
G1 X128.349 Y179.447 E47.65536
G1 X127.466 Y179.667 E47.69773
G1 X125.452 Y180.14 E47.79406
G1 X124.845 Y180.274 E47.82301
G1 X123.914 Y180.438 E47.86702
G1 X122.961 Y180.563 E47.91178
G1 X120.919 Y180.798 E48.00749
G1 X120.285 Y180.862 E48.03716
G1 X119.348 Y180.917 E48.08087
G1 X118.396 Y180.93 E48.1252
G1 X116.392 Y180.929 E48.21852
G1 X115.705 Y180.919 E48.25051
G1 X114.769 Y180.865 E48.29417
G1 X113.833 Y180.77 E48.33798
G1 X111.825 Y180.537 E48.4321
G1 X111.145 Y180.448 E48.46404
G1 X110.222 Y180.287 E48.50766
G1 X109.353 Y180.095 E48.54911
G1 X107.308 Y179.614 E48.64693
G1 X106.683 Y179.457 E48.67693
G1 X105.797 Y179.194 E48.71997
G1 X104.886 Y178.88 E48.76484
G1 X103.038 Y178.213 E48.85632
G1 X102.378 Y177.965 E48.88915
G1 X101.492 Y177.587 E48.93401
G1 X100.624 Y177.17 E48.97885
G1 X98.881 Y176.302 E49.06951
G1 X98.251 Y175.978 E49.1025
G1 X97.419 Y175.503 E49.14711
G1 X96.601 Y174.987 E49.19215
G1 X94.976 Y173.927 E49.28249
G1 X94.366 Y173.517 E49.31671
G1 X93.618 Y172.968 E49.35992
G1 X92.879 Y172.373 E49.4041
G1 X91.38 Y171.129 E49.4948
G1 X90.822 Y170.653 E49.52895
G1 X90.136 Y170.015 E49.57258
G1 X89.434 Y169.303 E49.61913
G1 X88.107 Y167.915 E49.70855
G1 X87.611 Y167.381 E49.74249
G1 X86.999 Y166.662 E49.78645
G1 X86.399 Y165.891 E49.83194
G1 X85.211 Y164.319 E49.92369
G1 X84.8 Y163.758 E49.95608
G1 X84.285 Y162.99 E49.99913
G1 X83.783 Y162.166 E50.04406
G1 X82.802 Y160.5 E50.13409
G1 X82.436 Y159.86 E50.16842
G1 X81.994 Y159 E50.21344
G1 X81.618 Y158.181 E50.25541
G1 X80.802 Y156.336 E50.34935
G1 X80.534 Y155.71 E50.38105
G1 X80.192 Y154.805 E50.4261
G1 X79.916 Y153.957 E50.46763
G1 X79.299 Y151.968 E50.5646
G1 X79.113 Y151.337 E50.59523
G1 X78.959 Y150.759 E50.62308
G1 X78.73 Y149.781 E50.66985
G1 X78.532 Y148.875 E50.71304
G1 X77.911 Y146.381 E50.83271
G1 X77.245 Y143.996 E50.94802
G1 X76.493 Y141.571 E51.06624
G1 X75.684 Y139.205 E51.18267
G1 X74.799 Y136.833 E51.30056
G1 X73.834 Y134.454 E51.4201
G1 X73.2 Y132.992 E51.49431
G1 X49.313 Y79.249 E54.23286
G1 X48.814 Y78.147 E54.28919
G1 X48.464 Y77.277 E54.33285
G1 X48.19 Y76.38 E54.37653
G1 X48.072 Y75.881 E54.4004
G1 X48.025 Y75.658 E54.41102
