;FLAVOR:Marlin
;TIME:7263
;Filament used: 7.31728m
;Layer height: 0.28
;MINX:44.023
;MINY:90.998
;MINZ:0.28
;MAXX:175.981
;MAXY:133
;MAXZ:19.88
;Generated with Cura_SteamEngine 4.8.0
M140 S60
M105
M190 S60
M104 S205
M105
M109 S205
M82 ;absolute extrusion mode
; Ender 3 Custom Start G-code
G92 E0 ; Reset Extruder
G28 ; Home all axes
G1 Z2.0 F3000 ; Move Z Axis up little to prevent scratching of Heat Bed
G1 X0.1 Y20 Z0.3 F5000.0 ; Move to start position
G1 X0.1 Y200.0 Z0.3 F1500.0 E15 ; Draw the first line
G1 X0.4 Y200.0 Z0.3 F5000.0 ; Move to side a little
G1 X0.4 Y20 Z0.3 F1500.0 E30 ; Draw the second line
G92 E0 ; Reset Extruder
G1 Z2.0 F3000 ; Move Z Axis up little to prevent scratching of Heat Bed
G1 X5 Y20 Z0.3 F5000.0 ; Move over to prevent blob squish
G92 E0
G92 E0
G1 F2400 E-6.5
;LAYER_COUNT:71
;LAYER:0
M107
G0 F6000 X56.383 Y92.786 Z0.28
;TYPE:SKIRT
G1 F2400 E0
G1 F1200 X57.191 Y92.309 E0.04369
G1 X58.036 Y91.903 E0.08734
G1 X58.913 Y91.571 E0.13101
G1 X59.815 Y91.314 E0.17468
G1 X60.736 Y91.135 E0.21837
G1 X61.552 Y91.044 E0.2566
G1 X61.619 Y91.039 E0.25973
G1 X62.291 Y91.009 E0.29105
G1 X63.036 Y91 E0.32574
G1 X109.54 Y90.998 E2.49117
G1 X110.552 Y91.002 E2.53829
G1 X110.776 Y91 E2.54872
G1 X157.081 Y91.001 E4.70487
G1 X157.782 Y91.011 E4.73752
G1 X158.718 Y91.064 E4.78117
G1 X159.647 Y91.197 E4.82487
G1 X160.56 Y91.409 E4.86852
G1 X161.453 Y91.697 E4.91221
G1 X162.317 Y92.061 E4.95586
G1 X163.148 Y92.497 E4.99956
G1 X163.938 Y93.002 E5.04322
G1 X164.682 Y93.572 E5.08686
G1 X165.375 Y94.204 E5.13054
G1 X166.131 Y95.035 E5.18285
G1 X166.399 Y95.372 E5.2029
G1 X166.825 Y95.929 E5.23555
G1 X167.461 Y96.782 E5.28509
G1 X167.871 Y97.349 E5.31767
G1 X168.069 Y97.632 E5.33376
G1 X168.764 Y98.663 E5.39165
G1 X169.275 Y99.452 E5.43543
G1 X169.653 Y100.054 E5.46852
G1 X169.955 Y100.565 E5.49616
G1 X170.42 Y101.406 E5.54091
G1 X171.519 Y103.469 E5.64975
G1 X171.869 Y104.148 E5.68532
G1 X172.249 Y104.964 E5.72724
G1 X172.522 Y105.622 E5.76041
G1 X173.365 Y107.724 E5.86587
G1 X173.671 Y108.518 E5.90549
G1 X173.971 Y109.407 E5.94918
G1 X174.205 Y110.215 E5.98835
G1 X174.803 Y112.39 E6.09338
G1 X174.976 Y113.055 E6.12538
G1 X175.102 Y113.595 E6.1512
G1 X175.187 Y114.033 E6.17197
G1 X175.311 Y114.757 E6.20618
G1 X175.616 Y116.673 E6.29652
G1 X175.713 Y117.345 E6.32813
G1 X175.78 Y117.915 E6.35486
G1 X175.796 Y118.09 E6.36304
G1 X175.82 Y118.404 E6.3777
G1 X175.853 Y118.924 E6.40197
G1 X175.947 Y120.695 E6.48455
G1 X175.981 Y121.559 E6.52481
G1 X175.977 Y122.497 E6.56849
G1 X175.893 Y123.431 E6.61215
G1 X175.73 Y124.354 E6.6558
G1 X175.489 Y125.261 E6.6995
G1 X175.171 Y126.143 E6.74316
G1 X174.78 Y126.995 E6.78681
G1 X174.317 Y127.811 E6.83049
G1 X173.786 Y128.585 E6.8742
G1 X173.192 Y129.31 E6.91784
G1 X172.538 Y129.982 E6.96151
G1 X171.829 Y130.596 E7.00518
G1 X171.07 Y131.147 E7.04885
G1 X170.267 Y131.632 E7.09253
G1 X169.426 Y132.047 E7.1362
G1 X168.552 Y132.388 E7.17989
G1 X167.653 Y132.654 E7.22354
G1 X166.734 Y132.842 E7.26722
G1 X165.803 Y132.951 E7.31087
G1 X165.204 Y132.979 E7.33879
G1 X164.231 Y132.998 E7.38411
G1 X164.016 Y133 E7.39412
G1 X110.48 Y133 E9.88698
G1 X109.468 Y132.998 E9.9341
G1 X109.224 Y133 E9.94546
G1 X55.547 Y132.999 E12.44489
G1 X54.861 Y132.989 E12.47684
G1 X53.924 Y132.935 E12.52054
G1 X52.996 Y132.802 E12.56419
G1 X52.082 Y132.59 E12.60788
G1 X51.19 Y132.301 E12.65154
G1 X50.326 Y131.938 E12.69518
G1 X49.495 Y131.501 E12.7389
G1 X48.705 Y130.996 E12.78256
G1 X47.961 Y130.425 E12.82623
G1 X47.268 Y129.793 E12.8699
G1 X46.632 Y129.105 E12.91353
G1 X46.056 Y128.364 E12.95723
G1 X45.546 Y127.577 E13.0009
G1 X45.104 Y126.75 E13.04456
G1 X44.735 Y125.888 E13.08823
G1 X44.44 Y124.997 E13.13193
G1 X44.222 Y124.085 E13.17559
G1 X44.083 Y123.158 E13.21924
G1 X44.023 Y122.222 E13.26291
G1 X44.027 Y121.63 E13.29048
G1 X44.061 Y120.591 E13.33889
G1 X44.071 Y120.362 E13.34956
G1 X44.152 Y118.869 E13.41918
G1 X44.199 Y118.171 E13.45176
G1 X44.258 Y117.555 E13.48057
G1 X44.312 Y117.144 E13.49988
G1 X44.389 Y116.632 E13.52398
G1 X44.686 Y114.775 E13.61155
G1 X44.837 Y113.912 E13.65235
G1 X45.025 Y113.047 E13.69357
G1 X45.228 Y112.273 E13.73083
G1 X45.825 Y110.111 E13.83527
G1 X46.038 Y109.38 E13.87072
G1 X46.331 Y108.512 E13.91338
G1 X46.629 Y107.739 E13.95195
G1 X47.516 Y105.532 E14.06271
G1 X47.786 Y104.889 E14.09518
G1 X48.009 Y104.392 E14.12055
G1 X48.203 Y104.002 E14.14083
G1 X48.507 Y103.417 E14.17153
G1 X49.593 Y101.381 E14.27898
G1 X50.036 Y100.58 E14.3216
G1 X50.341 Y100.063 E14.34955
G1 X50.819 Y99.305 E14.39128
G1 X51.398 Y98.416 E14.44068
G1 X51.692 Y97.975 E14.46536
G1 X51.907 Y97.665 E14.48293
G1 X52.524 Y96.805 E14.53221
G1 X53.135 Y95.983 E14.5799
G1 X53.641 Y95.321 E14.6187
G1 X54.243 Y94.602 E14.66237
G1 X54.903 Y93.936 E14.70603
G1 X55.619 Y93.329 E14.74974
G1 X56.383 Y92.786 E14.79338
G0 F6000 X56.657 Y93.085
G1 F1200 X57.454 Y92.623 E14.83628
G1 X58.287 Y92.231 E14.87915
G1 X59.151 Y91.914 E14.922
G1 X60.04 Y91.673 E14.96489
G1 X60.946 Y91.509 E15.00776
G1 X61.582 Y91.442 E15.03754
G1 X61.649 Y91.437 E15.04067
G1 X62.296 Y91.409 E15.07082
G1 X63.036 Y91.4 E15.10528
G1 X109.539 Y91.398 E17.27066
G1 X110.554 Y91.402 E17.31792
G1 X110.779 Y91.4 E17.3284
G1 X157.075 Y91.401 E19.48413
G1 X157.776 Y91.411 E19.51678
G1 X158.695 Y91.464 E19.55964
G1 X159.606 Y91.597 E19.60251
G1 X160.502 Y91.808 E19.64538
G1 X161.377 Y92.096 E19.68827
G1 X162.223 Y92.459 E19.73114
G1 X163.034 Y92.894 E19.77399
G1 X163.805 Y93.398 E19.81688
G1 X164.529 Y93.967 E19.85976
G1 X165.201 Y94.596 E19.90262
G1 X165.822 Y95.289 E19.94595
G1 X166.082 Y95.615 E19.96536
G1 X166.504 Y96.168 E19.99775
G1 X167.235 Y97.151 E20.0548
G1 X167.547 Y97.583 E20.07961
G1 X167.738 Y97.856 E20.09512
G1 X168.325 Y98.725 E20.14395
G1 X168.846 Y99.524 E20.18837
G1 X168.936 Y99.664 E20.19612
G1 X169.314 Y100.266 E20.22922
G1 X169.605 Y100.759 E20.25588
G1 X169.983 Y101.44 E20.29214
G1 X171.094 Y103.52 E20.40195
G1 X171.164 Y103.652 E20.40891
G1 X171.514 Y104.331 E20.44448
G1 X171.879 Y105.118 E20.48487
G1 X172.15 Y105.771 E20.51779
G1 X173.046 Y108.008 E20.63
G1 X173.298 Y108.662 E20.66264
G1 X173.587 Y109.519 E20.70475
G1 X173.819 Y110.322 E20.74367
G1 X174.416 Y112.49 E20.84838
G1 X174.589 Y113.155 E20.88037
G1 X174.71 Y113.676 E20.90528
G1 X174.792 Y114.102 E20.92548
G1 X174.916 Y114.82 E20.95941
G1 X175.196 Y116.571 E21.04198
G1 X175.317 Y117.403 E21.08113
G1 X175.382 Y117.952 E21.10687
G1 X175.398 Y118.127 E21.11505
G1 X175.421 Y118.429 E21.12916
G1 X175.453 Y118.945 E21.15323
G1 X175.554 Y120.871 E21.24304
G1 X175.581 Y121.574 E21.27579
G1 X175.577 Y122.495 E21.31868
G1 X175.492 Y123.412 E21.36156
G1 X175.328 Y124.318 E21.40443
G1 X175.087 Y125.206 E21.44728
G1 X174.769 Y126.07 E21.49015
G1 X174.377 Y126.903 E21.53302
G1 X173.914 Y127.699 E21.5759
G1 X173.385 Y128.452 E21.61875
G1 X172.791 Y129.156 E21.66164
G1 X172.139 Y129.806 E21.70451
G1 X171.433 Y130.397 E21.74738
G1 X170.679 Y130.924 E21.79022
G1 X169.881 Y131.384 E21.83311
G1 X169.047 Y131.774 E21.87598
G1 X168.182 Y132.089 E21.91884
G1 X167.293 Y132.328 E21.96171
G1 X166.386 Y132.489 E22.0046
G1 X165.196 Y132.579 E22.06017
G1 X164.223 Y132.598 E22.10549
G1 X164.016 Y132.6 E22.11513
G1 X110.481 Y132.6 E24.60794
G1 X109.466 Y132.598 E24.6552
G1 X109.221 Y132.6 E24.66661
G1 X55.552 Y132.599 E27.16566
G1 X54.866 Y132.589 E27.19761
G1 X53.947 Y132.535 E27.24048
G1 X53.036 Y132.403 E27.28334
G1 X52.14 Y132.191 E27.32621
G1 X51.266 Y131.903 E27.36906
G1 X50.42 Y131.539 E27.41195
G1 X49.609 Y131.104 E27.4548
G1 X48.838 Y130.6 E27.49769
G1 X48.115 Y130.031 E27.54053
G1 X47.443 Y129.402 E27.58339
G1 X46.828 Y128.716 E27.62629
G1 X46.276 Y127.98 E27.66913
G1 X45.789 Y127.198 E27.71203
G1 X45.372 Y126.378 E27.75487
G1 X45.027 Y125.524 E27.79775
G1 X44.758 Y124.643 E27.84065
G1 X44.567 Y123.743 E27.88349
G1 X44.454 Y122.829 E27.92637
G1 X44.427 Y121.643 E27.98161
G1 X44.461 Y120.604 E28.03002
G1 X44.47 Y120.384 E28.04027
G1 X44.551 Y118.896 E28.10966
G1 X44.598 Y118.198 E28.14224
G1 X44.655 Y117.604 E28.17002
G1 X44.708 Y117.203 E28.18886
G1 X44.784 Y116.695 E28.21277
G1 X45.081 Y114.838 E28.30034
G1 X45.231 Y113.981 E28.34085
G1 X45.412 Y113.147 E28.38059
G1 X45.613 Y112.379 E28.41756
G1 X46.209 Y110.223 E28.52172
G1 X46.422 Y109.492 E28.55717
G1 X46.704 Y108.655 E28.5983
G1 X47 Y107.888 E28.63658
G1 X47.82 Y105.844 E28.73913
G1 X48.155 Y105.044 E28.77952
G1 X48.37 Y104.565 E28.80396
G1 X48.558 Y104.187 E28.82362
G1 X48.86 Y103.605 E28.85415
G1 X49.946 Y101.569 E28.9616
G1 X50.386 Y100.774 E29.00391
G1 X50.68 Y100.275 E29.03088
G1 X51.058 Y99.673 E29.06398
G1 X51.731 Y98.638 E29.12147
G1 X52.025 Y98.197 E29.14615
G1 X52.232 Y97.898 E29.16308
G1 X52.849 Y97.038 E29.21236
G1 X52.963 Y96.882 E29.22136
G1 X53.541 Y96.108 E29.26634
G1 X53.958 Y95.564 E29.29826
G1 X54.55 Y94.859 E29.34113
G1 X55.2 Y94.207 E29.384
G1 X55.904 Y93.614 E29.42686
G1 X56.657 Y93.085 E29.46971
G0 F6000 X56.931 Y93.385
G1 F1200 X57.716 Y92.937 E29.51179
G1 X58.537 Y92.561 E29.55384
G1 X59.388 Y92.259 E29.59589
G1 X60.262 Y92.033 E29.63792
G1 X61.153 Y91.886 E29.67997
G1 X61.679 Y91.836 E29.70458
G1 X62.302 Y91.809 E29.73361
G1 X63.036 Y91.8 E29.76779
G1 X109.537 Y91.798 E31.93308
G1 X110.555 Y91.802 E31.98048
G1 X110.782 Y91.8 E31.99105
G1 X157.069 Y91.801 E34.14637
G1 X157.77 Y91.811 E34.17901
G1 X158.672 Y91.864 E34.22108
G1 X159.565 Y91.996 E34.26312
G1 X160.444 Y92.207 E34.30521
G1 X161.3 Y92.495 E34.34726
G1 X162.127 Y92.857 E34.3893
G1 X162.919 Y93.291 E34.43135
G1 X163.669 Y93.794 E34.4734
G1 X164.372 Y94.361 E34.51546
G1 X165.022 Y94.987 E34.55748
G1 X165.512 Y95.542 E34.59195
G1 X165.764 Y95.859 E34.61081
G1 X166.183 Y96.407 E34.64293
G1 X166.911 Y97.385 E34.6997
G1 X167.223 Y97.817 E34.72452
G1 X167.406 Y98.08 E34.73944
G1 X168.093 Y99.099 E34.79666
G1 X168.597 Y99.877 E34.83983
G1 X168.975 Y100.479 E34.87292
G1 X169.255 Y100.953 E34.89856
G1 X169.714 Y101.783 E34.94272
G1 X170.808 Y103.836 E35.05105
G1 X171.158 Y104.515 E35.08662
G1 X171.51 Y105.271 E35.12545
G1 X171.779 Y105.92 E35.15816
G1 X172.673 Y108.152 E35.27012
G1 X172.925 Y108.806 E35.30275
G1 X173.203 Y109.63 E35.34325
G1 X173.433 Y110.428 E35.38192
G1 X174.028 Y112.591 E35.48638
G1 X174.201 Y113.256 E35.51837
G1 X174.318 Y113.757 E35.54233
G1 X174.398 Y114.17 E35.56192
G1 X174.521 Y114.883 E35.59561
G1 X174.801 Y116.634 E35.67818
G1 X174.921 Y117.46 E35.71705
G1 X174.984 Y117.988 E35.74181
G1 X175 Y118.163 E35.74999
G1 X175.022 Y118.454 E35.76358
G1 X175.054 Y118.966 E35.78746
G1 X175.148 Y120.737 E35.87005
G1 X175.181 Y121.59 E35.90979
G1 X175.176 Y122.493 E35.95184
G1 X175.091 Y123.392 E35.99389
G1 X174.927 Y124.28 E36.03594
G1 X174.684 Y125.15 E36.078
G1 X174.366 Y125.995 E36.12004
G1 X173.974 Y126.809 E36.16211
G1 X173.512 Y127.584 E36.20412
G1 X172.983 Y128.316 E36.24618
G1 X172.391 Y128.999 E36.28826
G1 X171.741 Y129.626 E36.33032
G1 X171.039 Y130.193 E36.37234
G1 X170.289 Y130.696 E36.41439
G1 X169.497 Y131.131 E36.45646
G1 X168.67 Y131.494 E36.49852
G1 X167.814 Y131.782 E36.54057
G1 X166.936 Y131.993 E36.58262
G1 X166.043 Y132.126 E36.62466
G1 X165.188 Y132.179 E36.66455
G1 X164.215 Y132.198 E36.70986
G1 X164.016 Y132.2 E36.71913
G1 X110.481 Y132.2 E39.21194
G1 X109.463 Y132.198 E39.25935
G1 X109.218 Y132.2 E39.27076
G1 X55.558 Y132.199 E41.76939
G1 X54.872 Y132.189 E41.80134
G1 X53.971 Y132.136 E41.84336
G1 X53.077 Y132.003 E41.88545
G1 X52.199 Y131.792 E41.9275
G1 X51.343 Y131.504 E41.96955
G1 X50.516 Y131.141 E42.01161
G1 X49.725 Y130.707 E42.05362
G1 X48.974 Y130.204 E42.09571
G1 X48.271 Y129.637 E42.13776
G1 X47.621 Y129.01 E42.17981
G1 X47.029 Y128.328 E42.22187
G1 X46.5 Y127.597 E42.26388
G1 X46.038 Y126.821 E42.30594
G1 X45.645 Y126.007 E42.34803
G1 X45.327 Y125.162 E42.39007
G1 X45.084 Y124.292 E42.43213
G1 X44.92 Y123.404 E42.47418
G1 X44.834 Y122.505 E42.51623
G1 X44.826 Y121.656 E42.55576
G1 X44.86 Y120.617 E42.60417
G1 X44.942 Y119.062 E42.67668
G1 X44.997 Y118.225 E42.71574
G1 X45.052 Y117.653 E42.74249
G1 X45.103 Y117.262 E42.76085
G1 X45.179 Y116.758 E42.78459
G1 X45.502 Y114.744 E42.87957
G1 X45.624 Y114.051 E42.91233
G1 X45.799 Y113.248 E42.9506
G1 X45.999 Y112.485 E42.98733
G1 X46.593 Y110.335 E43.09119
G1 X46.806 Y109.604 E43.12665
G1 X47.078 Y108.798 E43.16626
G1 X47.371 Y108.037 E43.20423
G1 X48.253 Y105.842 E43.31438
G1 X48.523 Y105.199 E43.34685
G1 X48.73 Y104.738 E43.37038
G1 X48.912 Y104.371 E43.38946
G1 X49.213 Y103.794 E43.41976
G1 X50.377 Y101.614 E43.53484
G1 X50.735 Y100.968 E43.56923
G1 X51.019 Y100.488 E43.5952
G1 X51.489 Y99.742 E43.63625
G1 X52.064 Y98.86 E43.68528
G1 X52.358 Y98.419 E43.70996
G1 X52.557 Y98.131 E43.72626
G1 X53.174 Y97.271 E43.77554
G1 X53.776 Y96.461 E43.82254
G1 X54.276 Y95.808 E43.86083
G1 X54.856 Y95.116 E43.90288
G1 X55.496 Y94.478 E43.94496
G1 X56.189 Y93.9 E43.98698
G1 X56.931 Y93.385 E44.02903
G1 F2400 E37.52903
;MESH:External Support.stl
G0 F6000 X147.821 Y112.619
G0 X146.524 Y113.299
G0 X148.077 Y114.435
;TYPE:WALL-INNER
G1 F2400 E44.02903
G1 F1200 X148.686 Y114.585 E44.05824
G1 X149.314 Y114.585 E44.08748
G1 X149.923 Y114.435 E44.11669
G1 X150.479 Y114.144 E44.14591
G1 X150.95 Y113.727 E44.1752
G1 X151.306 Y113.21 E44.20443
G1 X151.529 Y112.623 E44.23367
G1 X151.604 Y112 E44.26289
G1 X151.529 Y111.377 E44.29211
G1 X151.306 Y110.79 E44.32134
G1 X150.95 Y110.273 E44.35057
G1 X150.479 Y109.856 E44.37987
G1 X149.923 Y109.565 E44.40909
G1 X149.314 Y109.415 E44.43829
G1 X148.686 Y109.415 E44.46753
G1 X148.077 Y109.565 E44.49674
G1 X147.521 Y109.856 E44.52596
G1 X147.05 Y110.273 E44.55525
G1 X146.694 Y110.79 E44.58448
G1 X146.471 Y111.377 E44.61372
G1 X146.396 Y112 E44.64294
G1 X146.471 Y112.623 E44.67216
G1 X146.694 Y113.21 E44.7014
G1 X147.05 Y113.727 E44.73063
G1 X147.521 Y114.144 E44.75992
G1 X148.077 Y114.435 E44.78914
G0 F6000 X148.22 Y114.058
;TYPE:WALL-OUTER
G1 F1200 X148.735 Y114.185 E44.81384
G1 X149.265 Y114.185 E44.83852
G1 X149.78 Y114.058 E44.86322
G1 X150.25 Y113.812 E44.88792
G1 X150.648 Y113.46 E44.91266
G1 X150.949 Y113.023 E44.93737
G1 X151.138 Y112.527 E44.96208
G1 X151.201 Y112 E44.9868
G1 X151.138 Y111.473 E45.01151
G1 X150.949 Y110.977 E45.03623
G1 X150.648 Y110.54 E45.06094
G1 X150.25 Y110.188 E45.08568
G1 X149.78 Y109.942 E45.11038
G1 X149.265 Y109.815 E45.13508
G1 X148.735 Y109.815 E45.15976
G1 X148.22 Y109.942 E45.18446
G1 X147.75 Y110.188 E45.20916
G1 X147.352 Y110.54 E45.2339
G1 X147.051 Y110.977 E45.25861
G1 X146.862 Y111.473 E45.28332
G1 X146.799 Y112 E45.30804
G1 X146.862 Y112.527 E45.33275
G1 X147.051 Y113.023 E45.35747
G1 X147.352 Y113.46 E45.38217
G1 X147.75 Y113.812 E45.40692
G1 X148.22 Y114.058 E45.43162
G0 F6000 X148.065 Y114.469
G1 F2400 E38.93162
G0 F6000 X147.412 Y114.302
G0 X148.247 Y113.098
G0 X123.851 Y113.098
G0 X122.247 Y113.098
G0 X97.851 Y113.098
G0 X96.247 Y113.098
G0 X71.753 Y113.098
G0 X72.588 Y114.302
G0 X71.923 Y114.435
;TYPE:WALL-INNER
G1 F2400 E45.43162
G1 F1200 X72.479 Y114.144 E45.46084
G1 X72.95 Y113.727 E45.49013
G1 X73.306 Y113.21 E45.51936
G1 X73.529 Y112.623 E45.5486
G1 X73.604 Y112 E45.57782
G1 X73.529 Y111.377 E45.60704
G1 X73.306 Y110.79 E45.63628
G1 X72.95 Y110.273 E45.6655
G1 X72.479 Y109.856 E45.6948
G1 X71.923 Y109.565 E45.72402
G1 X71.314 Y109.415 E45.75322
G1 X70.686 Y109.415 E45.78247
G1 X70.077 Y109.565 E45.81167
G1 X69.521 Y109.856 E45.84089
G1 X69.05 Y110.273 E45.87018
G1 X68.694 Y110.79 E45.89941
G1 X68.471 Y111.377 E45.92865
G1 X68.396 Y112 E45.95787
G1 X68.471 Y112.623 E45.98709
G1 X68.694 Y113.21 E46.01633
G1 X69.05 Y113.727 E46.04556
G1 X69.521 Y114.144 E46.07485
G1 X70.077 Y114.435 E46.10407
G1 X70.686 Y114.585 E46.13328
G1 X71.314 Y114.585 E46.16252
G1 X71.923 Y114.435 E46.19172
G0 F6000 X71.78 Y114.058
;TYPE:WALL-OUTER
G1 F1200 X72.25 Y113.812 E46.21643
G1 X72.648 Y113.46 E46.24117
G1 X72.949 Y113.023 E46.26588
G1 X73.138 Y112.527 E46.29059
G1 X73.201 Y112 E46.31531
G1 X73.138 Y111.473 E46.34002
G1 X72.949 Y110.977 E46.36473
G1 X72.648 Y110.54 E46.38944
G1 X72.25 Y110.188 E46.41418
G1 X71.78 Y109.942 E46.43889
G1 X71.265 Y109.815 E46.46358
G1 X70.735 Y109.815 E46.48826
