;FLAVOR:Marlin
;TIME:9215
;Filament used: 7.40247m
;Layer height: 0.2
;MINX:51.5
;MINY:96.5
;MINZ:0.2
;MAXX:183.5
;MAXY:138.5
;MAXZ:19.8
;Generated with Cura_SteamEngine 4.6.1
M140 S50
M105
M190 S50
M104 S205
M105
M109 S205
M82 ;absolute extrusion mode
; Ender 3 Custom Start G-code
G92 E0 ; Reset Extruder
G28 ; Home all axes
G1 Z2.0 F3000 ; Move Z Axis up little to prevent scratching of Heat Bed
G1 X0.1 Y20 Z0.3 F5000.0 ; Move to start position
G1 X0.1 Y200.0 Z0.3 F1500.0 E15 ; Draw the first line
G1 X0.4 Y200.0 Z0.3 F5000.0 ; Move to side a little
G1 X0.4 Y20 Z0.3 F1500.0 E30 ; Draw the second line
G92 E0 ; Reset Extruder
G1 Z2.0 F3000 ; Move Z Axis up little to prevent scratching of Heat Bed
G1 X5 Y20 Z0.3 F5000.0 ; Move over to prevent blob squish
G92 E0
G92 E0
G1 F2700 E-5
;LAYER_COUNT:99
;LAYER:0
M107
G0 F6000 X172.637 Y97.311 Z0.2
;TYPE:SKIRT
G1 F2700 E0
G1 F1200 X173.539 Y97.364 E0.03005
G1 X174.432 Y97.496 E0.06008
G1 X175.31 Y97.707 E0.09011
G1 X176.166 Y97.995 E0.12015
G1 X176.993 Y98.357 E0.15018
G1 X177.785 Y98.792 E0.18023
G1 X178.536 Y99.294 E0.21027
G1 X179.239 Y99.861 E0.24031
G1 X179.889 Y100.488 E0.27035
G1 X180.481 Y101.17 E0.30039
G1 X181.011 Y101.901 E0.33042
G1 X181.473 Y102.677 E0.36046
G1 X181.866 Y103.49 E0.39049
G1 X182.184 Y104.335 E0.42052
G1 X182.427 Y105.205 E0.45056
G1 X182.592 Y106.093 E0.4806
G1 X182.687 Y107.223 E0.51832
G1 X182.7 Y107.83 E0.53851
G1 X182.699 Y126.89 E1.17245
G1 X182.69 Y127.617 E1.19663
G1 X182.639 Y128.519 E1.22668
G1 X182.508 Y129.413 E1.25674
G1 X182.299 Y130.291 E1.28675
G1 X182.013 Y131.148 E1.3168
G1 X181.652 Y131.976 E1.34685
G1 X181.22 Y132.768 E1.37685
G1 X180.719 Y133.52 E1.40691
G1 X180.153 Y134.224 E1.43695
G1 X179.528 Y134.875 E1.46697
G1 X178.847 Y135.469 E1.49702
G1 X178.116 Y136 E1.52707
G1 X177.342 Y136.464 E1.55709
G1 X176.529 Y136.858 E1.58714
G1 X175.685 Y137.178 E1.61716
G1 X174.815 Y137.423 E1.64722
G1 X173.928 Y137.589 E1.67723
G1 X172.777 Y137.687 E1.71565
G1 X172.17 Y137.7 E1.73585
G1 X116.982 Y137.698 E3.57141
G1 X116.718 Y137.7 E3.58019
G1 X63.061 Y137.699 E5.36483
G1 X62.363 Y137.689 E5.38805
G1 X61.461 Y137.636 E5.4181
G1 X60.568 Y137.504 E5.44812
G1 X59.69 Y137.293 E5.47816
G1 X58.834 Y137.005 E5.5082
G1 X58.007 Y136.643 E5.53822
G1 X57.215 Y136.208 E5.56827
G1 X56.464 Y135.706 E5.59832
G1 X55.761 Y135.139 E5.62836
G1 X55.111 Y134.512 E5.6584
G1 X54.519 Y133.83 E5.68843
G1 X53.989 Y133.099 E5.71847
G1 X53.527 Y132.323 E5.7485
G1 X53.134 Y131.51 E5.77854
G1 X52.816 Y130.665 E5.80857
G1 X52.573 Y129.795 E5.83861
G1 X52.408 Y128.907 E5.86865
G1 X52.313 Y127.766 E5.90673
G1 X52.3 Y127.158 E5.92696
G1 X52.301 Y108.036 E6.56296
G1 X52.31 Y107.371 E6.58508
G1 X52.362 Y106.469 E6.61513
G1 X52.494 Y105.576 E6.64515
G1 X52.704 Y104.698 E6.67518
G1 X52.991 Y103.841 E6.70524
G1 X53.353 Y103.014 E6.73527
G1 X53.786 Y102.222 E6.76529
G1 X54.288 Y101.471 E6.79533
G1 X54.855 Y100.767 E6.8254
G1 X55.481 Y100.117 E6.85541
G1 X56.162 Y99.524 E6.88545
G1 X56.894 Y98.994 E6.9155
G1 X57.669 Y98.531 E6.94553
G1 X58.482 Y98.138 E6.97556
G1 X59.327 Y97.818 E7.00562
G1 X60.196 Y97.575 E7.03563
G1 X61.084 Y97.409 E7.06568
G1 X62.223 Y97.313 E7.10369
G1 X62.83 Y97.3 E7.12389
G1 X118.095 Y97.302 E8.96201
G1 X171.939 Y97.301 E10.75287
G1 X172.637 Y97.311 E10.77608
G0 F6000 X172.643 Y96.911
G1 F1200 X173.562 Y96.964 E10.8067
G1 X174.473 Y97.097 E10.83732
G1 X175.369 Y97.308 E10.86794
G1 X176.243 Y97.596 E10.89855
G1 X177.09 Y97.959 E10.9292
G1 X177.901 Y98.394 E10.9598
G1 X178.671 Y98.898 E10.99041
G1 X179.395 Y99.467 E11.02104
G1 X180.067 Y100.097 E11.05168
G1 X180.682 Y100.782 E11.0823
G1 X181.235 Y101.518 E11.11291
G1 X181.722 Y102.299 E11.14353
G1 X182.139 Y103.12 E11.17415
G1 X182.484 Y103.974 E11.20479
G1 X182.753 Y104.854 E11.23539
G1 X182.945 Y105.755 E11.26603
G1 X183.058 Y106.668 E11.29663
G1 X183.087 Y107.212 E11.31475
G1 X183.1 Y107.83 E11.33531
G1 X183.099 Y126.895 E11.96942
G1 X183.09 Y127.622 E11.9936
G1 X183.039 Y128.541 E12.02421
G1 X182.908 Y129.453 E12.05486
G1 X182.698 Y130.349 E12.08546
G1 X182.412 Y131.224 E12.11608
G1 X182.051 Y132.071 E12.14671
G1 X181.617 Y132.883 E12.17733
G1 X181.115 Y133.655 E12.20796
G1 X180.547 Y134.38 E12.23859
G1 X179.919 Y135.053 E12.2692
G1 X179.235 Y135.669 E12.29982
G1 X178.5 Y136.223 E12.33043
G1 X177.72 Y136.712 E12.36105
G1 X176.9 Y137.131 E12.39168
G1 X176.047 Y137.477 E12.4223
G1 X175.167 Y137.748 E12.45292
G1 X174.267 Y137.941 E12.48354
G1 X173.353 Y138.056 E12.51418
G1 X172.788 Y138.087 E12.533
G1 X172.17 Y138.1 E12.55356
G1 X116.985 Y138.098 E14.38902
G1 X116.721 Y138.1 E14.3978
G1 X63.055 Y138.099 E16.18274
G1 X62.357 Y138.089 E16.20595
G1 X61.438 Y138.036 E16.23657
G1 X60.527 Y137.903 E16.26719
G1 X59.631 Y137.692 E16.29781
G1 X58.757 Y137.404 E16.32841
G1 X57.91 Y137.041 E16.35906
G1 X57.099 Y136.606 E16.38967
G1 X56.329 Y136.102 E16.42028
G1 X55.605 Y135.533 E16.45091
G1 X54.933 Y134.903 E16.48155
G1 X54.318 Y134.218 E16.51216
G1 X53.765 Y133.482 E16.54278
G1 X53.278 Y132.701 E16.5734
G1 X52.861 Y131.88 E16.60402
G1 X52.516 Y131.026 E16.63466
G1 X52.247 Y130.146 E16.66526
G1 X52.055 Y129.245 E16.6959
G1 X51.942 Y128.332 E16.7265
G1 X51.913 Y127.777 E16.74499
G1 X51.9 Y127.158 E16.76558
G1 X51.901 Y108.031 E17.40175
G1 X51.91 Y107.366 E17.42387
G1 X51.962 Y106.446 E17.45451
G1 X52.094 Y105.535 E17.48513
G1 X52.305 Y104.639 E17.51575
G1 X52.592 Y103.764 E17.54637
G1 X52.955 Y102.918 E17.57699
G1 X53.389 Y102.106 E17.60762
G1 X53.892 Y101.335 E17.63823
G1 X54.461 Y100.611 E17.66886
G1 X55.089 Y99.939 E17.69945
G1 X55.774 Y99.323 E17.73009
G1 X56.51 Y98.77 E17.76071
G1 X57.291 Y98.282 E17.79134
G1 X58.111 Y97.864 E17.82196
G1 X58.965 Y97.519 E17.85259
G1 X59.845 Y97.249 E17.88321
G1 X60.745 Y97.057 E17.91381
G1 X61.659 Y96.943 E17.94445
G1 X62.212 Y96.913 E17.96287
G1 X62.83 Y96.9 E17.98343
G1 X118.095 Y96.902 E19.82155
G1 X171.945 Y96.901 E21.61261
G1 X172.643 Y96.911 E21.63582
G0 F6000 X172.649 Y96.511
G1 F1200 X173.585 Y96.565 E21.66701
G1 X174.513 Y96.697 E21.69818
G1 X175.427 Y96.909 E21.72939
G1 X176.319 Y97.198 E21.76058
G1 X177.184 Y97.561 E21.79178
G1 X178.014 Y97.997 E21.82296
G1 X178.805 Y98.502 E21.85417
G1 X179.549 Y99.073 E21.88537
G1 X180.242 Y99.705 E21.91656
G1 X180.879 Y100.393 E21.94775
G1 X181.454 Y101.134 E21.97894
G1 X181.965 Y101.92 E22.01012
G1 X182.407 Y102.748 E22.04134
G1 X182.776 Y103.61 E22.07253
G1 X183.071 Y104.5 E22.10371
G1 X183.289 Y105.412 E22.1349
G1 X183.429 Y106.34 E22.16612
G1 X183.487 Y107.201 E22.19482
G1 X183.5 Y107.83 E22.21574
G1 X183.499 Y126.9 E22.85001
G1 X183.49 Y127.627 E22.8742
G1 X183.439 Y128.564 E22.90541
G1 X183.307 Y129.492 E22.93658
G1 X183.098 Y130.406 E22.96777
G1 X182.811 Y131.299 E22.99897
G1 X182.449 Y132.165 E23.03018
G1 X182.015 Y132.996 E23.06137
G1 X181.511 Y133.787 E23.09256
G1 X180.942 Y134.532 E23.12374
G1 X180.311 Y135.227 E23.15496
G1 X179.624 Y135.865 E23.18615
G1 X178.885 Y136.442 E23.21733
G1 X178.099 Y136.954 E23.24853
G1 X177.273 Y137.397 E23.2797
G1 X176.411 Y137.769 E23.31093
G1 X175.522 Y138.065 E23.34209
G1 X174.61 Y138.285 E23.3733
G1 X173.683 Y138.426 E23.40448
G1 X172.799 Y138.487 E23.43396
G1 X172.17 Y138.5 E23.45488
G1 X116.988 Y138.498 E25.29024
G1 X116.724 Y138.5 E25.29902
G1 X63.049 Y138.499 E27.08426
G1 X62.351 Y138.489 E27.10748
G1 X61.415 Y138.435 E27.13866
G1 X60.487 Y138.303 E27.16984
G1 X59.573 Y138.091 E27.20104
G1 X58.681 Y137.802 E27.23223
G1 X57.816 Y137.439 E27.26343
G1 X56.986 Y137.003 E27.29461
G1 X56.195 Y136.498 E27.32583
G1 X55.451 Y135.927 E27.35702
G1 X54.758 Y135.295 E27.38822
G1 X54.121 Y134.607 E27.4194
G1 X53.546 Y133.866 E27.4506
G1 X53.035 Y133.08 E27.48178
G1 X52.593 Y132.252 E27.513
G1 X52.224 Y131.39 E27.54418
G1 X51.929 Y130.5 E27.57537
G1 X51.711 Y129.588 E27.60656
G1 X51.571 Y128.66 E27.63777
G1 X51.513 Y127.788 E27.66684
G1 X51.5 Y127.158 E27.6878
G1 X51.501 Y108.025 E28.32416
G1 X51.51 Y107.36 E28.34628
G1 X51.563 Y106.424 E28.37746
G1 X51.695 Y105.495 E28.40867
G1 X51.906 Y104.581 E28.43987
G1 X52.194 Y103.689 E28.47105
G1 X52.557 Y102.824 E28.50225
G1 X52.992 Y101.993 E28.53344
G1 X53.496 Y101.203 E28.56461
G1 X54.066 Y100.458 E28.59581
G1 X54.698 Y99.764 E28.62703
G1 X55.386 Y99.127 E28.65822
G1 X56.126 Y98.551 E28.68941
G1 X56.912 Y98.039 E28.72061
G1 X57.739 Y97.597 E28.75179
G1 X58.601 Y97.227 E28.78299
G1 X59.491 Y96.931 E28.81419
G1 X60.403 Y96.713 E28.84538
G1 X61.33 Y96.572 E28.87656
G1 X62.201 Y96.513 E28.9056
G1 X62.83 Y96.5 E28.92652
G1 X118.095 Y96.502 E30.76465
G1 X171.951 Y96.501 E32.5559
G1 X172.649 Y96.511 E32.57912
G1 F2700 E27.57912
;MESH:Internal Support.stl
G0 F6000 X79.303 Y117.705
G0 X80.722 Y118.067
G0 X79.231 Y119.473
;TYPE:WALL-INNER
G1 F2700 E32.57912
G1 F1200 X79.681 Y119.24 E32.59598
G1 X80.064 Y118.907 E32.61286
G1 X80.355 Y118.49 E32.62977
G1 X80.536 Y118.019 E32.64655
G1 X80.602 Y117.517 E32.66339
G1 X80.546 Y117.013 E32.68026
G1 X80.37 Y116.538 E32.69711
G1 X80.085 Y116.116 E32.71404
G1 X79.707 Y115.779 E32.73089
G1 X79.261 Y115.539 E32.74773
G1 X78.77 Y115.414 E32.76458
G1 X78.262 Y115.411 E32.78148
G1 X77.769 Y115.527 E32.79833
G1 X77.319 Y115.76 E32.81518
G1 X76.936 Y116.093 E32.83206
G1 X76.645 Y116.51 E32.84897
G1 X76.464 Y116.981 E32.86575
G1 X76.398 Y117.483 E32.8826
G1 X76.454 Y117.987 E32.89946
G1 X76.63 Y118.462 E32.91631
G1 X76.915 Y118.884 E32.93325
G1 X77.293 Y119.221 E32.95009
G1 X77.739 Y119.461 E32.96694
G1 X78.23 Y119.586 E32.98379
G1 X78.738 Y119.589 E33.00068
G1 X79.231 Y119.473 E33.01753
G0 F6000 X79.091 Y119.095
;TYPE:WALL-OUTER
G1 F1200 X79.455 Y118.907 E33.03115
G1 X79.764 Y118.638 E33.04478
G1 X79.999 Y118.301 E33.05845
G1 X80.146 Y117.92 E33.07203
G1 X80.199 Y117.513 E33.08568
G1 X80.154 Y117.106 E33.0993
G1 X80.012 Y116.722 E33.11292
G1 X79.782 Y116.381 E33.1266
G1 X79.476 Y116.109 E33.14021
G1 X79.115 Y115.915 E33.15384
G1 X78.718 Y115.814 E33.16747
G1 X78.307 Y115.811 E33.18114
G1 X77.909 Y115.905 E33.19474
G1 X77.545 Y116.093 E33.20837
G1 X77.236 Y116.362 E33.22199
G1 X77.001 Y116.699 E33.23566
G1 X76.854 Y117.08 E33.24924
G1 X76.801 Y117.487 E33.26289
G1 X76.846 Y117.894 E33.27651
G1 X76.988 Y118.278 E33.29013
G1 X77.218 Y118.619 E33.30381
G1 X77.524 Y118.891 E33.31743
G1 X77.885 Y119.085 E33.33106
G1 X78.282 Y119.186 E33.34468
G1 X78.693 Y119.189 E33.35835
G1 X79.091 Y119.095 E33.37195
G0 F6000 X79.243 Y119.507
G1 F2700 E28.37195
G0 F6000 X80.207 Y119.035
G0 X79.117 Y118.056
G0 X103.79 Y118.052
G0 X103.875 Y118.047
G0 X105.117 Y118.056
G0 X105.205 Y118.052
G0 X129.788 Y118.049
G0 X129.875 Y118.047
G0 X131.117 Y118.056
G0 X131.207 Y118.049
G0 X155.875 Y118.047
G0 X154.771 Y119.01
G0 X155.739 Y119.461
;TYPE:WALL-INNER
G1 F2700 E33.37195
G1 F1200 X156.23 Y119.586 E33.38881
G1 X156.738 Y119.589 E33.4057
G1 X157.231 Y119.473 E33.42255
G1 X157.681 Y119.24 E33.4394
G1 X158.064 Y118.907 E33.45628
G1 X158.355 Y118.49 E33.47319
G1 X158.536 Y118.019 E33.48998
G1 X158.602 Y117.517 E33.50682
G1 X158.546 Y117.013 E33.52368
G1 X158.37 Y116.538 E33.54053
G1 X158.085 Y116.116 E33.55747
G1 X157.707 Y115.779 E33.57431
G1 X157.261 Y115.539 E33.59116
G1 X156.77 Y115.414 E33.60801
G1 X156.262 Y115.411 E33.6249
G1 X155.769 Y115.527 E33.64175
G1 X155.319 Y115.76 E33.6586
G1 X154.936 Y116.093 E33.67548
G1 X154.645 Y116.51 E33.6924
G1 X154.464 Y116.981 E33.70918
G1 X154.398 Y117.483 E33.72602
G1 X154.454 Y117.987 E33.74289
G1 X154.63 Y118.462 E33.75973
G1 X154.915 Y118.884 E33.77667
G1 X155.293 Y119.221 E33.79351
G1 X155.739 Y119.461 E33.81036
G0 F6000 X155.885 Y119.085
;TYPE:WALL-OUTER
G1 F1200 X156.282 Y119.186 E33.82398
G1 X156.693 Y119.189 E33.83766
G1 X157.091 Y119.095 E33.85126
G1 X157.455 Y118.907 E33.86488
G1 X157.764 Y118.638 E33.87851
G1 X157.999 Y118.301 E33.89217
G1 X158.146 Y117.92 E33.90576
G1 X158.199 Y117.513 E33.91941
G1 X158.154 Y117.106 E33.93303
G1 X158.012 Y116.722 E33.94664
G1 X157.782 Y116.381 E33.96032
G1 X157.476 Y116.109 E33.97394
G1 X157.115 Y115.915 E33.98757
G1 X156.718 Y115.814 E34.0012
G1 X156.307 Y115.811 E34.01487
G1 X155.909 Y115.905 E34.02847
G1 X155.545 Y116.093 E34.0421
G1 X155.236 Y116.362 E34.05572
G1 X155.001 Y116.699 E34.06939
G1 X154.854 Y117.08 E34.08297
G1 X154.801 Y117.487 E34.09662
G1 X154.846 Y117.894 E34.11024
G1 X154.988 Y118.278 E34.12386
G1 X155.218 Y118.619 E34.13754
G1 X155.524 Y118.891 E34.15115
G1 X155.885 Y119.085 E34.16479
G0 F6000 X155.726 Y119.495
G1 F2700 E29.16479
G0 F6000 X154.771 Y119.01
G0 X155.875 Y118.047
G0 X131.117 Y118.056
G0 X132.207 Y119.035
G0 X130.23 Y119.586
;TYPE:WALL-INNER
G1 F2700 E34.16479
G1 F1200 X130.738 Y119.589 E34.18168
G1 X131.231 Y119.473 E34.19853
G1 X131.681 Y119.24 E34.21538
G1 X132.064 Y118.907 E34.23226
G1 X132.355 Y118.49 E34.24917
G1 X132.536 Y118.019 E34.26596
G1 X132.602 Y117.517 E34.2828
G1 X132.546 Y117.013 E34.29966
G1 X132.37 Y116.538 E34.31651
G1 X132.085 Y116.116 E34.33345
G1 X131.707 Y115.779 E34.35029
G1 X131.261 Y115.539 E34.36714
G1 X130.77 Y115.414 E34.38399
G1 X130.262 Y115.411 E34.40089
G1 X129.769 Y115.527 E34.41773
G1 X129.319 Y115.76 E34.43458
G1 X128.936 Y116.093 E34.45146
G1 X128.645 Y116.51 E34.46838
G1 X128.464 Y116.981 E34.48516
G1 X128.398 Y117.483 E34.502
G1 X128.454 Y117.987 E34.51887
G1 X128.63 Y118.462 E34.53571
G1 X128.915 Y118.884 E34.55265
G1 X129.293 Y119.221 E34.56949
G1 X129.739 Y119.461 E34.58634
G1 X130.23 Y119.586 E34.60319
G0 F6000 X130.282 Y119.186
;TYPE:WALL-OUTER
G1 F1200 X130.693 Y119.189 E34.61686
G1 X131.091 Y119.095 E34.63046
G1 X131.455 Y118.907 E34.64409
G1 X131.764 Y118.638 E34.65772
G1 X131.999 Y118.301 E34.67138
G1 X132.146 Y117.92 E34.68496
G1 X132.199 Y117.513 E34.69861
G1 X132.154 Y117.106 E34.71223
G1 X132.012 Y116.722 E34.72585
G1 X131.782 Y116.381 E34.73953
G1 X131.476 Y116.109 E34.75315
G1 X131.115 Y115.915 E34.76678
G1 X130.718 Y115.814 E34.7804
G1 X130.307 Y115.811 E34.79407
G1 X129.909 Y115.905 E34.80768
G1 X129.545 Y116.093 E34.8213
G1 X129.236 Y116.362 E34.83493
G1 X129.001 Y116.699 E34.84859
G1 X128.854 Y117.08 E34.86218
G1 X128.801 Y117.487 E34.87583
G1 X128.846 Y117.894 E34.88945
G1 X128.988 Y118.278 E34.90306
G1 X129.218 Y118.619 E34.91674
G1 X129.524 Y118.891 E34.93036
G1 X129.885 Y119.085 E34.94399
G1 X130.282 Y119.186 E34.95762
G0 F6000 X130.226 Y119.622
G1 F2700 E29.95762
G0 F6000 X128.771 Y119.01
G0 X129.875 Y118.047
G0 X105.117 Y118.056
G0 X106.207 Y119.035
G0 X104.738 Y119.589
;TYPE:WALL-INNER
G1 F2700 E34.95762
G1 F1200 X105.231 Y119.473 E34.97446
G1 X105.681 Y119.24 E34.99132
G1 X106.064 Y118.907 E35.0082
G1 X106.355 Y118.49 E35.02511
G1 X106.536 Y118.019 E35.04189
G1 X106.602 Y117.517 E35.05873
G1 X106.546 Y117.013 E35.0756
G1 X106.37 Y116.538 E35.09245
G1 X106.085 Y116.116 E35.10938
G1 X105.707 Y115.779 E35.12623
G1 X105.261 Y115.539 E35.14307
G1 X104.77 Y115.414 E35.15992
G1 X104.262 Y115.411 E35.17682
G1 X103.769 Y115.527 E35.19367
G1 X103.319 Y115.76 E35.21052
G1 X102.936 Y116.093 E35.2274
G1 X102.645 Y116.51 E35.24431
G1 X102.464 Y116.981 E35.2611
G1 X102.398 Y117.483 E35.27794
G1 X102.454 Y117.987 E35.2948
G1 X102.63 Y118.462 E35.31165
G1 X102.915 Y118.884 E35.32859
G1 X103.293 Y119.221 E35.34543
G1 X103.739 Y119.461 E35.36228
G1 X104.23 Y119.586 E35.37913
G1 X104.738 Y119.589 E35.39602
G0 F6000 X104.693 Y119.189
;TYPE:WALL-OUTER
G1 F1200 X105.091 Y119.095 E35.40963
G1 X105.455 Y118.907 E35.42325
G1 X105.764 Y118.638 E35.43688
G1 X105.999 Y118.301 E35.45054
G1 X106.146 Y117.92 E35.46412
G1 X106.199 Y117.513 E35.47778
G1 X106.154 Y117.106 E35.4914
G1 X106.012 Y116.722 E35.50501
G1 X105.782 Y116.381 E35.51869
G1 X105.476 Y116.109 E35.53231
G1 X105.115 Y115.915 E35.54594
G1 X104.718 Y115.814 E35.55957
G1 X104.307 Y115.811 E35.57324
G1 X103.909 Y115.905 E35.58684
G1 X103.545 Y116.093 E35.60046
G1 X103.236 Y116.362 E35.61409
G1 X103.001 Y116.699 E35.62776
G1 X102.854 Y117.08 E35.64134
G1 X102.801 Y117.487 E35.65499
G1 X102.846 Y117.894 E35.66861
G1 X102.988 Y118.278 E35.68223
G1 X103.218 Y118.619 E35.69591
G1 X103.524 Y118.891 E35.70952
G1 X103.885 Y119.085 E35.72315
G1 X104.282 Y119.186 E35.73678
G1 X104.693 Y119.189 E35.75045
G0 F6000 X104.742 Y119.626
