;FLAVOR:Marlin
;TIME:16816
;Filament used: 17.9354m
;Layer height: 0.28
;MINX:51.5
;MINY:96.5
;MINZ:0.28
;MAXX:183.5
;MAXY:170.5
;MAXZ:19.88
;Generated with Cura_SteamEngine 4.6.1
M140 S50
M105
M190 S50
M104 S210
M105
M109 S210
M82 ;absolute extrusion mode
; Ender 3 Custom Start G-code
G92 E0 ; Reset Extruder
G28 ; Home all axes
G1 Z2.0 F3000 ; Move Z Axis up little to prevent scratching of Heat Bed
G1 X0.1 Y20 Z0.3 F5000.0 ; Move to start position
G1 X0.1 Y200.0 Z0.3 F1500.0 E15 ; Draw the first line
G1 X0.4 Y200.0 Z0.3 F5000.0 ; Move to side a little
G1 X0.4 Y20 Z0.3 F1500.0 E30 ; Draw the second line
G92 E0 ; Reset Extruder
G1 Z2.0 F3000 ; Move Z Axis up little to prevent scratching of Heat Bed
G1 X5 Y20 Z0.3 F5000.0 ; Move over to prevent blob squish
G92 E0
G92 E0
G1 F2700 E-5
;LAYER_COUNT:71
;LAYER:0
M107
G0 F6000 X172.637 Y97.311 Z0.28
;TYPE:SKIRT
G1 F2700 E0
G1 F1200 X173.539 Y97.364 E0.04207
G1 X174.432 Y97.496 E0.08411
G1 X175.31 Y97.707 E0.12615
G1 X176.166 Y97.995 E0.16821
G1 X176.993 Y98.357 E0.21025
G1 X177.785 Y98.792 E0.25232
G1 X178.536 Y99.294 E0.29438
G1 X179.239 Y99.861 E0.33644
G1 X179.889 Y100.488 E0.37849
G1 X180.481 Y101.17 E0.42054
G1 X181.011 Y101.901 E0.46259
G1 X181.473 Y102.677 E0.50464
G1 X181.866 Y103.49 E0.54669
G1 X182.184 Y104.335 E0.58873
G1 X182.427 Y105.205 E0.63079
G1 X182.592 Y106.093 E0.67285
G1 X182.687 Y107.223 E0.72565
G1 X182.7 Y107.83 E0.75392
G1 X182.699 Y126.915 E1.6426
G1 X182.681 Y127.931 E1.68991
G1 X182.628 Y129.149 E1.74668
G1 X182.591 Y129.813 E1.77765
G1 X182.522 Y132.332 E1.89499
G1 X182.524 Y134.855 E2.01247
G1 X182.693 Y139.455 E2.22681
G1 X182.7 Y139.83 E2.24428
G1 X182.699 Y158.905 E3.13249
G1 X182.689 Y159.631 E3.1663
G1 X182.637 Y160.533 E3.20837
G1 X182.505 Y161.426 E3.2504
G1 X182.294 Y162.305 E3.29249
G1 X182.007 Y163.161 E3.33453
G1 X181.645 Y163.988 E3.37657
G1 X181.211 Y164.78 E3.41862
G1 X180.709 Y165.531 E3.46068
G1 X180.143 Y166.235 E3.50275
G1 X179.516 Y166.885 E3.5448
G1 X178.835 Y167.478 E3.58685
G1 X178.103 Y168.007 E3.6289
G1 X177.328 Y168.471 E3.67096
G1 X176.515 Y168.863 E3.71299
G1 X175.67 Y169.183 E3.75506
G1 X174.8 Y169.426 E3.79712
G1 X173.913 Y169.591 E3.83914
G1 X172.777 Y169.687 E3.89222
G1 X172.17 Y169.7 E3.92049
G1 X116.982 Y169.698 E6.49028
G1 X116.718 Y169.7 E6.50257
G1 X63.061 Y169.699 E9.00106
G1 X62.363 Y169.689 E9.03357
G1 X61.461 Y169.636 E9.07564
G1 X60.568 Y169.504 E9.11768
G1 X59.69 Y169.293 E9.15972
G1 X58.834 Y169.005 E9.20178
G1 X58.007 Y168.643 E9.24381
G1 X57.215 Y168.208 E9.28589
G1 X56.464 Y167.706 E9.32795
G1 X55.761 Y167.139 E9.37001
G1 X55.111 Y166.512 E9.41206
G1 X54.519 Y165.83 E9.45411
G1 X53.989 Y165.099 E9.49616
G1 X53.527 Y164.323 E9.53821
G1 X53.134 Y163.51 E9.58026
G1 X52.816 Y162.665 E9.6223
G1 X52.573 Y161.795 E9.66436
G1 X52.408 Y160.907 E9.70642
G1 X52.313 Y159.766 E9.75973
G1 X52.3 Y159.158 E9.78805
G1 X52.301 Y140.063 E10.67719
G1 X52.319 Y139.067 E10.72358
G1 X52.372 Y137.851 E10.78025
G1 X52.409 Y137.187 E10.81122
G1 X52.478 Y134.659 E10.92898
G1 X52.476 Y132.145 E11.04604
G1 X52.307 Y127.545 E11.26038
G1 X52.3 Y127.17 E11.27784
G1 X52.301 Y108.021 E12.1695
G1 X52.311 Y107.356 E12.20047
G1 X52.365 Y106.454 E12.24255
G1 X52.498 Y105.561 E12.28459
G1 X52.709 Y104.683 E12.32663
G1 X52.998 Y103.827 E12.3687
G1 X53.361 Y103 E12.41076
G1 X53.795 Y102.209 E12.45277
G1 X54.298 Y101.458 E12.49486
G1 X54.866 Y100.756 E12.53691
G1 X55.493 Y100.106 E12.57896
G1 X56.175 Y99.514 E12.62101
G1 X56.907 Y98.985 E12.66307
G1 X57.683 Y98.523 E12.70512
G1 X58.497 Y98.132 E12.74717
G1 X59.342 Y97.813 E12.78922
G1 X60.212 Y97.571 E12.83127
G1 X61.1 Y97.407 E12.87332
G1 X62.223 Y97.313 E12.9258
G1 X62.83 Y97.3 E12.95407
G1 X118.095 Y97.302 E15.52744
G1 X171.939 Y97.301 E18.03464
G1 X172.637 Y97.311 E18.06714
G0 F6000 X172.643 Y96.911
G1 F1200 X173.562 Y96.964 E18.11001
G1 X174.473 Y97.097 E18.15288
G1 X175.369 Y97.308 E18.19574
G1 X176.243 Y97.596 E18.23859
G1 X177.09 Y97.959 E18.2815
G1 X177.901 Y98.394 E18.32435
G1 X178.671 Y98.898 E18.3672
G1 X179.395 Y99.467 E18.41008
G1 X180.067 Y100.097 E18.45297
G1 X180.682 Y100.782 E18.49584
G1 X181.235 Y101.518 E18.53871
G1 X181.722 Y102.299 E18.58156
G1 X182.139 Y103.12 E18.62444
G1 X182.484 Y103.974 E18.66733
G1 X182.753 Y104.854 E18.71018
G1 X182.945 Y105.755 E18.75307
G1 X183.058 Y106.668 E18.79591
G1 X183.087 Y107.212 E18.82128
G1 X183.1 Y107.83 E18.85006
G1 X183.099 Y126.92 E19.73897
G1 X183.08 Y127.948 E19.78685
G1 X183.028 Y129.171 E19.84385
G1 X182.99 Y129.845 E19.87528
G1 X182.922 Y132.346 E19.99178
G1 X182.924 Y134.841 E20.10796
G1 X183.093 Y139.441 E20.3223
G1 X183.1 Y139.83 E20.34042
G1 X183.099 Y158.911 E21.22891
G1 X183.089 Y159.637 E21.26272
G1 X183.036 Y160.556 E21.30558
G1 X182.904 Y161.467 E21.34844
G1 X182.693 Y162.363 E21.39131
G1 X182.406 Y163.238 E21.43418
G1 X182.043 Y164.084 E21.47705
G1 X181.609 Y164.896 E21.51992
G1 X181.105 Y165.667 E21.56281
G1 X180.537 Y166.391 E21.60566
G1 X179.908 Y167.063 E21.64852
G1 X179.223 Y167.678 E21.69139
G1 X178.487 Y168.232 E21.73428
G1 X177.706 Y168.719 E21.77714
G1 X176.885 Y169.137 E21.82004
G1 X176.032 Y169.482 E21.86289
G1 X175.152 Y169.751 E21.90573
G1 X174.251 Y169.944 E21.94864
G1 X173.338 Y170.057 E21.99148
G1 X172.788 Y170.087 E22.01713
G1 X172.17 Y170.1 E22.04591
G1 X116.985 Y170.098 E24.61555
G1 X116.721 Y170.1 E24.62785
G1 X63.055 Y170.099 E27.12676
G1 X62.357 Y170.089 E27.15927
G1 X61.438 Y170.036 E27.20213
G1 X60.527 Y169.903 E27.245
G1 X59.631 Y169.692 E27.28786
G1 X58.757 Y169.404 E27.33071
G1 X57.91 Y169.041 E27.37362
G1 X57.099 Y168.606 E27.41647
G1 X56.329 Y168.102 E27.45933
G1 X55.605 Y167.533 E27.5022
G1 X54.933 Y166.903 E27.5451
G1 X54.318 Y166.218 E27.58796
G1 X53.765 Y165.482 E27.63083
G1 X53.278 Y164.701 E27.67369
G1 X52.861 Y163.88 E27.71656
G1 X52.516 Y163.026 E27.75945
G1 X52.247 Y162.146 E27.8023
G1 X52.055 Y161.245 E27.8452
G1 X51.942 Y160.332 E27.88803
G1 X51.913 Y159.777 E27.91391
G1 X51.9 Y159.158 E27.94274
G1 X51.901 Y140.057 E28.83216
G1 X51.92 Y139.05 E28.87906
G1 X51.972 Y137.829 E28.93597
G1 X52.01 Y137.155 E28.9674
G1 X52.078 Y134.649 E29.08414
G1 X52.076 Y132.159 E29.20008
G1 X51.907 Y127.559 E29.41442
G1 X51.9 Y127.17 E29.43254
G1 X51.901 Y108.015 E30.32447
G1 X51.911 Y107.35 E30.35544
G1 X51.965 Y106.431 E30.39831
G1 X52.098 Y105.52 E30.44118
G1 X52.31 Y104.624 E30.48405
G1 X52.599 Y103.749 E30.52696
G1 X52.963 Y102.904 E30.5698
G1 X53.398 Y102.093 E30.61266
G1 X53.903 Y101.322 E30.65557
G1 X54.472 Y100.599 E30.69841
G1 X55.102 Y99.927 E30.7413
G1 X55.788 Y99.313 E30.78417
G1 X56.524 Y98.761 E30.82701
G1 X57.306 Y98.274 E30.86991
G1 X58.127 Y97.858 E30.91277
G1 X58.981 Y97.514 E30.95564
G1 X59.861 Y97.245 E30.99849
G1 X60.762 Y97.054 E31.04137
G1 X61.676 Y96.942 E31.08425
G1 X62.212 Y96.913 E31.10925
G1 X62.83 Y96.9 E31.13803
G1 X118.095 Y96.902 E33.7114
G1 X171.945 Y96.901 E36.21888
G1 X172.643 Y96.911 E36.25139
G0 F6000 X172.649 Y96.511
G1 F1200 X173.585 Y96.565 E36.29504
G1 X174.513 Y96.697 E36.33869
G1 X175.427 Y96.909 E36.38238
G1 X176.319 Y97.198 E36.42604
G1 X177.184 Y97.561 E36.46972
G1 X178.014 Y97.997 E36.51338
G1 X178.805 Y98.502 E36.55707
G1 X179.549 Y99.073 E36.60074
G1 X180.242 Y99.705 E36.64442
G1 X180.879 Y100.393 E36.68808
G1 X181.454 Y101.134 E36.73175
G1 X181.965 Y101.92 E36.7754
G1 X182.407 Y102.748 E36.81911
G1 X182.776 Y103.61 E36.86277
G1 X183.071 Y104.5 E36.90643
G1 X183.289 Y105.412 E36.95009
G1 X183.429 Y106.34 E36.99379
G1 X183.487 Y107.201 E37.03398
G1 X183.5 Y107.83 E37.06327
G1 X183.499 Y126.926 E37.95246
G1 X183.48 Y127.965 E38.00085
G1 X183.427 Y129.193 E38.05808
G1 X183.391 Y129.843 E38.0884
G1 X183.322 Y132.361 E38.20569
G1 X183.324 Y134.825 E38.32042
G1 X183.493 Y139.426 E38.53481
G1 X183.5 Y139.83 E38.55362
G1 X183.499 Y158.917 E39.4424
G1 X183.489 Y159.643 E39.4762
G1 X183.436 Y160.579 E39.51986
G1 X183.304 Y161.507 E39.5635
G1 X183.093 Y162.421 E39.60718
G1 X182.804 Y163.314 E39.65089
G1 X182.441 Y164.178 E39.69453
G1 X182.006 Y165.009 E39.7382
G1 X181.501 Y165.8 E39.7819
G1 X180.931 Y166.544 E39.82554
G1 X180.3 Y167.238 E39.86922
G1 X179.611 Y167.875 E39.91291
G1 X178.871 Y168.451 E39.95658
G1 X178.085 Y168.962 E40.00023
G1 X177.258 Y169.404 E40.0439
G1 X176.396 Y169.774 E40.08758
G1 X175.506 Y170.07 E40.13125
G1 X174.594 Y170.288 E40.17491
G1 X173.666 Y170.428 E40.21861
G1 X172.799 Y170.487 E40.25908
G1 X172.17 Y170.5 E40.28837
G1 X116.988 Y170.498 E42.85788
G1 X116.724 Y170.5 E42.87017
G1 X63.049 Y170.499 E45.3695
G1 X62.351 Y170.489 E45.40201
G1 X61.415 Y170.435 E45.44567
G1 X60.487 Y170.303 E45.48931
G1 X59.573 Y170.091 E45.533
G1 X58.681 Y169.802 E45.57666
G1 X57.816 Y169.439 E45.62034
G1 X56.986 Y169.003 E45.664
G1 X56.195 Y168.498 E45.7077
G1 X55.451 Y167.927 E45.75137
G1 X54.758 Y167.295 E45.79504
G1 X54.121 Y166.607 E45.8387
G1 X53.546 Y165.866 E45.88237
G1 X53.035 Y165.08 E45.92603
G1 X52.593 Y164.252 E45.96973
G1 X52.224 Y163.39 E46.01339
G1 X51.929 Y162.5 E46.05705
G1 X51.711 Y161.588 E46.10072
G1 X51.571 Y160.66 E46.14442
G1 X51.513 Y159.788 E46.18511
G1 X51.5 Y159.158 E46.21445
G1 X51.501 Y140.051 E47.10415
G1 X51.52 Y139.033 E47.15157
G1 X51.573 Y137.807 E47.20871
G1 X51.609 Y137.157 E47.23902
G1 X51.678 Y134.639 E47.35631
G1 X51.676 Y132.175 E47.47105
G1 X51.507 Y127.574 E47.68543
G1 X51.5 Y127.17 E47.70425
G1 X51.501 Y108.009 E48.59646
G1 X51.511 Y107.344 E48.62743
G1 X51.565 Y106.407 E48.67114
G1 X51.699 Y105.479 E48.7148
G1 X51.911 Y104.565 E48.75848
G1 X52.2 Y103.673 E48.80215
G1 X52.565 Y102.809 E48.84582
G1 X53.001 Y101.979 E48.88948
G1 X53.507 Y101.189 E48.93316
G1 X54.078 Y100.445 E48.97683
G1 X54.71 Y99.752 E49.0205
G1 X55.399 Y99.116 E49.06417
G1 X56.14 Y98.541 E49.10784
G1 X56.927 Y98.031 E49.15151
G1 X57.755 Y97.59 E49.19519
G1 X58.617 Y97.221 E49.23885
G1 X59.508 Y96.927 E49.28254
G1 X60.42 Y96.709 E49.3262
G1 X61.347 Y96.571 E49.36984
G1 X62.201 Y96.513 E49.4097
G1 X62.83 Y96.5 E49.439
G1 X118.095 Y96.502 E52.01237
G1 X171.951 Y96.501 E54.52013
G1 X172.649 Y96.511 E54.55263
G1 F2700 E49.55263
;MESH:Internal Support.stl
G0 F6000 X156.975 Y116.822
G0 X157.823 Y115.626
G0 X158.389 Y117.055
G0 X158.438 Y117.521
G0 X158.378 Y117.982
G0 X158.21 Y118.418
G0 X157.938 Y118.802
G0 X157.586 Y119.109
G0 X157.169 Y119.322
G0 X156.912 Y119.381
G0 X155.733 Y119.458
;TYPE:WALL-INNER
G1 F2700 E54.55263
G1 F1200 X156.226 Y119.585 E54.57634
G1 X156.732 Y119.589 E54.5999
G1 X157.226 Y119.474 E54.62352
G1 X157.677 Y119.243 E54.64711
G1 X158.059 Y118.911 E54.67068
G1 X158.352 Y118.495 E54.69437
G1 X158.535 Y118.023 E54.71794
G1 X158.601 Y117.523 E54.74143
G1 X158.548 Y117.018 E54.76507
G1 X158.372 Y116.541 E54.78875
G1 X158.088 Y116.122 E54.81232
G1 X157.712 Y115.783 E54.83589
G1 X157.267 Y115.542 E54.85946
G1 X156.774 Y115.415 E54.88316
G1 X156.268 Y115.411 E54.90672
G1 X155.774 Y115.526 E54.93034
G1 X155.323 Y115.757 E54.95394
G1 X154.941 Y116.089 E54.9775
G1 X154.648 Y116.505 E55.0012
G1 X154.465 Y116.977 E55.02477
G1 X154.399 Y117.477 E55.04825
G1 X154.452 Y117.982 E55.0719
G1 X154.628 Y118.459 E55.09557
G1 X154.912 Y118.878 E55.11914
G1 X155.288 Y119.217 E55.14271
G1 X155.733 Y119.458 E55.16628
G0 F6000 X155.88 Y119.083
;TYPE:WALL-OUTER
G1 F1200 X156.278 Y119.185 E55.18541
G1 X156.688 Y119.189 E55.2045
G1 X157.087 Y119.096 E55.22358
G1 X157.451 Y118.909 E55.24264
G1 X157.76 Y118.641 E55.26168
G1 X157.997 Y118.305 E55.28083
G1 X158.145 Y117.923 E55.2999
G1 X158.198 Y117.518 E55.31892
G1 X158.155 Y117.11 E55.33803
G1 X158.013 Y116.725 E55.35713
G1 X157.784 Y116.386 E55.37618
G1 X157.48 Y116.112 E55.39524
G1 X157.12 Y115.917 E55.4143
G1 X156.722 Y115.815 E55.43344
G1 X156.312 Y115.811 E55.45253
G1 X155.913 Y115.904 E55.47161
G1 X155.549 Y116.091 E55.49066
G1 X155.24 Y116.359 E55.50971
G1 X155.003 Y116.695 E55.52885
G1 X154.855 Y117.077 E55.54793
G1 X154.802 Y117.482 E55.56695
G1 X154.845 Y117.89 E55.58605
G1 X154.987 Y118.275 E55.60516
G1 X155.216 Y118.614 E55.62421
G1 X155.52 Y118.888 E55.64326
G1 X155.88 Y119.083 E55.66233
G0 F6000 X155.72 Y119.492
G1 F2700 E50.66233
G0 F6000 X154.767 Y119.004
G0 X155.871 Y118.04
G0 X131.117 Y118.055
G0 X132.202 Y119.04
G0 X130.226 Y119.585
;TYPE:WALL-INNER
G1 F2700 E55.66233
G1 F1200 X130.732 Y119.589 E55.68589
G1 X131.226 Y119.474 E55.70951
G1 X131.677 Y119.243 E55.7331
G1 X132.059 Y118.911 E55.75667
G1 X132.352 Y118.495 E55.78036
G1 X132.535 Y118.023 E55.80394
G1 X132.601 Y117.523 E55.82742
G1 X132.548 Y117.018 E55.85106
G1 X132.372 Y116.541 E55.87474
G1 X132.088 Y116.122 E55.89831
G1 X131.712 Y115.783 E55.92188
G1 X131.267 Y115.542 E55.94545
G1 X130.774 Y115.415 E55.96915
G1 X130.268 Y115.411 E55.99271
G1 X129.774 Y115.526 E56.01633
G1 X129.323 Y115.757 E56.03993
G1 X128.941 Y116.089 E56.06349
G1 X128.648 Y116.505 E56.08719
G1 X128.465 Y116.977 E56.11076
G1 X128.399 Y117.477 E56.13424
G1 X128.452 Y117.982 E56.15789
G1 X128.628 Y118.459 E56.18156
G1 X128.912 Y118.878 E56.20513
G1 X129.288 Y119.217 E56.22871
G1 X129.733 Y119.458 E56.25227
G1 X130.226 Y119.585 E56.27598
G0 F6000 X130.278 Y119.185
;TYPE:WALL-OUTER
G1 F1200 X130.688 Y119.189 E56.29507
G1 X131.087 Y119.096 E56.31415
G1 X131.451 Y118.909 E56.3332
G1 X131.76 Y118.641 E56.35225
G1 X131.997 Y118.305 E56.37139
G1 X132.145 Y117.923 E56.39047
G1 X132.198 Y117.518 E56.40949
G1 X132.155 Y117.11 E56.42859
G1 X132.013 Y116.725 E56.4477
G1 X131.784 Y116.386 E56.46675
G1 X131.48 Y116.112 E56.48581
G1 X131.12 Y115.917 E56.50487
G1 X130.722 Y115.815 E56.524
G1 X130.312 Y115.811 E56.54309
G1 X129.913 Y115.904 E56.56217
G1 X129.549 Y116.091 E56.58123
G1 X129.24 Y116.359 E56.60027
G1 X129.003 Y116.695 E56.61942
G1 X128.855 Y117.077 E56.63849
G1 X128.802 Y117.482 E56.65751
G1 X128.845 Y117.89 E56.67662
G1 X128.987 Y118.275 E56.69572
G1 X129.216 Y118.614 E56.71477
G1 X129.52 Y118.888 E56.73383
G1 X129.88 Y119.083 E56.75289
G1 X130.278 Y119.185 E56.77203
G0 F6000 X130.221 Y119.621
G1 F2700 E51.77203
G0 F6000 X128.767 Y119.004
G0 X129.871 Y118.04
G0 X105.117 Y118.055
G0 X106.202 Y119.04
G0 X104.732 Y119.589
;TYPE:WALL-INNER
G1 F2700 E56.77203
G1 F1200 X105.226 Y119.474 E56.79564
G1 X105.677 Y119.243 E56.81924
G1 X106.059 Y118.911 E56.84281
G1 X106.352 Y118.495 E56.8665
G1 X106.535 Y118.023 E56.89007
G1 X106.601 Y117.523 E56.91355
G1 X106.548 Y117.018 E56.9372
G1 X106.372 Y116.541 E56.96087
G1 X106.088 Y116.122 E56.98444
G1 X105.712 Y115.783 E57.00802
G1 X105.267 Y115.542 E57.03158
G1 X104.774 Y115.415 E57.05529
G1 X104.268 Y115.411 E57.07885
G1 X103.774 Y115.526 E57.10247
G1 X103.323 Y115.757 E57.12606
G1 X102.941 Y116.089 E57.14963
G1 X102.648 Y116.505 E57.17332
G1 X102.465 Y116.977 E57.19689
G1 X102.399 Y117.477 E57.22038
G1 X102.452 Y117.982 E57.24402
G1 X102.628 Y118.459 E57.2677
G1 X102.912 Y118.878 E57.29127
G1 X103.288 Y119.217 E57.31484
G1 X103.733 Y119.458 E57.33841
G1 X104.226 Y119.585 E57.36211
G1 X104.732 Y119.589 E57.38567
G0 F6000 X104.688 Y119.189
;TYPE:WALL-OUTER
G1 F1200 X105.087 Y119.096 E57.40475
G1 X105.451 Y118.909 E57.42381
G1 X105.76 Y118.641 E57.44285
G1 X105.997 Y118.305 E57.462
G1 X106.145 Y117.923 E57.48107
G1 X106.198 Y117.518 E57.50009
G1 X106.155 Y117.11 E57.5192
G1 X106.013 Y116.725 E57.5383
G1 X105.784 Y116.386 E57.55735
G1 X105.48 Y116.112 E57.57641
G1 X105.12 Y115.917 E57.59547
G1 X104.722 Y115.815 E57.61461
G1 X104.312 Y115.811 E57.6337
G1 X103.913 Y115.904 E57.65278
G1 X103.549 Y116.091 E57.67183
G1 X103.24 Y116.359 E57.69088
G1 X103.003 Y116.695 E57.71002
G1 X102.855 Y117.077 E57.7291
G1 X102.802 Y117.482 E57.74812
G1 X102.845 Y117.89 E57.76722
G1 X102.987 Y118.275 E57.78633
G1 X103.216 Y118.614 E57.80538
G1 X103.52 Y118.888 E57.82444
G1 X103.88 Y119.083 E57.8435
G1 X104.278 Y119.185 E57.86263
G1 X104.688 Y119.189 E57.88172
G0 F6000 X104.736 Y119.626
G1 F2700 E52.88172
G0 F6000 X102.767 Y119.004
G0 X103.871 Y118.04
G0 X79.117 Y118.055
G0 X80.202 Y119.04
G0 X79.226 Y119.474
;TYPE:WALL-INNER
G1 F2700 E57.88172
G1 F1200 X79.677 Y119.243 E57.90532
G1 X80.059 Y118.911 E57.92888
G1 X80.352 Y118.495 E57.95258
G1 X80.535 Y118.023 E57.97615
G1 X80.601 Y117.523 E57.99963
G1 X80.548 Y117.018 E58.02328
