;FLAVOR:Marlin
;TIME:7444
;Filament used: 7.66576m
;Layer height: 0.28
;MINX:44
;MINY:88.998
;MINZ:0.28
;MAXX:176
;MAXY:131.002
;MAXZ:19.88
;Generated with Cura_SteamEngine 4.8.0
M140 S60
M105
M190 S60
M104 S205
M105
M109 S205
M82 ;absolute extrusion mode
; Ender 3 Custom Start G-code
G92 E0 ; Reset Extruder
G28 ; Home all axes
G1 Z2.0 F3000 ; Move Z Axis up little to prevent scratching of Heat Bed
G1 X0.1 Y20 Z0.3 F5000.0 ; Move to start position
G1 X0.1 Y200.0 Z0.3 F1500.0 E15 ; Draw the first line
G1 X0.4 Y200.0 Z0.3 F5000.0 ; Move to side a little
G1 X0.4 Y20 Z0.3 F1500.0 E30 ; Draw the second line
G92 E0 ; Reset Extruder
G1 Z2.0 F3000 ; Move Z Axis up little to prevent scratching of Heat Bed
G1 X5 Y20 Z0.3 F5000.0 ; Move over to prevent blob squish
G92 E0
G92 E0
G1 F2400 E-6.5
;LAYER_COUNT:71
;LAYER:0
M107
G0 F6000 X49.412 Y90.539 Z0.28
;TYPE:SKIRT
G1 F2400 E0
G1 F1200 X50.239 Y90.097 E0.04366
G1 X51.101 Y89.727 E0.08734
G1 X51.991 Y89.431 E0.13102
G1 X52.903 Y89.213 E0.17468
G1 X53.83 Y89.072 E0.21834
G1 X54.701 Y89.013 E0.25899
G1 X55.022 Y89.004 E0.27394
G1 X55.33 Y89 E0.28829
G1 X109.54 Y88.998 E2.81253
G1 X110.552 Y89.002 E2.85966
G1 X110.776 Y89 E2.87009
G1 X164.451 Y89.001 E5.36942
G1 X165.149 Y89.011 E5.40192
G1 X166.085 Y89.065 E5.44558
G1 X167.013 Y89.197 E5.48923
G1 X167.927 Y89.409 E5.53292
G1 X168.819 Y89.698 E5.57658
G1 X169.684 Y90.061 E5.62026
G1 X170.514 Y90.497 E5.66392
G1 X171.305 Y91.002 E5.70761
G1 X172.049 Y91.573 E5.75128
G1 X172.742 Y92.205 E5.79496
G1 X173.379 Y92.893 E5.83862
G1 X173.954 Y93.634 E5.88229
G1 X174.465 Y94.42 E5.92594
G1 X174.907 Y95.248 E5.96965
G1 X175.276 Y96.11 E6.01331
G1 X175.571 Y97 E6.05697
G1 X175.789 Y97.912 E6.10063
G1 X175.929 Y98.84 E6.14433
G1 X175.987 Y99.701 E6.18452
G1 X175.996 Y100.021 E6.19942
G1 X176 Y100.33 E6.21381
G1 X175.999 Y119.4 E7.10179
G1 X175.99 Y120.127 E7.13565
G1 X175.939 Y121.064 E7.17934
G1 X175.807 Y121.992 E7.22299
G1 X175.598 Y122.906 E7.26665
G1 X175.311 Y123.799 E7.31032
G1 X174.949 Y124.665 E7.35403
G1 X174.515 Y125.496 E7.39768
G1 X174.011 Y126.287 E7.44136
G1 X173.442 Y127.032 E7.48501
G1 X172.811 Y127.727 E7.52872
G1 X172.124 Y128.365 E7.57237
G1 X171.385 Y128.942 E7.61603
G1 X170.599 Y129.454 E7.65971
G1 X169.773 Y129.897 E7.70336
G1 X168.911 Y130.269 E7.74707
G1 X168.022 Y130.565 E7.7907
G1 X167.11 Y130.785 E7.83439
G1 X166.183 Y130.926 E7.87805
G1 X165.299 Y130.987 E7.91931
G1 X164.978 Y130.996 E7.93426
G1 X164.67 Y131 E7.9486
G1 X110.46 Y131.002 E10.47285
G1 X109.448 Y130.998 E10.51997
G1 X109.224 Y131 E10.5304
G1 X55.549 Y130.999 E13.02974
G1 X54.851 Y130.989 E13.06224
G1 X53.915 Y130.935 E13.1059
G1 X52.987 Y130.803 E13.14954
G1 X52.073 Y130.591 E13.19323
G1 X51.181 Y130.302 E13.23689
G1 X50.316 Y129.939 E13.28058
G1 X49.486 Y129.503 E13.32423
G1 X48.695 Y128.998 E13.36793
G1 X47.951 Y128.427 E13.4116
G1 X47.258 Y127.795 E13.45527
G1 X46.621 Y127.107 E13.49893
G1 X46.046 Y126.366 E13.54261
G1 X45.535 Y125.58 E13.58626
G1 X45.093 Y124.752 E13.62997
G1 X44.724 Y123.89 E13.67363
G1 X44.429 Y123 E13.71729
G1 X44.211 Y122.088 E13.76095
G1 X44.071 Y121.16 E13.80465
G1 X44.013 Y120.288 E13.84534
G1 X44.004 Y119.956 E13.86081
G1 X44 Y119.658 E13.87469
G1 X44.001 Y100.525 E14.7656
G1 X44.01 Y99.86 E14.79657
G1 X44.063 Y98.924 E14.84022
G1 X44.195 Y97.995 E14.88391
G1 X44.406 Y97.081 E14.92759
G1 X44.694 Y96.189 E14.97124
G1 X45.057 Y95.324 E15.01492
G1 X45.492 Y94.493 E15.0586
G1 X45.996 Y93.703 E15.10223
G1 X46.566 Y92.958 E15.14591
G1 X47.198 Y92.264 E15.18962
G1 X47.886 Y91.627 E15.23328
G1 X48.626 Y91.051 E15.27694
G1 X49.412 Y90.539 E15.32062
G0 F6000 X49.791 Y90.782
G1 F1200 X50.611 Y90.364 E15.36348
G1 X51.465 Y90.019 E15.40637
G1 X52.345 Y89.749 E15.44923
G1 X53.245 Y89.557 E15.49208
G1 X54.159 Y89.443 E15.53497
G1 X54.712 Y89.413 E15.56076
G1 X55.033 Y89.404 E15.57571
G1 X55.33 Y89.4 E15.58954
G1 X109.539 Y89.398 E18.11374
G1 X110.554 Y89.402 E18.161
G1 X110.779 Y89.4 E18.17148
G1 X164.445 Y89.401 E20.67039
G1 X165.143 Y89.411 E20.7029
G1 X166.062 Y89.464 E20.74576
G1 X166.973 Y89.597 E20.78863
G1 X167.869 Y89.808 E20.83149
G1 X168.743 Y90.096 E20.87434
G1 X169.59 Y90.459 E20.91725
G1 X170.401 Y90.894 E20.9601
G1 X171.171 Y91.398 E21.00296
G1 X171.895 Y91.967 E21.04583
G1 X172.567 Y92.597 E21.08873
G1 X173.182 Y93.282 E21.13159
G1 X173.735 Y94.018 E21.17446
G1 X174.222 Y94.799 E21.21732
G1 X174.639 Y95.62 E21.26019
G1 X174.984 Y96.474 E21.30308
G1 X175.253 Y97.354 E21.34593
G1 X175.445 Y98.255 E21.38883
G1 X175.558 Y99.168 E21.43166
G1 X175.587 Y99.712 E21.45703
G1 X175.596 Y100.032 E21.47194
G1 X175.6 Y100.33 E21.48582
G1 X175.599 Y119.395 E22.37356
G1 X175.59 Y120.122 E22.40742
G1 X175.539 Y121.041 E22.45027
G1 X175.408 Y121.953 E22.49318
G1 X175.198 Y122.849 E22.53603
G1 X174.912 Y123.724 E22.57889
G1 X174.551 Y124.571 E22.62177
G1 X174.117 Y125.383 E22.66464
G1 X173.615 Y126.155 E22.70752
G1 X173.047 Y126.88 E22.7504
G1 X172.419 Y127.553 E22.79327
G1 X171.735 Y128.169 E22.83613
G1 X171 Y128.723 E22.87899
G1 X170.22 Y129.212 E22.92185
G1 X169.4 Y129.631 E22.96473
G1 X168.547 Y129.977 E23.00759
G1 X167.667 Y130.248 E23.05047
G1 X166.767 Y130.441 E23.09333
G1 X165.853 Y130.556 E23.13623
G1 X165.288 Y130.587 E23.16257
G1 X164.967 Y130.596 E23.17753
G1 X164.67 Y130.6 E23.19136
G1 X110.461 Y130.602 E25.71556
G1 X109.446 Y130.598 E25.76282
G1 X109.221 Y130.6 E25.7733
G1 X55.555 Y130.599 E28.27221
G1 X54.857 Y130.589 E28.30472
G1 X53.938 Y130.536 E28.34758
G1 X53.027 Y130.403 E28.39045
G1 X52.131 Y130.192 E28.43331
G1 X51.257 Y129.904 E28.47616
G1 X50.41 Y129.541 E28.51907
G1 X49.599 Y129.106 E28.56192
G1 X48.829 Y128.602 E28.60478
G1 X48.105 Y128.033 E28.64765
G1 X47.433 Y127.403 E28.69054
G1 X46.818 Y126.718 E28.73341
G1 X46.265 Y125.982 E28.77628
G1 X45.778 Y125.201 E28.81913
G1 X45.361 Y124.38 E28.86201
G1 X45.016 Y123.526 E28.9049
G1 X44.747 Y122.646 E28.94775
G1 X44.555 Y121.745 E28.99065
G1 X44.442 Y120.832 E29.03348
G1 X44.413 Y120.277 E29.05936
G1 X44.404 Y119.945 E29.07483
G1 X44.4 Y119.658 E29.08819
G1 X44.401 Y100.531 E29.97882
G1 X44.41 Y99.866 E30.00979
G1 X44.462 Y98.946 E30.0527
G1 X44.594 Y98.035 E30.09556
G1 X44.805 Y97.139 E30.13843
G1 X45.092 Y96.264 E30.18131
G1 X45.455 Y95.418 E30.22417
G1 X45.889 Y94.606 E30.26704
G1 X46.392 Y93.835 E30.30991
G1 X46.961 Y93.111 E30.35279
G1 X47.589 Y92.439 E30.39562
G1 X48.274 Y91.823 E30.43851
G1 X49.01 Y91.27 E30.48138
G1 X49.791 Y90.782 E30.52426
G0 F6000 X50.169 Y91.031
G1 F1200 X50.982 Y90.638 E30.56631
G1 X51.827 Y90.318 E30.60838
G1 X52.696 Y90.075 E30.6504
G1 X53.584 Y89.909 E30.69246
G1 X54.723 Y89.813 E30.74569
G1 X55.044 Y89.804 E30.76064
G1 X55.33 Y89.8 E30.77396
G1 X109.537 Y89.798 E33.29807
G1 X110.555 Y89.802 E33.34547
G1 X110.782 Y89.8 E33.35604
G1 X164.439 Y89.801 E35.85453
G1 X165.137 Y89.811 E35.88704
G1 X166.039 Y89.864 E35.92911
G1 X166.932 Y89.996 E35.97115
G1 X167.81 Y90.207 E36.01319
G1 X168.666 Y90.495 E36.05525
G1 X169.493 Y90.857 E36.09728
G1 X170.285 Y91.292 E36.13936
G1 X171.036 Y91.794 E36.18142
G1 X171.739 Y92.361 E36.22348
G1 X172.389 Y92.988 E36.26553
G1 X172.981 Y93.67 E36.30758
G1 X173.511 Y94.401 E36.34963
G1 X173.973 Y95.177 E36.39168
G1 X174.366 Y95.99 E36.43373
G1 X174.684 Y96.835 E36.47577
G1 X174.927 Y97.705 E36.51783
G1 X175.092 Y98.593 E36.55989
G1 X175.187 Y99.723 E36.61269
G1 X175.196 Y100.043 E36.62759
G1 X175.2 Y100.33 E36.64096
G1 X175.199 Y119.39 E37.52847
G1 X175.19 Y120.117 E37.56233
G1 X175.139 Y121.019 E37.6044
G1 X175.008 Y121.913 E37.64647
G1 X174.799 Y122.791 E37.68849
G1 X174.513 Y123.648 E37.73056
G1 X174.152 Y124.476 E37.77262
G1 X173.72 Y125.268 E37.81463
G1 X173.219 Y126.02 E37.85671
G1 X172.653 Y126.724 E37.89877
G1 X172.028 Y127.375 E37.94079
G1 X171.347 Y127.969 E37.98287
G1 X170.616 Y128.5 E38.02494
G1 X169.842 Y128.964 E38.06696
G1 X169.029 Y129.358 E38.10903
G1 X168.185 Y129.678 E38.15106
G1 X167.315 Y129.923 E38.19315
G1 X166.428 Y130.089 E38.23517
G1 X165.277 Y130.187 E38.28896
G1 X164.956 Y130.196 E38.30391
G1 X164.67 Y130.2 E38.31723
G1 X110.463 Y130.202 E40.84133
G1 X109.445 Y130.198 E40.88873
G1 X109.218 Y130.2 E40.89931
G1 X55.561 Y130.199 E43.3978
G1 X54.863 Y130.189 E43.4303
G1 X53.961 Y130.136 E43.47238
G1 X53.068 Y130.004 E43.51441
G1 X52.19 Y129.793 E43.55646
G1 X51.334 Y129.505 E43.59851
G1 X50.507 Y129.143 E43.64055
G1 X49.715 Y128.708 E43.68263
G1 X48.964 Y128.206 E43.72469
G1 X48.261 Y127.639 E43.76674
G1 X47.611 Y127.012 E43.8088
G1 X47.019 Y126.33 E43.85085
G1 X46.489 Y125.599 E43.89289
G1 X46.027 Y124.823 E43.93494
G1 X45.634 Y124.01 E43.97699
G1 X45.316 Y123.165 E44.01903
G1 X45.073 Y122.295 E44.06109
G1 X44.908 Y121.407 E44.10315
G1 X44.813 Y120.266 E44.15646
G1 X44.804 Y119.934 E44.17193
G1 X44.8 Y119.658 E44.18478
G1 X44.801 Y100.536 E45.07518
G1 X44.81 Y99.871 E45.10615
G1 X44.862 Y98.969 E45.14822
G1 X44.994 Y98.076 E45.19026
G1 X45.204 Y97.198 E45.23229
G1 X45.491 Y96.341 E45.27438
G1 X45.853 Y95.514 E45.31641
G1 X46.286 Y94.722 E45.35844
G1 X46.788 Y93.971 E45.40051
G1 X47.355 Y93.267 E45.4426
G1 X47.981 Y92.617 E45.48462
G1 X48.662 Y92.024 E45.52667
G1 X49.394 Y91.494 E45.56875
G1 X50.169 Y91.031 E45.61078
G1 F2400 E39.11078
;MESH:Internal Support.stl
G0 F6000 X70.001 Y109.12
G0 X68.906 Y108.146
G0 X68.628 Y109.416
G0 X68.558 Y110
G0 X68.628 Y110.584
G0 X68.838 Y111.135
G0 X69.172 Y111.62
G0 X69.614 Y112.01
G0 X70.135 Y112.283
G0 X70.597 Y112.396
G0 X71.923 Y112.435
;TYPE:WALL-INNER
G1 F2400 E45.61078
G1 F1200 X72.479 Y112.144 E45.64
G1 X72.95 Y111.727 E45.6693
G1 X73.306 Y111.21 E45.69853
G1 X73.529 Y110.623 E45.72776
G1 X73.604 Y110 E45.75698
G1 X73.529 Y109.377 E45.7862
G1 X73.306 Y108.79 E45.81544
G1 X72.95 Y108.273 E45.84467
G1 X72.479 Y107.856 E45.87396
G1 X71.923 Y107.565 E45.90318
G1 X71.314 Y107.415 E45.93239
G1 X70.686 Y107.415 E45.96163
G1 X70.077 Y107.565 E45.99084
G1 X69.521 Y107.856 E46.02006
G1 X69.05 Y108.273 E46.04935
G1 X68.694 Y108.79 E46.07858
G1 X68.471 Y109.377 E46.10782
G1 X68.396 Y110 E46.13704
G1 X68.471 Y110.623 E46.16626
G1 X68.694 Y111.21 E46.1955
G1 X69.05 Y111.727 E46.22472
G1 X69.521 Y112.144 E46.25402
G1 X70.077 Y112.435 E46.28324
G1 X70.686 Y112.585 E46.31244
G1 X71.314 Y112.585 E46.34169
G1 X71.923 Y112.435 E46.37089
G0 F6000 X71.78 Y112.058
;TYPE:WALL-OUTER
G1 F1200 X72.25 Y111.812 E46.39559
G1 X72.648 Y111.46 E46.42033
G1 X72.949 Y111.023 E46.44504
G1 X73.138 Y110.527 E46.46976
G1 X73.201 Y110 E46.49447
G1 X73.138 Y109.473 E46.51918
G1 X72.949 Y108.977 E46.5439
G1 X72.648 Y108.54 E46.56861
G1 X72.25 Y108.188 E46.59335
G1 X71.78 Y107.942 E46.61805
G1 X71.265 Y107.815 E46.64275
G1 X70.735 Y107.815 E46.66743
G1 X70.22 Y107.942 E46.69213
G1 X69.75 Y108.188 E46.71683
G1 X69.352 Y108.54 E46.74157
G1 X69.051 Y108.977 E46.76628
G1 X68.862 Y109.473 E46.791
G1 X68.799 Y110 E46.81571
G1 X68.862 Y110.527 E46.84042
G1 X69.051 Y111.023 E46.86514
G1 X69.352 Y111.46 E46.88985
G1 X69.75 Y111.812 E46.91459
G1 X70.22 Y112.058 E46.93929
G1 X70.735 Y112.185 E46.96399
G1 X71.265 Y112.185 E46.98867
G1 X71.78 Y112.058 E47.01337
G0 F6000 X71.935 Y112.469
G1 F2400 E40.51337
G0 F6000 X73.094 Y111.854
G0 X71.999 Y110.88
G0 X95.914 Y110.88
G0 X97.999 Y110.88
G0 X121.914 Y110.88
G0 X123.999 Y110.88
G0 X148.001 Y110.88
G0 X146.906 Y111.854
G0 X148.077 Y112.435
;TYPE:WALL-INNER
G1 F2400 E47.01337
G1 F1200 X148.686 Y112.585 E47.04257
G1 X149.314 Y112.585 E47.07181
G1 X149.923 Y112.435 E47.10102
G1 X150.479 Y112.144 E47.13024
G1 X150.95 Y111.727 E47.15953
G1 X151.306 Y111.21 E47.18876
G1 X151.529 Y110.623 E47.218
G1 X151.604 Y110 E47.24722
G1 X151.529 Y109.377 E47.27644
G1 X151.306 Y108.79 E47.30568
G1 X150.95 Y108.273 E47.33491
G1 X150.479 Y107.856 E47.3642
G1 X149.923 Y107.565 E47.39342
G1 X149.314 Y107.415 E47.42263
G1 X148.686 Y107.415 E47.45187
G1 X148.077 Y107.565 E47.48107
G1 X147.521 Y107.856 E47.51029
G1 X147.05 Y108.273 E47.53959
G1 X146.694 Y108.79 E47.56882
G1 X146.471 Y109.377 E47.59805
G1 X146.396 Y110 E47.62727
G1 X146.471 Y110.623 E47.65649
G1 X146.694 Y111.21 E47.68573
G1 X147.05 Y111.727 E47.71496
G1 X147.521 Y112.144 E47.74425
G1 X148.077 Y112.435 E47.77347
G0 F6000 X148.22 Y112.058
;TYPE:WALL-OUTER
G1 F1200 X148.735 Y112.185 E47.79817
G1 X149.265 Y112.185 E47.82285
G1 X149.78 Y112.058 E47.84755
G1 X150.25 Y111.812 E47.87225
G1 X150.648 Y111.46 E47.89699
G1 X150.949 Y111.023 E47.9217
G1 X151.138 Y110.527 E47.94642
G1 X151.201 Y110 E47.97113
G1 X151.138 Y109.473 E47.99585
G1 X150.949 Y108.977 E48.02056
G1 X150.648 Y108.54 E48.04527
G1 X150.25 Y108.188 E48.07001
G1 X149.78 Y107.942 E48.09471
G1 X149.265 Y107.815 E48.11941
G1 X148.735 Y107.815 E48.14409
G1 X148.22 Y107.942 E48.16879
G1 X147.75 Y108.188 E48.19349
G1 X147.352 Y108.54 E48.21823
G1 X147.051 Y108.977 E48.24294
G1 X146.862 Y109.473 E48.26766
G1 X146.799 Y110 E48.29237
G1 X146.862 Y110.527 E48.31708
G1 X147.051 Y111.023 E48.3418
G1 X147.352 Y111.46 E48.36651
G1 X147.75 Y111.812 E48.39125
G1 X148.22 Y112.058 E48.41595
G0 F6000 X148.065 Y112.469
G1 F2400 E41.91595
G0 F6000 X146.906 Y111.854
G0 X148.001 Y110.88
G0 X123.999 Y110.88
G0 X125.094 Y111.854
G0 X124.398 Y112.096
G0 X122.686 Y112.585
;TYPE:WALL-INNER
G1 F2400 E48.41595
G1 F1200 X123.314 Y112.585 E48.44519
G1 X123.923 Y112.435 E48.4744
G1 X124.479 Y112.144 E48.50362
G1 X124.95 Y111.727 E48.53291
G1 X125.306 Y111.21 E48.56214
G1 X125.529 Y110.623 E48.59138
G1 X125.604 Y110 E48.6206
G1 X125.529 Y109.377 E48.64982
G1 X125.306 Y108.79 E48.67906
G1 X124.95 Y108.273 E48.70829
G1 X124.479 Y107.856 E48.73758
G1 X123.923 Y107.565 E48.7668
G1 X123.314 Y107.415 E48.796
G1 X122.686 Y107.415 E48.82525
G1 X122.077 Y107.565 E48.85445
G1 X121.521 Y107.856 E48.88367
G1 X121.05 Y108.273 E48.91297
G1 X120.694 Y108.79 E48.94219
G1 X120.471 Y109.377 E48.97143
G1 X120.396 Y110 E49.00065
G1 X120.471 Y110.623 E49.02987
G1 X120.694 Y111.21 E49.05911
G1 X121.05 Y111.727 E49.08834
G1 X121.521 Y112.144 E49.11763
G1 X122.077 Y112.435 E49.14685
G1 X122.686 Y112.585 E49.17606
G0 F6000 X122.735 Y112.185
;TYPE:WALL-OUTER
G1 F1200 X123.265 Y112.185 E49.20074
G1 X123.78 Y112.058 E49.22544
G1 X124.25 Y111.812 E49.25014
G1 X124.648 Y111.46 E49.27488
G1 X124.949 Y111.023 E49.29959
G1 X125.138 Y110.527 E49.3243
G1 X125.201 Y110 E49.34902
G1 X125.138 Y109.473 E49.37373
G1 X124.949 Y108.977 E49.39845
G1 X124.648 Y108.54 E49.42315
G1 X124.25 Y108.188 E49.4479
G1 X123.78 Y107.942 E49.4726
G1 X123.265 Y107.815 E49.4973
G1 X122.735 Y107.815 E49.52198
G1 X122.22 Y107.942 E49.54667
G1 X121.75 Y108.188 E49.57138
G1 X121.352 Y108.54 E49.59612
G1 X121.051 Y108.977 E49.62083
G1 X120.862 Y109.473 E49.64554
G1 X120.799 Y110 E49.67025
G1 X120.862 Y110.527 E49.69497
G1 X121.051 Y111.023 E49.71968
G1 X121.352 Y111.46 E49.74439
G1 X121.75 Y111.812 E49.76913
G1 X122.22 Y112.058 E49.79384
G1 X122.735 Y112.185 E49.81853
G0 F6000 X122.682 Y112.621
G1 F2400 E43.31853
G0 F6000 X120.906 Y111.854
G0 X122.001 Y110.88
G0 X97.999 Y110.88
G0 X99.094 Y111.854
G0 X97.314 Y112.585
;TYPE:WALL-INNER
G1 F2400 E49.81853
G1 F1200 X97.923 Y112.435 E49.84774
G1 X98.479 Y112.144 E49.87696
G1 X98.95 Y111.727 E49.90625
G1 X99.306 Y111.21 E49.93548
G1 X99.529 Y110.623 E49.96472
G1 X99.604 Y110 E49.99394
G1 X99.529 Y109.377 E50.02316
G1 X99.306 Y108.79 E50.0524
G1 X98.95 Y108.273 E50.08163
G1 X98.479 Y107.856 E50.11092
G1 X97.923 Y107.565 E50.14014
G1 X97.314 Y107.415 E50.16935
G1 X96.686 Y107.415 E50.19859
G1 X96.077 Y107.565 E50.22779
G1 X95.521 Y107.856 E50.25701
G1 X95.05 Y108.273 E50.28631
G1 X94.694 Y108.79 E50.31554
G1 X94.471 Y109.377 E50.34477
G1 X94.396 Y110 E50.37399
G1 X94.471 Y110.623 E50.40321
G1 X94.694 Y111.21 E50.43245
G1 X95.05 Y111.727 E50.46168
G1 X95.521 Y112.144 E50.49097
G1 X96.077 Y112.435 E50.52019
G1 X96.686 Y112.585 E50.5494
G1 X97.314 Y112.585 E50.57864
G0 F6000 X97.265 Y112.185
;TYPE:WALL-OUTER
G1 F1200 X97.78 Y112.058 E50.60334
G1 X98.25 Y111.812 E50.62804
G1 X98.648 Y111.46 E50.65278
G1 X98.949 Y111.023 E50.67749
G1 X99.138 Y110.527 E50.70221
G1 X99.201 Y110 E50.72692
G1 X99.138 Y109.473 E50.75164
G1 X98.949 Y108.977 E50.77635
G1 X98.648 Y108.54 E50.80106
