;FLAVOR:Marlin
;TIME:796
;Filament used: 0.363881m
;Layer height: 0.2
;MINX:90.211
;MINY:90.238
;MINZ:0.2
;MAXX:129.79
;MAXY:129.762
;MAXZ:12
;Generated with Cura_SteamEngine 4.8.0
M140 S60
M105
M190 S60
M104 S205
M105
M109 S205
M82 ;absolute extrusion mode
; Ender 3 Custom Start G-code
G92 E0 ; Reset Extruder
G28 ; Home all axes
G1 Z2.0 F3000 ; Move Z Axis up little to prevent scratching of Heat Bed
G1 X0.1 Y20 Z0.3 F5000.0 ; Move to start position
G1 X0.1 Y200.0 Z0.3 F1500.0 E15 ; Draw the first line
G1 X0.4 Y200.0 Z0.3 F5000.0 ; Move to side a little
G1 X0.4 Y20 Z0.3 F1500.0 E30 ; Draw the second line
G92 E0 ; Reset Extruder
G1 Z2.0 F3000 ; Move Z Axis up little to prevent scratching of Heat Bed
G1 X5 Y20 Z0.3 F5000.0 ; Move over to prevent blob squish
G92 E0
G92 E0
G1 F2400 E-6.5
;LAYER_COUNT:60
;LAYER:0
M107
G0 F6000 X95.819 Y96.209 Z0.2
;TYPE:SKIRT
G1 F2400 E0
G1 F1200 X96.046 Y95.988 E0.01054
G1 X96.308 Y95.741 E0.02251
G1 X96.855 Y95.244 E0.04709
G1 X97.402 Y94.758 E0.07143
G1 X98.129 Y94.165 E0.10264
G1 X98.651 Y93.799 E0.12384
G1 X98.889 Y93.642 E0.13332
G1 X99.148 Y93.476 E0.14355
G1 X99.828 Y93.056 E0.17014
G1 X100.449 Y92.685 E0.1942
G1 X101.274 Y92.239 E0.22539
G1 X101.863 Y91.973 E0.24689
G1 X102.18 Y91.841 E0.25831
G1 X102.42 Y91.744 E0.26692
G1 X102.911 Y91.553 E0.28444
G1 X103.766 Y91.235 E0.31478
G1 X104.658 Y90.946 E0.34597
G1 X105.274 Y90.794 E0.36707
G1 X105.668 Y90.709 E0.38047
G1 X105.971 Y90.648 E0.39075
G1 X106.475 Y90.554 E0.40781
G1 X107.33 Y90.407 E0.43666
G1 X108.26 Y90.287 E0.46785
G1 X108.866 Y90.253 E0.48804
G1 X109.204 Y90.243 E0.49928
G1 X109.529 Y90.238 E0.5101
G1 X110.105 Y90.238 E0.52925
G1 X110.985 Y90.25 E0.55852
G1 X111.922 Y90.305 E0.58974
G1 X112.541 Y90.385 E0.6105
G1 X112.925 Y90.446 E0.62343
G1 X113.231 Y90.499 E0.63376
G1 X113.871 Y90.621 E0.65543
G1 X114.581 Y90.764 E0.67952
G1 X115.492 Y90.988 E0.71072
G1 X116.089 Y91.181 E0.73159
G1 X116.351 Y91.274 E0.74084
G1 X116.619 Y91.373 E0.75034
G1 X117.357 Y91.658 E0.77665
G1 X118.038 Y91.933 E0.80108
G1 X118.892 Y92.321 E0.83228
G1 X119.476 Y92.64 E0.85441
G1 X119.845 Y92.856 E0.86863
G1 X120.081 Y92.998 E0.87779
G1 X120.608 Y93.325 E0.89842
G1 X121.203 Y93.704 E0.92189
G1 X121.971 Y94.241 E0.95306
G1 X122.471 Y94.647 E0.97448
G1 X122.752 Y94.889 E0.98681
G1 X122.981 Y95.091 E0.99697
G1 X123.362 Y95.438 E1.01411
G1 X124.032 Y96.067 E1.04467
G1 X124.687 Y96.738 E1.07586
G1 X125.054 Y97.169 E1.09469
G1 X125.272 Y97.439 E1.10623
G1 X125.491 Y97.72 E1.11808
G1 X125.954 Y98.334 E1.14366
G1 X126.343 Y98.865 E1.16555
G1 X126.864 Y99.645 E1.19675
G1 X127.17 Y100.18 E1.21725
G1 X127.348 Y100.513 E1.22981
G1 X127.49 Y100.789 E1.24013
G1 X127.782 Y101.377 E1.26197
G1 X128.112 Y102.064 E1.28732
G1 X128.482 Y102.926 E1.31852
G1 X128.689 Y103.523 E1.33953
G1 X128.803 Y103.885 E1.35215
G1 X128.893 Y104.184 E1.36254
G1 X129.072 Y104.82 E1.38452
G1 X129.262 Y105.525 E1.4088
G1 X129.467 Y106.44 E1.43999
G1 X129.563 Y107.078 E1.46145
G1 X129.598 Y107.37 E1.47123
G1 X129.626 Y107.635 E1.48009
G1 X129.692 Y108.34 E1.50364
G1 X129.755 Y109.13 E1.53
G1 X129.79 Y110.067 E1.56119
G1 X129.768 Y110.705 E1.58242
G1 X129.747 Y111.034 E1.59338
G1 X129.722 Y111.35 E1.60393
G1 X129.655 Y112.058 E1.62758
G1 X129.576 Y112.793 E1.65217
G1 X129.436 Y113.72 E1.68335
G1 X129.306 Y114.301 E1.70315
G1 X129.229 Y114.607 E1.71365
G1 X129.149 Y114.909 E1.72404
G1 X128.997 Y115.448 E1.74266
G1 X128.731 Y116.338 E1.77356
G1 X128.424 Y117.225 E1.80478
G1 X128.176 Y117.803 E1.8257
G1 X128.031 Y118.116 E1.83717
G1 X127.901 Y118.386 E1.84714
G1 X127.595 Y119 E1.86996
G1 X127.247 Y119.674 E1.89518
G1 X126.782 Y120.488 E1.92636
G1 X126.45 Y120.984 E1.94622
G1 X126.251 Y121.265 E1.95767
G1 X126.056 Y121.532 E1.96866
G1 X125.604 Y122.129 E1.99357
G1 X125.193 Y122.658 E2.01585
G1 X124.665 Y123.288 E2.04319
G1 X124.13 Y123.842 E2.06881
G1 X123.927 Y124.038 E2.07819
G1 X123.725 Y124.228 E2.08742
G1 X123.155 Y124.749 E2.1131
G1 X122.592 Y125.248 E2.13812
G1 X121.864 Y125.84 E2.16933
G1 X121.352 Y126.199 E2.19013
G1 X121.12 Y126.352 E2.19937
G1 X120.872 Y126.511 E2.20917
G1 X120.187 Y126.935 E2.23596
G1 X119.585 Y127.296 E2.25931
G1 X118.821 Y127.714 E2.28828
G1 X118.159 Y128.018 E2.31251
G1 X117.854 Y128.146 E2.32351
G1 X117.579 Y128.257 E2.33337
G1 X116.92 Y128.511 E2.35686
G1 X116.226 Y128.768 E2.38148
G1 X115.333 Y129.056 E2.41268
G1 X114.761 Y129.198 E2.43229
G1 X114.437 Y129.269 E2.44332
G1 X114.115 Y129.335 E2.45425
G1 X113.546 Y129.442 E2.47351
G1 X112.669 Y129.593 E2.5031
G1 X111.738 Y129.713 E2.53433
G1 X111.134 Y129.747 E2.55445
G1 X110.797 Y129.757 E2.56566
G1 X110.471 Y129.762 E2.5765
G1 X109.725 Y129.761 E2.60132
G1 X109.015 Y129.75 E2.62493
G1 X108.078 Y129.695 E2.65615
G1 X107.459 Y129.615 E2.67691
G1 X107.075 Y129.554 E2.68984
G1 X106.769 Y129.501 E2.70017
G1 X106.129 Y129.379 E2.72184
G1 X105.419 Y129.236 E2.74593
G1 X104.508 Y129.012 E2.77713
G1 X103.911 Y128.819 E2.798
G1 X103.649 Y128.726 E2.80725
G1 X103.383 Y128.628 E2.81668
G1 X102.632 Y128.338 E2.84345
G1 X101.959 Y128.066 E2.8676
G1 X101.105 Y127.677 E2.89881
G1 X100.524 Y127.36 E2.92082
G1 X100.155 Y127.144 E2.93504
G1 X99.919 Y127.002 E2.9442
G1 X99.375 Y126.664 E2.96551
G1 X98.773 Y126.279 E2.98927
G1 X98.006 Y125.74 E3.02045
G1 X97.521 Y125.347 E3.04121
G1 X97.247 Y125.111 E3.05324
G1 X97.012 Y124.902 E3.0637
G1 X96.512 Y124.444 E3.08625
G1 X95.978 Y123.943 E3.11061
G1 X95.322 Y123.273 E3.1418
G1 X94.93 Y122.812 E3.16192
G1 X94.713 Y122.542 E3.17344
G1 X94.509 Y122.28 E3.18449
G1 X94.049 Y121.669 E3.20993
G1 X93.667 Y121.148 E3.23141
G1 X93.369 Y120.722 E3.2487
G1 X92.802 Y119.77 E3.28556
G1 X92.633 Y119.451 E3.29757
G1 X92.506 Y119.203 E3.30683
G1 X92.215 Y118.617 E3.32859
G1 X91.893 Y117.949 E3.35326
G1 X91.522 Y117.088 E3.38444
G1 X91.302 Y116.451 E3.40686
G1 X91.189 Y116.089 E3.41947
G1 X91.106 Y115.811 E3.42912
G1 X90.924 Y115.167 E3.45138
G1 X90.739 Y114.481 E3.47501
G1 X90.534 Y113.566 E3.5062
G1 X90.44 Y112.945 E3.52709
G1 X90.404 Y112.649 E3.537
G1 X90.374 Y112.373 E3.54624
G1 X90.32 Y111.811 E3.56501
G1 X90.244 Y110.855 E3.59691
G1 X90.211 Y109.917 E3.62813
G1 X90.231 Y109.343 E3.64723
G1 X90.251 Y109.009 E3.65836
G1 X90.279 Y108.645 E3.6705
G1 X90.352 Y107.869 E3.69643
G1 X90.426 Y107.187 E3.71924
G1 X90.567 Y106.26 E3.75043
G1 X90.705 Y105.647 E3.77133
G1 X90.781 Y105.35 E3.78153
G1 X90.849 Y105.098 E3.79021
G1 X91.059 Y104.357 E3.81582
G1 X91.27 Y103.654 E3.84024
G1 X91.578 Y102.768 E3.87143
G1 X91.838 Y102.164 E3.89331
G1 X91.971 Y101.879 E3.90377
G1 X92.09 Y101.633 E3.91285
G1 X92.447 Y100.917 E3.93947
G1 X92.754 Y100.323 E3.9617
G1 X93.22 Y99.509 E3.9929
G1 X93.579 Y98.975 E4.0143
G1 X93.815 Y98.645 E4.0278
G1 X93.982 Y98.418 E4.03717
G1 X94.388 Y97.881 E4.05956
G1 X94.798 Y97.352 E4.08182
G1 X95.403 Y96.636 E4.113
G1 X95.819 Y96.209 E4.13283
G0 F6000 X96.098 Y96.496
G1 F1200 X96.325 Y96.275 E4.14336
G1 X96.577 Y96.037 E4.15489
G1 X97.121 Y95.543 E4.17933
G1 X97.668 Y95.057 E4.20367
G1 X98.382 Y94.476 E4.23429
G1 X98.871 Y94.133 E4.25415
G1 X99.109 Y93.976 E4.26364
G1 X99.359 Y93.816 E4.27351
G1 X100.034 Y93.399 E4.2999
G1 X100.655 Y93.028 E4.32396
G1 X101.465 Y92.591 E4.35457
G1 X102.016 Y92.342 E4.37468
G1 X102.333 Y92.21 E4.3861
G1 X102.565 Y92.117 E4.39441
G1 X103.21 Y91.868 E4.41741
G1 X103.905 Y91.61 E4.44207
G1 X104.781 Y91.327 E4.47268
G1 X105.359 Y91.185 E4.49248
G1 X105.753 Y91.1 E4.50589
G1 X106.045 Y91.042 E4.51579
G1 X106.698 Y90.921 E4.53788
G1 X107.397 Y90.801 E4.56147
G1 X108.311 Y90.685 E4.59211
G1 X108.878 Y90.653 E4.611
G1 X109.216 Y90.643 E4.62224
G1 X109.529 Y90.638 E4.63266
G1 X110.105 Y90.638 E4.65181
G1 X110.979 Y90.65 E4.68089
G1 X111.898 Y90.704 E4.7115
G1 X112.478 Y90.78 E4.73096
G1 X112.862 Y90.841 E4.74389
G1 X113.157 Y90.892 E4.75385
G1 X113.792 Y91.013 E4.77535
G1 X114.502 Y91.156 E4.79944
G1 X115.396 Y91.376 E4.83006
G1 X115.955 Y91.558 E4.84961
G1 X116.217 Y91.651 E4.85886
G1 X116.475 Y91.746 E4.868
G1 X117.207 Y92.029 E4.89411
G1 X117.888 Y92.304 E4.91853
G1 X118.726 Y92.686 E4.94917
G1 X119.274 Y92.985 E4.96993
G1 X119.643 Y93.201 E4.98415
G1 X119.87 Y93.338 E4.99297
G1 X120.393 Y93.663 E5.01345
G1 X120.988 Y94.042 E5.03691
G1 X121.742 Y94.57 E5.06753
G1 X122.21 Y94.95 E5.08758
G1 X122.491 Y95.192 E5.09991
G1 X122.711 Y95.387 E5.10969
G1 X123.218 Y95.85 E5.13253
G1 X123.758 Y96.358 E5.15719
G1 X124.401 Y97.018 E5.18783
G1 X124.742 Y97.42 E5.20537
G1 X124.96 Y97.69 E5.21691
G1 X125.172 Y97.961 E5.22835
G1 X125.631 Y98.571 E5.25374
G1 X126.02 Y99.102 E5.27564
G1 X126.531 Y99.867 E5.30623
G1 X126.817 Y100.369 E5.32545
G1 X126.995 Y100.702 E5.33801
G1 X127.132 Y100.967 E5.34793
G1 X127.422 Y101.55 E5.36959
G1 X127.752 Y102.237 E5.39494
G1 X128.114 Y103.084 E5.42557
G1 X128.308 Y103.643 E5.44525
G1 X128.422 Y104.005 E5.45788
G1 X128.508 Y104.293 E5.46787
G1 X128.686 Y104.924 E5.48968
G1 X128.876 Y105.629 E5.51397
G1 X129.077 Y106.527 E5.54457
G1 X129.166 Y107.125 E5.56468
G1 X129.201 Y107.417 E5.57446
G1 X129.228 Y107.673 E5.58302
G1 X129.293 Y108.371 E5.60634
G1 X129.356 Y109.161 E5.6327
G1 X129.39 Y110.081 E5.66332
G1 X129.368 Y110.679 E5.68322
G1 X129.347 Y111.008 E5.69419
G1 X129.324 Y111.313 E5.70436
G1 X129.257 Y112.015 E5.72781
G1 X129.178 Y112.75 E5.7524
G1 X129.04 Y113.66 E5.78301
G1 X128.919 Y114.204 E5.80155
G1 X128.842 Y114.51 E5.81205
G1 X128.764 Y114.8 E5.82203
G1 X128.563 Y115.507 E5.84648
G1 X128.348 Y116.224 E5.87138
G1 X128.046 Y117.093 E5.90198
G1 X127.813 Y117.635 E5.9216
G1 X127.668 Y117.948 E5.93307
G1 X127.543 Y118.208 E5.94267
G1 X127.24 Y118.816 E5.96526
G1 X126.892 Y119.49 E5.99049
G1 X126.434 Y120.289 E6.02112
G1 X126.123 Y120.753 E6.0397
G1 X125.924 Y121.034 E6.05115
G1 X125.737 Y121.291 E6.06172
G1 X125.289 Y121.883 E6.08642
G1 X124.878 Y122.412 E6.1087
G1 X124.368 Y123.02 E6.13509
G1 X123.852 Y123.555 E6.15981
G1 X123.649 Y123.751 E6.1692
G1 X123.454 Y123.934 E6.17809
G1 X122.89 Y124.45 E6.20352
G1 X122.327 Y124.949 E6.22854
G1 X121.612 Y125.529 E6.25916
G1 X121.132 Y125.865 E6.27865
G1 X120.9 Y126.018 E6.28789
G1 X120.661 Y126.171 E6.29733
G1 X119.981 Y126.592 E6.32393
G1 X119.379 Y126.953 E6.34728
G1 X118.642 Y127.356 E6.37522
G1 X118.004 Y127.649 E6.39857
G1 X117.699 Y127.777 E6.40957
G1 X117.434 Y127.884 E6.41907
G1 X116.781 Y128.136 E6.44235
G1 X116.087 Y128.393 E6.46697
G1 X115.211 Y128.675 E6.49758
G1 X114.675 Y128.807 E6.51594
G1 X114.351 Y128.878 E6.52697
G1 X114.041 Y128.941 E6.53749
G1 X113.306 Y129.078 E6.56236
G1 X112.601 Y129.199 E6.58615
G1 X111.688 Y129.315 E6.61676
G1 X111.122 Y129.347 E6.63561
G1 X110.785 Y129.357 E6.64683
G1 X110.471 Y129.362 E6.65727
G1 X109.731 Y129.361 E6.68188
G1 X109.021 Y129.35 E6.7055
G1 X108.102 Y129.296 E6.73612
G1 X107.522 Y129.22 E6.75558
G1 X107.138 Y129.159 E6.76851
G1 X106.843 Y129.108 E6.77847
G1 X106.208 Y128.987 E6.79997
G1 X105.498 Y128.844 E6.82406
G1 X104.604 Y128.624 E6.85468
G1 X104.045 Y128.442 E6.87423
G1 X103.783 Y128.349 E6.88348
G1 X103.526 Y128.254 E6.89259
G1 X102.782 Y127.967 E6.91911
G1 X102.109 Y127.695 E6.94326
G1 X101.271 Y127.313 E6.97389
G1 X100.726 Y127.015 E6.99455
G1 X100.357 Y126.799 E7.00877
G1 X100.13 Y126.662 E7.01759
G1 X99.591 Y126.327 E7.03869
G1 X98.989 Y125.942 E7.06246
G1 X98.236 Y125.413 E7.09307
G1 X97.782 Y125.044 E7.11253
G1 X97.508 Y124.808 E7.12456
G1 X97.282 Y124.607 E7.13461
G1 X96.785 Y124.152 E7.15703
G1 X96.251 Y123.651 E7.18138
G1 X95.608 Y122.993 E7.21198
G1 X95.242 Y122.561 E7.23081
G1 X95.025 Y122.291 E7.24233
G1 X94.828 Y122.039 E7.25297
G1 X94.372 Y121.433 E7.2782
G1 X93.99 Y120.912 E7.29968
G1 X93.702 Y120.5 E7.3164
G1 X93.155 Y119.582 E7.35194
G1 X92.986 Y119.263 E7.36395
G1 X92.864 Y119.025 E7.37285
G1 X92.575 Y118.444 E7.39443
G1 X92.253 Y117.776 E7.41909
G1 X91.89 Y116.93 E7.44971
G1 X91.684 Y116.332 E7.47075
G1 X91.571 Y115.97 E7.48336
G1 X91.491 Y115.702 E7.49266
G1 X91.311 Y115.063 E7.51475
G1 X91.126 Y114.377 E7.53838
G1 X90.925 Y113.479 E7.56898
G1 X90.838 Y112.897 E7.58856
G1 X90.802 Y112.601 E7.59847
G1 X90.773 Y112.335 E7.60737
G1 X90.702 Y111.582 E7.63253
G1 X90.643 Y110.824 E7.65782
G1 X90.611 Y109.903 E7.68847
G1 X90.63 Y109.367 E7.70631
G1 X90.65 Y109.033 E7.71744
G1 X90.677 Y108.682 E7.72914
G1 X90.75 Y107.913 E7.75484
G1 X90.824 Y107.231 E7.77765
G1 X90.963 Y106.32 E7.8083
G1 X91.093 Y105.746 E7.82788
G1 X91.169 Y105.449 E7.83807
G1 X91.234 Y105.206 E7.84644
G1 X91.442 Y104.472 E7.87182
G1 X91.653 Y103.769 E7.89623
G1 X91.956 Y102.899 E7.92687
G1 X92.2 Y102.333 E7.94737
G1 X92.333 Y102.048 E7.95783
G1 X92.448 Y101.811 E7.96659
G1 X92.802 Y101.101 E7.99298
G1 X93.109 Y100.507 E8.01522
G1 X93.567 Y99.708 E8.04585
G1 X93.904 Y99.208 E8.0659
G1 X94.14 Y98.878 E8.0794
G1 X94.301 Y98.658 E8.08846
G1 X94.704 Y98.126 E8.11066
G1 X95.114 Y97.597 E8.13292
G1 X95.709 Y96.895 E8.16353
G1 X96.098 Y96.496 E8.18206
G0 F6000 X96.377 Y96.783
G1 F1200 X96.604 Y96.562 E8.1926
G1 X96.847 Y96.333 E8.20371
G1 X97.386 Y95.842 E8.22796
G1 X97.933 Y95.356 E8.25229
G1 X98.634 Y94.787 E8.28232
G1 X99.091 Y94.467 E8.30088
G1 X99.329 Y94.31 E8.31036
G1 X99.57 Y94.156 E8.31987
G1 X100.239 Y93.743 E8.34602
G1 X100.86 Y93.372 E8.37008
G1 X101.655 Y92.943 E8.40013
G1 X102.17 Y92.712 E8.4189
G1 X102.487 Y92.58 E8.43032
G1 X102.71 Y92.49 E8.43832
G1 X103.349 Y92.243 E8.46111
G1 X104.044 Y91.985 E8.48577
G1 X104.904 Y91.708 E8.51582
G1 X105.443 Y91.576 E8.53427
G1 X105.837 Y91.491 E8.54768
G1 X106.118 Y91.435 E8.55721
G1 X106.766 Y91.315 E8.57913
G1 X107.465 Y91.195 E8.60272
G1 X108.361 Y91.082 E8.63275
G1 X108.889 Y91.052 E8.65034
G1 X109.227 Y91.042 E8.66159
G1 X109.529 Y91.038 E8.67164
G1 X110.105 Y91.038 E8.69079
G1 X110.973 Y91.05 E8.71967
G1 X111.875 Y91.104 E8.74972
G1 X112.415 Y91.175 E8.76784
G1 X112.799 Y91.236 E8.78077
G1 X113.084 Y91.286 E8.79039
G1 X113.713 Y91.405 E8.81168
G1 X114.423 Y91.548 E8.83577
G1 X115.299 Y91.765 E8.86579
G1 X115.821 Y91.935 E8.88405
G1 X116.083 Y92.028 E8.89329
G1 X116.331 Y92.119 E8.90208
G1 X117.057 Y92.4 E8.92797
G1 X117.738 Y92.675 E8.9524
G1 X118.56 Y93.05 E8.98245
G1 X119.072 Y93.33 E9.00186
G1 X119.441 Y93.546 E9.01608
G1 X119.66 Y93.678 E9.02459
G1 X120.178 Y94 E9.04487
G1 X120.773 Y94.379 E9.06834
G1 X121.512 Y94.897 E9.09835
G1 X121.949 Y95.253 E9.1171
G1 X122.23 Y95.495 E9.12943
G1 X122.442 Y95.683 E9.13886
G1 X122.944 Y96.142 E9.16148
G1 X123.484 Y96.65 E9.18614
G1 X124.114 Y97.297 E9.21618
G1 X124.431 Y97.671 E9.23248
G1 X124.649 Y97.941 E9.24402
G1 X124.853 Y98.202 E9.25504
G1 X125.308 Y98.807 E9.28022
G1 X125.697 Y99.338 E9.30211
G1 X126.198 Y100.09 E9.33217
G1 X126.465 Y100.558 E9.35009
G1 X126.643 Y100.891 E9.36265
G1 X126.774 Y101.146 E9.37218
G1 X127.061 Y101.724 E9.39365
G1 X127.391 Y102.411 E9.419
G1 X127.746 Y103.241 E9.44902
G1 X127.926 Y103.763 E9.46739
G1 X128.04 Y104.125 E9.48001
G1 X128.123 Y104.403 E9.48966
G1 X128.3 Y105.028 E9.51126
G1 X128.49 Y105.733 E9.53555
G1 X128.686 Y106.614 E9.56557
G1 X128.769 Y107.173 E9.58436
G1 X128.804 Y107.465 E9.59414
G1 X128.83 Y107.711 E9.60237
G1 X128.895 Y108.403 E9.62549
G1 X128.958 Y109.193 E9.65185
G1 X128.99 Y110.096 E9.6819
G1 X128.969 Y110.654 E9.70047
G1 X128.948 Y110.983 E9.71144
G1 X128.925 Y111.276 E9.72121
G1 X128.86 Y111.972 E9.74446
G1 X128.781 Y112.707 E9.76905
G1 X128.644 Y113.6 E9.7991
G1 X128.531 Y114.106 E9.81634
G1 X128.454 Y114.412 E9.82684
G1 X128.379 Y114.691 E9.83645
G1 X128.18 Y115.392 E9.86068
G1 X127.965 Y116.109 E9.88558
G1 X127.668 Y116.961 E9.91559
G1 X127.45 Y117.467 E9.93392
G1 X127.305 Y117.78 E9.94539
G1 X127.185 Y118.03 E9.95461
G1 X126.884 Y118.633 E9.97703
G1 X126.536 Y119.307 E10.00226
G1 X126.087 Y120.09 E10.03228
G1 X125.797 Y120.522 E10.04958
G1 X125.598 Y120.803 E10.06104
G1 X125.417 Y121.05 E10.07122
G1 X124.973 Y121.638 E10.09573
G1 X124.562 Y122.167 E10.11801
G1 X124.071 Y122.752 E10.14341
G1 X123.574 Y123.267 E10.16721
G1 X123.371 Y123.463 E10.1766
G1 X123.184 Y123.639 E10.18514
G1 X122.625 Y124.15 E10.21033
G1 X122.062 Y124.649 E10.23535
G1 X121.36 Y125.218 E10.26541
G1 X120.912 Y125.531 E10.28358
G1 X120.68 Y125.684 E10.29283
G1 X120.45 Y125.831 E10.30191
