;FLAVOR:Marlin
;TIME:1861
;Filament used: 1.19238m
;Layer height: 0.2
;MINX:100.936
;MINY:100.89
;MINZ:0.2
;MAXX:134.079
;MAXY:134.113
;MAXZ:19.6
;Generated with Cura_SteamEngine 4.6.1
M140 S50
M105
M190 S50
M104 S205
M105
M109 S205
M82 ;absolute extrusion mode
; Ender 3 Custom Start G-code
G92 E0 ; Reset Extruder
G28 ; Home all axes
G1 Z2.0 F3000 ; Move Z Axis up little to prevent scratching of Heat Bed
G1 X0.1 Y20 Z0.3 F5000.0 ; Move to start position
G1 X0.1 Y200.0 Z0.3 F1500.0 E15 ; Draw the first line
G1 X0.4 Y200.0 Z0.3 F5000.0 ; Move to side a little
G1 X0.4 Y20 Z0.3 F1500.0 E30 ; Draw the second line
G92 E0 ; Reset Extruder
G1 Z2.0 F3000 ; Move Z Axis up little to prevent scratching of Heat Bed
G1 X5 Y20 Z0.3 F5000.0 ; Move over to prevent blob squish
G92 E0
G92 E0
G1 F2700 E-5
;LAYER_COUNT:99
;LAYER:0
M107
G0 F6000 X119.838 Y101.883 Z0.2
;TYPE:SKIRT
G1 F2700 E0
G1 F1200 X120.731 Y102.019 E0.03004
G1 X121.608 Y102.234 E0.06008
G1 X122.317 Y102.47 E0.08493
G1 X123.117 Y102.769 E0.11334
G1 X123.775 Y103.041 E0.13702
G1 X124.282 Y103.272 E0.15555
G1 X124.814 Y103.534 E0.17527
G1 X125.263 Y103.771 E0.19216
G1 X125.557 Y103.932 E0.20331
G1 X125.876 Y104.114 E0.21552
G1 X126.679 Y104.623 E0.24714
G1 X126.813 Y104.717 E0.25259
G1 X127.528 Y105.268 E0.28261
G1 X128.389 Y106.083 E0.32204
G1 X129.18 Y106.925 E0.36047
G1 X129.412 Y107.181 E0.37196
G1 X129.822 Y107.655 E0.3928
G1 X130.133 Y108.032 E0.40906
G1 X130.677 Y108.754 E0.43913
G1 X131.154 Y109.52 E0.46914
G1 X131.467 Y110.123 E0.49174
G1 X131.707 Y110.625 E0.51024
G1 X131.958 Y111.193 E0.5309
G1 X132.123 Y111.6 E0.5455
G1 X132.307 Y112.09 E0.56291
G1 X132.483 Y112.612 E0.58123
G1 X132.795 Y113.622 E0.61639
G1 X132.863 Y113.862 E0.62469
G1 X133.07 Y114.741 E0.65472
G1 X133.166 Y115.341 E0.67493
G1 X133.192 Y115.543 E0.68171
G1 X133.273 Y116.66 E0.71896
G1 X133.279 Y117.112 E0.73399
G1 X133.274 Y118.216 E0.77071
G1 X133.23 Y119.118 E0.80075
G1 X133.106 Y120.013 E0.8308
G1 X132.971 Y120.638 E0.85207
G1 X132.787 Y121.376 E0.87736
G1 X132.578 Y122.1 E0.90243
G1 X132.38 Y122.701 E0.92347
G1 X132.14 Y123.353 E0.94658
G1 X131.818 Y124.132 E0.97462
G1 X131.677 Y124.451 E0.98622
G1 X131.276 Y125.26 E1.01625
G1 X130.859 Y125.949 E1.04304
G1 X130.678 Y126.223 E1.05396
G1 X129.859 Y127.3 E1.09896
G1 X129.086 Y128.182 E1.13797
G1 X128.833 Y128.458 E1.15042
G1 X128.589 Y128.715 E1.16221
G1 X128.249 Y129.061 E1.17834
G1 X127.588 Y129.677 E1.20839
G1 X127.166 Y130.017 E1.22642
G1 X127.005 Y130.14 E1.23316
G1 X126.012 Y130.811 E1.27302
G1 X125.828 Y130.92 E1.28013
G1 X125.379 Y131.171 E1.29724
G1 X124.826 Y131.462 E1.31802
G1 X124.183 Y131.772 E1.34177
G1 X123.285 Y132.167 E1.3744
G1 X122.716 Y132.401 E1.39486
G1 X121.863 Y132.699 E1.42491
G1 X120.83 Y132.953 E1.46029
G1 X120.494 Y133.017 E1.47167
G1 X119.555 Y133.151 E1.50322
G1 X118.442 Y133.261 E1.54041
G1 X117.609 Y133.31 E1.56817
G1 X117.445 Y133.313 E1.57362
G1 X116.542 Y133.29 E1.60367
G1 X115.472 Y133.157 E1.63953
G1 X114.893 Y133.054 E1.65909
G1 X114.481 Y132.972 E1.67306
G1 X113.833 Y132.829 E1.69513
G1 X113.182 Y132.663 E1.71748
G1 X112.395 Y132.43 E1.74478
G1 X112.046 Y132.318 E1.75697
G1 X111.199 Y132.004 E1.78701
G1 X110.384 Y131.617 E1.81702
G1 X109.898 Y131.342 E1.83559
G1 X109.44 Y131.066 E1.85338
G1 X108.844 Y130.678 E1.87703
G1 X108.141 Y130.18 E1.90569
G1 X107.828 Y129.948 E1.91864
G1 X107.552 Y129.736 E1.93022
G1 X107.107 Y129.382 E1.94913
G1 X106.426 Y128.789 E1.97917
G1 X105.737 Y128.066 E2.01238
G1 X105.56 Y127.861 E2.02139
G1 X104.924 Y127.044 E2.05583
G1 X104.649 Y126.648 E2.07186
G1 X104.376 Y126.239 E2.08822
G1 X104.071 Y125.755 E2.10725
G1 X103.857 Y125.392 E2.12126
G1 X103.394 Y124.56 E2.15293
G1 X103.227 Y124.244 E2.16482
G1 X102.841 Y123.428 E2.19484
G1 X102.627 Y122.875 E2.21456
G1 X102.556 Y122.674 E2.22165
G1 X102.225 Y121.525 E2.26142
G1 X102.171 Y121.286 E2.26957
G1 X102.081 Y120.844 E2.28458
G1 X101.979 Y120.277 E2.30374
G1 X101.893 Y119.707 E2.32291
G1 X101.819 Y119.067 E2.34434
G1 X101.784 Y118.689 E2.35697
G1 X101.753 Y118.244 E2.3718
G1 X101.741 Y117.997 E2.38003
G1 X101.737 Y117.094 E2.41006
G1 X101.766 Y116.637 E2.42529
G1 X101.837 Y115.803 E2.45313
G1 X101.919 Y115.111 E2.47631
G1 X101.98 Y114.716 E2.4896
G1 X102.074 Y114.199 E2.50708
G1 X102.187 Y113.655 E2.52556
G1 X102.44 Y112.681 E2.55903
G1 X102.497 Y112.499 E2.56537
G1 X102.805 Y111.649 E2.59544
G1 X103.241 Y110.729 E2.6293
G1 X103.561 Y110.134 E2.65177
G1 X103.922 Y109.494 E2.67621
G1 X104.084 Y109.223 E2.68671
G1 X104.33 Y108.833 E2.70205
G1 X104.562 Y108.482 E2.71604
G1 X104.754 Y108.201 E2.72736
G1 X105.033 Y107.808 E2.74339
G1 X105.588 Y107.096 E2.77342
G1 X106.203 Y106.435 E2.80345
G1 X106.942 Y105.778 E2.83634
G1 X107.798 Y105.091 E2.87284
G1 X108.266 Y104.734 E2.89242
G1 X108.747 Y104.386 E2.91217
G1 X108.977 Y104.228 E2.92145
G1 X109.362 Y103.972 E2.93683
G1 X110.136 Y103.506 E2.96688
G1 X111.272 Y102.976 E3.00857
G1 X111.663 Y102.822 E3.02255
G1 X112.544 Y102.52 E3.05352
G1 X113.113 Y102.354 E3.07324
G1 X113.642 Y102.215 E3.09143
G1 X113.898 Y102.155 E3.10017
G1 X114.221 Y102.085 E3.11116
G1 X115.044 Y101.92 E3.13908
G1 X116.265 Y101.751 E3.18008
G1 X116.667 Y101.72 E3.19349
G1 X117.569 Y101.691 E3.22351
G1 X118.377 Y101.732 E3.25042
G1 X119.838 Y101.883 E3.29927
G0 F6000 X119.881 Y101.485
G1 F1200 X120.791 Y101.623 E3.32988
G1 X121.686 Y101.84 E3.36051
G1 X122.457 Y102.095 E3.38752
G1 X123.257 Y102.394 E3.41593
G1 X123.941 Y102.677 E3.44055
G1 X124.448 Y102.908 E3.45908
G1 X125.001 Y103.18 E3.47957
G1 X125.45 Y103.417 E3.49646
G1 X125.755 Y103.584 E3.50803
G1 X126.074 Y103.766 E3.52024
G1 X126.908 Y104.295 E3.55309
G1 X127.042 Y104.389 E3.55853
G1 X127.772 Y104.95 E3.58916
G1 X128.681 Y105.809 E3.63075
G1 X129.472 Y106.651 E3.66918
G1 X129.921 Y107.154 E3.6916
G1 X130.131 Y107.401 E3.70239
G1 X130.442 Y107.778 E3.71864
G1 X130.996 Y108.513 E3.74925
G1 X131.485 Y109.293 E3.77987
G1 X131.828 Y109.951 E3.80455
G1 X132.068 Y110.453 E3.82306
G1 X132.328 Y111.043 E3.8445
G1 X132.493 Y111.45 E3.85911
G1 X132.685 Y111.958 E3.87717
G1 X132.762 Y112.18 E3.88499
G1 X132.865 Y112.493 E3.89595
G1 X133.18 Y113.513 E3.93146
G1 X133.248 Y113.753 E3.93975
G1 X133.46 Y114.649 E3.97038
G1 X133.562 Y115.29 E3.99196
G1 X133.588 Y115.492 E3.99874
G1 X133.673 Y116.653 E4.03746
G1 X133.679 Y117.114 E4.05279
G1 X133.674 Y118.218 E4.08951
G1 X133.63 Y119.138 E4.12014
G1 X133.506 Y120.05 E4.15076
G1 X133.359 Y120.734 E4.17403
G1 X133.175 Y121.472 E4.19932
G1 X132.958 Y122.225 E4.22539
G1 X132.76 Y122.826 E4.24643
G1 X132.511 Y123.503 E4.27043
G1 X132.308 Y124.002 E4.28834
G1 X132.043 Y124.612 E4.31046
G1 X131.635 Y125.437 E4.34108
G1 X131.192 Y126.17 E4.36956
G1 X131.011 Y126.444 E4.38048
G1 X130.471 Y127.189 E4.41109
G1 X130.161 Y127.562 E4.42722
G1 X129.381 Y128.453 E4.4666
G1 X129.128 Y128.729 E4.47906
G1 X128.875 Y128.995 E4.49127
G1 X128.535 Y129.341 E4.5074
G1 X127.861 Y129.97 E4.53806
G1 X127.409 Y130.335 E4.55739
G1 X127.248 Y130.458 E4.56413
G1 X126.216 Y131.155 E4.60555
G1 X126.032 Y131.264 E4.61266
G1 X125.565 Y131.525 E4.63045
G1 X125.012 Y131.816 E4.65124
G1 X124.344 Y132.138 E4.6759
G1 X123.446 Y132.533 E4.70853
G1 X122.864 Y132.772 E4.72946
G1 X121.996 Y133.077 E4.76006
G1 X120.904 Y133.346 E4.79746
G1 X120.568 Y133.41 E4.80884
G1 X119.593 Y133.549 E4.8416
G1 X118.482 Y133.659 E4.87873
G1 X117.616 Y133.71 E4.90758
G1 X117.452 Y133.713 E4.91304
G1 X116.532 Y133.69 E4.94365
G1 X115.401 Y133.551 E4.98155
G1 X114.822 Y133.448 E5.00111
G1 X114.395 Y133.363 E5.01559
G1 X113.747 Y133.22 E5.03766
G1 X113.07 Y133.047 E5.0609
G1 X112.273 Y132.811 E5.08854
G1 X111.924 Y132.699 E5.10074
G1 X111.06 Y132.38 E5.13137
G1 X110.228 Y131.987 E5.16197
G1 X109.692 Y131.685 E5.18244
G1 X109.234 Y131.409 E5.20022
G1 X108.614 Y131.006 E5.22482
G1 X107.903 Y130.502 E5.2538
G1 X107.59 Y130.27 E5.26676
G1 X107.303 Y130.049 E5.27881
G1 X106.858 Y129.695 E5.29772
G1 X106.163 Y129.091 E5.32835
G1 X105.434 Y128.327 E5.36347
G1 X105.257 Y128.122 E5.37248
G1 X104.596 Y127.274 E5.40824
G1 X104.317 Y126.87 E5.42457
G1 X104.044 Y126.461 E5.44092
G1 X103.73 Y125.965 E5.46045
G1 X103.508 Y125.588 E5.475
G1 X103.04 Y124.747 E5.50701
G1 X102.873 Y124.431 E5.5189
G1 X102.479 Y123.599 E5.54952
G1 X102.25 Y123.008 E5.5706
G1 X102.179 Y122.807 E5.57769
G1 X101.835 Y121.613 E5.61902
G1 X101.781 Y121.374 E5.62717
G1 X101.687 Y120.915 E5.64275
G1 X101.585 Y120.348 E5.66191
G1 X101.496 Y119.756 E5.68182
G1 X101.421 Y119.104 E5.70365
G1 X101.386 Y118.726 E5.71628
G1 X101.353 Y118.263 E5.73171
G1 X101.341 Y118.016 E5.73994
G1 X101.337 Y117.096 E5.77054
G1 X101.367 Y116.603 E5.78697
G1 X101.438 Y115.769 E5.81481
G1 X101.524 Y115.05 E5.83889
G1 X101.585 Y114.655 E5.85218
G1 X101.683 Y114.117 E5.87037
G1 X101.796 Y113.573 E5.88885
G1 X102.058 Y112.561 E5.92362
G1 X102.115 Y112.379 E5.92996
G1 X102.429 Y111.513 E5.9606
G1 X102.888 Y110.54 E5.99638
G1 X103.211 Y109.94 E6.01905
G1 X103.411 Y109.58 E6.03275
G1 X103.741 Y109.018 E6.05442
G1 X103.996 Y108.612 E6.07037
G1 X104.228 Y108.261 E6.08436
G1 X104.428 Y107.97 E6.09611
G1 X104.707 Y107.577 E6.11214
G1 X105.272 Y106.85 E6.14276
G1 X105.898 Y106.175 E6.17338
G1 X106.69 Y105.466 E6.20873
G1 X107.555 Y104.773 E6.2456
G1 X108.023 Y104.416 E6.26518
G1 X108.516 Y104.059 E6.28542
G1 X108.756 Y103.895 E6.29509
G1 X109.141 Y103.639 E6.31047
G1 X109.929 Y103.163 E6.34109
G1 X111.126 Y102.603 E6.38504
G1 X111.517 Y102.449 E6.39902
G1 X112.432 Y102.136 E6.43118
G1 X113.001 Y101.97 E6.4509
G1 X113.551 Y101.826 E6.46981
G1 X113.807 Y101.766 E6.47855
G1 X114.142 Y101.693 E6.48995
G1 X114.965 Y101.528 E6.51787
G1 X116.234 Y101.352 E6.56048
G1 X116.636 Y101.321 E6.57389
G1 X117.556 Y101.291 E6.60451
G1 X118.414 Y101.334 E6.63308
G1 X119.881 Y101.485 E6.68213
G0 F6000 X119.923 Y101.087
G1 F1200 X120.851 Y101.227 E6.71335
G1 X121.763 Y101.446 E6.74454
G1 X122.597 Y101.72 E6.77374
G1 X123.397 Y102.019 E6.80215
G1 X124.107 Y102.313 E6.82771
G1 X124.614 Y102.544 E6.84624
G1 X125.188 Y102.826 E6.86751
G1 X125.637 Y103.063 E6.88439
G1 X125.953 Y103.237 E6.89639
G1 X126.272 Y103.419 E6.90861
G1 X127.138 Y103.968 E6.94271
G1 X127.272 Y104.062 E6.94816
G1 X128.016 Y104.633 E6.97935
G1 X128.972 Y105.535 E7.02306
G1 X129.763 Y106.377 E7.06149
G1 X130.014 Y106.653 E7.0739
G1 X130.222 Y106.89 E7.08438
G1 X130.439 Y107.146 E7.09555
G1 X130.75 Y107.523 E7.1118
G1 X131.316 Y108.271 E7.143
G1 X131.815 Y109.065 E7.17419
G1 X132.189 Y109.778 E7.20097
G1 X132.429 Y110.28 E7.21948
G1 X132.699 Y110.892 E7.24172
G1 X132.864 Y111.299 E7.25633
G1 X133.063 Y111.827 E7.2751
G1 X133.14 Y112.049 E7.28291
G1 X133.247 Y112.374 E7.29429
G1 X133.564 Y113.404 E7.33014
G1 X133.632 Y113.644 E7.33843
G1 X133.849 Y114.557 E7.36965
G1 X133.959 Y115.239 E7.39262
G1 X133.985 Y115.441 E7.3994
G1 X134.073 Y116.646 E7.43958
G1 X134.079 Y117.116 E7.45522
G1 X134.074 Y118.22 E7.49194
G1 X134.03 Y119.157 E7.52314
G1 X133.906 Y120.086 E7.55431
G1 X133.747 Y120.831 E7.57964
G1 X133.563 Y121.569 E7.60494
G1 X133.338 Y122.35 E7.63197
G1 X133.14 Y122.951 E7.65302
G1 X132.881 Y123.654 E7.67794
G1 X132.55 Y124.455 E7.70677
G1 X132.409 Y124.774 E7.71837
G1 X131.994 Y125.615 E7.74956
G1 X131.526 Y126.39 E7.77967
G1 X131.345 Y126.664 E7.79059
G1 X130.795 Y127.424 E7.82179
G1 X130.462 Y127.825 E7.83913
G1 X129.676 Y128.723 E7.87882
G1 X129.423 Y128.999 E7.89128
G1 X129.16 Y129.276 E7.90398
G1 X128.82 Y129.622 E7.92011
G1 X128.135 Y130.262 E7.95129
G1 X127.652 Y130.653 E7.97196
G1 X127.491 Y130.776 E7.9787
G1 X126.419 Y131.499 E8.02171
G1 X126.235 Y131.608 E8.02882
G1 X125.751 Y131.878 E8.04725
G1 X125.198 Y132.169 E8.06804
G1 X124.505 Y132.504 E8.09364
G1 X123.607 Y132.899 E8.12627
G1 X123.013 Y133.144 E8.14764
G1 X122.129 Y133.455 E8.17881
G1 X120.979 Y133.739 E8.21821
G1 X120.643 Y133.803 E8.22958
G1 X119.631 Y133.947 E8.26358
G1 X118.522 Y134.057 E8.30065
G1 X117.623 Y134.11 E8.3306
G1 X117.459 Y134.113 E8.33606
G1 X116.522 Y134.09 E8.36723
G1 X115.331 Y133.945 E8.40714
G1 X114.752 Y133.842 E8.4267
G1 X114.309 Y133.754 E8.44172
G1 X113.661 Y133.611 E8.46379
G1 X112.958 Y133.431 E8.48793
G1 X112.151 Y133.192 E8.51592
G1 X111.802 Y133.08 E8.52811
G1 X110.922 Y132.755 E8.55931
G1 X110.073 Y132.357 E8.5905
G1 X109.485 Y132.028 E8.61291
G1 X109.027 Y131.752 E8.63069
G1 X108.385 Y131.333 E8.65619
G1 X107.665 Y130.823 E8.68554
G1 X107.352 Y130.591 E8.6985
G1 X107.054 Y130.362 E8.711
G1 X106.609 Y130.008 E8.72991
G1 X105.901 Y129.394 E8.76108
G1 X105.131 Y128.589 E8.79813
G1 X104.954 Y128.384 E8.80714
G1 X104.268 Y127.503 E8.84428
G1 X103.984 Y127.092 E8.86089
G1 X103.711 Y126.683 E8.87725
G1 X103.389 Y126.175 E8.89725
G1 X103.159 Y125.783 E8.91237
G1 X102.687 Y124.934 E8.94468
G1 X102.52 Y124.618 E8.95656
G1 X102.117 Y123.771 E8.98776
G1 X101.873 Y123.142 E9.0102
G1 X101.802 Y122.941 E9.01729
G1 X101.444 Y121.701 E9.06022
G1 X101.39 Y121.462 E9.06837
G1 X101.294 Y120.986 E9.08452
G1 X101.192 Y120.419 E9.10368
G1 X101.099 Y119.804 E9.12437
G1 X101.023 Y119.141 E9.14656
G1 X100.988 Y118.763 E9.15919
G1 X100.954 Y118.283 E9.17519
G1 X100.942 Y118.036 E9.18342
G1 X100.936 Y117.098 E9.21462
G1 X100.969 Y116.569 E9.23225
G1 X101.04 Y115.735 E9.26009
G1 X101.129 Y114.989 E9.28507
G1 X101.19 Y114.594 E9.29837
G1 X101.291 Y114.036 E9.31723
G1 X101.404 Y113.492 E9.33571
G1 X101.677 Y112.441 E9.37182
G1 X101.734 Y112.259 E9.37817
G1 X102.052 Y111.377 E9.40935
G1 X102.536 Y110.351 E9.44708
G1 X102.861 Y109.746 E9.46992
G1 X103.061 Y109.386 E9.48362
G1 X103.235 Y109.084 E9.49521
G1 X103.397 Y108.813 E9.50572
G1 X103.662 Y108.392 E9.52226
G1 X103.894 Y108.041 E9.53625
G1 X104.101 Y107.738 E9.54846
G1 X104.38 Y107.345 E9.56449
G1 X104.955 Y106.604 E9.59569
G1 X105.592 Y105.915 E9.62689
G1 X106.439 Y105.155 E9.66474
G1 X107.312 Y104.455 E9.70196
G1 X107.78 Y104.098 E9.72154
G1 X108.286 Y103.732 E9.74231
G1 X108.534 Y103.562 E9.75231
G1 X108.919 Y103.306 E9.76769
G1 X109.722 Y102.821 E9.79889
G1 X110.979 Y102.231 E9.84507
G1 X111.37 Y102.077 E9.85905
G1 X112.32 Y101.752 E9.89245
G1 X112.889 Y101.586 E9.91216
G1 X113.46 Y101.436 E9.9318
G1 X113.716 Y101.376 E9.94054
G1 X114.064 Y101.301 E9.95238
G1 X114.887 Y101.136 E9.9803
G1 X116.203 Y100.954 E10.02449
G1 X116.605 Y100.923 E10.0379
G1 X117.543 Y100.89 E10.06911
G1 X118.45 Y100.935 E10.09932
G1 X119.923 Y101.087 E10.14857
G1 F2700 E5.14857
;MESH:Rubber Ball.stl
G0 F6000 X116.163 Y121.62
G0 X115.989 Y122.277
G0 X116.824 Y122.652
G0 X116.956 Y122.673
;TYPE:WALL-OUTER
G1 F2700 E10.14857
G1 F1200 X118.044 Y122.673 E10.18476
G1 X119.107 Y122.446 E10.22091
G1 X120.1 Y122.004 E10.25706
G1 X120.981 Y121.365 E10.29326
G1 X121.674 Y120.595 E10.32771
G1 X121.732 Y120.517 E10.33095
G1 X122.252 Y119.616 E10.36555
G1 X122.588 Y118.582 E10.40171
G1 X122.701 Y117.5 E10.43789
G1 X122.593 Y116.457 E10.47277
G1 X122.264 Y115.422 E10.50889
G1 X121.729 Y114.477 E10.54501
G1 X121.008 Y113.665 E10.58113
G1 X120.133 Y113.02 E10.61728
G1 X119.144 Y112.57 E10.65342
G1 X118.083 Y112.336 E10.68956
G1 X116.996 Y112.327 E10.72571
G1 X115.931 Y112.544 E10.76186
G1 X114.936 Y112.979 E10.79798
G1 X114.052 Y113.611 E10.83412
G1 X113.319 Y114.413 E10.87026
G1 X112.769 Y115.35 E10.9064
G1 X112.425 Y116.381 E10.94255
G1 X112.304 Y117.46 E10.97866
G1 X112.406 Y118.533 E11.01451
G1 X112.427 Y118.627 E11.01771
G1 X112.748 Y119.616 E11.0523
G1 X113.292 Y120.557 E11.08845
G1 X114.019 Y121.365 E11.1246
G1 X114.9 Y122.004 E11.1608
G1 X115.893 Y122.446 E11.19695
G1 X116.956 Y122.673 E11.2331
G0 F6000 X117.276 Y122.926
G1 F1200 X116.966 Y122.857 E11.24366
G1 X116.623 Y122.799 E11.25523
G1 X116.025 Y122.672 E11.27557
G1 X115.219 Y122.425 E11.3036
G1 X115.133 Y122.387 E11.30673
G1 X114.873 Y122.198 E11.31742
G1 X114.572 Y122.005 E11.32932
G1 X114.088 Y121.656 E11.34916
G1 X113.82 Y121.428 E11.36086
G1 X113.563 Y121.24 E11.37146
G1 X113.495 Y121.165 E11.37482
G1 X113.014 Y120.463 E11.40313
G1 X112.712 Y119.942 E11.42316
G1 X112.558 Y119.633 E11.43464
G1 X112.397 Y119.356 E11.4453
G1 X112.365 Y119.259 E11.44869
G1 X112.205 Y118.44 E11.47645
G1 X112.139 Y117.83 E11.49685
G1 X112.119 Y117.5 E11.50785
