;FLAVOR:Marlin
;TIME:2895
;Filament used: 2.4719m
;Layer height: 0.28
;MINX:100.695
;MINY:100.657
;MINZ:0.28
;MAXX:168.311
;MAXY:134.345
;MAXZ:19.32
;Generated with Cura_SteamEngine 4.6.1
M140 S50
M105
M190 S50
M104 S210
M105
M109 S210
M82 ;absolute extrusion mode
; Ender 3 Custom Start G-code
G92 E0 ; Reset Extruder
G28 ; Home all axes
G1 Z2.0 F3000 ; Move Z Axis up little to prevent scratching of Heat Bed
G1 X0.1 Y20 Z0.3 F5000.0 ; Move to start position
G1 X0.1 Y200.0 Z0.3 F1500.0 E15 ; Draw the first line
G1 X0.4 Y200.0 Z0.3 F5000.0 ; Move to side a little
G1 X0.4 Y20 Z0.3 F1500.0 E30 ; Draw the second line
G92 E0 ; Reset Extruder
G1 Z2.0 F3000 ; Move Z Axis up little to prevent scratching of Heat Bed
G1 X5 Y20 Z0.3 F5000.0 ; Move over to prevent blob squish
G92 E0
G92 E0
G1 F2700 E-5
;LAYER_COUNT:70
;LAYER:0
M107
G0 F6000 X118.452 Y101.508 Z0.28
;TYPE:SKIRT
G1 F2700 E0
G1 F1200 X119.034 Y101.565 E0.02723
G1 X119.118 Y101.573 E0.03116
G1 X120.172 Y101.69 E0.08054
G1 X120.915 Y101.793 E0.11547
G1 X122.409 Y102.018 E0.18582
G1 X124.897 Y102.323 E0.30254
G1 X127.482 Y102.565 E0.42343
G1 X129.974 Y102.728 E0.53972
G1 X132.505 Y102.821 E0.65765
G1 X135.079 Y102.843 E0.77751
G1 X137.607 Y102.794 E0.89525
G1 X140.149 Y102.671 E1.01375
G1 X142.654 Y102.48 E1.13074
G1 X145.209 Y102.212 E1.25036
G1 X147.687 Y101.881 E1.36677
G1 X148.294 Y101.782 E1.39541
G1 X149.686 Y101.572 E1.46096
G1 X150.585 Y101.477 E1.50305
G1 X151.249 Y101.458 E1.53398
G1 X151.499 Y101.459 E1.54563
G1 X152.452 Y101.508 E1.59006
G1 X153.115 Y101.573 E1.62108
G1 X153.832 Y101.649 E1.65465
G1 X155.021 Y101.847 E1.71078
G1 X155.245 Y101.898 E1.72148
G1 X156.116 Y102.137 E1.76353
G1 X156.857 Y102.408 E1.80027
G1 X157.709 Y102.758 E1.84316
G1 X158.065 Y102.912 E1.86123
G1 X158.326 Y103.031 E1.87458
G1 X158.876 Y103.302 E1.90313
G1 X159.605 Y103.694 E1.94167
G1 X159.978 Y103.906 E1.96165
G1 X160.955 Y104.538 E2.01583
G1 X161.122 Y104.66 E2.02546
G1 X161.827 Y105.224 E2.0675
G1 X162.346 Y105.712 E2.10068
G1 X162.91 Y106.286 E2.13815
G1 X163.286 Y106.686 E2.16371
G1 X163.675 Y107.125 E2.19102
G1 X164.225 Y107.782 E2.23092
G1 X164.774 Y108.499 E2.27297
G1 X165.112 Y109.017 E2.30177
G1 X165.234 Y109.217 E2.31268
G1 X165.843 Y110.377 E2.37368
G1 X166.138 Y111.039 E2.40743
G1 X166.367 Y111.588 E2.43513
G1 X166.617 Y112.274 E2.46913
G1 X166.883 Y113.106 E2.5098
G1 X167.066 Y113.73 E2.54008
G1 X167.281 Y114.607 E2.58213
G1 X167.427 Y115.578 E2.62785
G1 X167.456 Y115.866 E2.64133
G1 X167.507 Y116.817 E2.68567
G1 X167.511 Y117.552 E2.7199
G1 X167.506 Y118.14 E2.74728
G1 X167.459 Y119.032 E2.78887
G1 X167.424 Y119.395 E2.80585
G1 X167.298 Y120.289 E2.84789
G1 X167.057 Y121.292 E2.89593
G1 X166.804 Y122.153 E2.93771
G1 X166.68 Y122.547 E2.95695
G1 X166.591 Y122.81 E2.96988
G1 X166.387 Y123.359 E2.99715
G1 X166.173 Y123.889 E3.02376
G1 X166.045 Y124.192 E3.03908
G1 X165.874 Y124.579 E3.05878
G1 X165.473 Y125.389 E3.10087
G1 X165.001 Y126.159 E3.14292
G1 X164.618 Y126.69 E3.17341
G1 X164.107 Y127.352 E3.21235
G1 X163.729 Y127.813 E3.24011
G1 X163.186 Y128.425 E3.2782
G1 X162.96 Y128.664 E3.29352
G1 X162.45 Y129.187 E3.32754
G1 X161.791 Y129.805 E3.3696
G1 X161.081 Y130.363 E3.41165
G1 X160.483 Y130.759 E3.44505
G1 X159.714 Y131.231 E3.48706
G1 X159.152 Y131.552 E3.5172
G1 X158.916 Y131.677 E3.52964
G1 X158.31 Y131.972 E3.56102
G1 X157.456 Y132.349 E3.60449
G1 X156.823 Y132.607 E3.63632
G1 X155.972 Y132.91 E3.67838
G1 X154.855 Y133.186 E3.73196
G1 X154.546 Y133.244 E3.7466
G1 X153.708 Y133.365 E3.78602
G1 X152.581 Y133.481 E3.83878
G1 X151.93 Y133.53 E3.86918
G1 X151.027 Y133.544 E3.91123
G1 X149.883 Y133.446 E3.96469
G1 X149.313 Y133.365 E3.9915
G1 X146.669 Y132.968 E4.116
G1 X144.105 Y132.657 E4.23626
G1 X141.63 Y132.427 E4.35201
G1 X139.051 Y132.261 E4.47234
G1 X136.565 Y132.172 E4.58818
G1 X133.988 Y132.152 E4.70818
G1 X131.463 Y132.204 E4.82578
G1 X128.922 Y132.329 E4.94424
G1 X126.388 Y132.525 E5.06258
G1 X123.876 Y132.79 E5.1802
G1 X119.94 Y133.338 E5.36525
G1 X119.11 Y133.429 E5.40413
G1 X118.549 Y133.485 E5.43038
G1 X117.933 Y133.53 E5.45914
G1 X117.03 Y133.544 E5.50119
G1 X116.129 Y133.478 E5.54326
G1 X115.591 Y133.4 E5.56857
G1 X114.996 Y133.296 E5.5967
G1 X114.113 Y133.127 E5.63856
G1 X113.215 Y132.913 E5.68155
G1 X112.326 Y132.653 E5.72468
G1 X111.967 Y132.538 E5.74223
G1 X111.12 Y132.224 E5.78429
G1 X110.555 Y131.966 E5.81321
G1 X110.359 Y131.869 E5.8234
G1 X109.202 Y131.198 E5.88568
G1 X108.421 Y130.672 E5.92952
G1 X107.805 Y130.226 E5.96493
G1 X107.595 Y130.065 E5.97726
G1 X107.104 Y129.678 E6.00637
G1 X106.668 Y129.317 E6.03272
G1 X106.005 Y128.703 E6.0748
G1 X105.4 Y128.033 E6.11684
G1 X105.015 Y127.537 E6.14607
G1 X104.536 Y126.879 E6.18397
G1 X104.285 Y126.519 E6.20441
G1 X104.105 Y126.248 E6.21956
G1 X103.761 Y125.692 E6.25
G1 X103.536 Y125.301 E6.27101
G1 X103.375 Y125.01 E6.28649
G1 X103.025 Y124.353 E6.32115
G1 X102.636 Y123.538 E6.36321
G1 X102.408 Y122.949 E6.39262
G1 X102.335 Y122.742 E6.40284
G1 X101.993 Y121.545 E6.4608
G1 X101.928 Y121.25 E6.47487
G1 X101.86 Y120.916 E6.49074
G1 X101.757 Y120.361 E6.51703
G1 X101.628 Y119.426 E6.56098
G1 X101.537 Y118.428 E6.60764
G1 X101.495 Y117.526 E6.64969
G1 X101.528 Y116.684 E6.68892
G1 X101.595 Y115.851 E6.72784
G1 X101.683 Y115.104 E6.76286
G1 X101.74 Y114.737 E6.78015
G1 X101.834 Y114.216 E6.80481
G1 X101.961 Y113.608 E6.83373
G1 X102.266 Y112.48 E6.88814
G1 X102.351 Y112.224 E6.9007
G1 X102.673 Y111.38 E6.94276
G1 X103.031 Y110.637 E6.98117
G1 X103.454 Y109.844 E7.02302
G1 X103.686 Y109.434 E7.04495
G1 X103.853 Y109.153 E7.06017
G1 X104.098 Y108.76 E7.08174
G1 X104.313 Y108.433 E7.09996
G1 X104.518 Y108.134 E7.11684
G1 X104.848 Y107.669 E7.14339
G1 X105.403 Y106.956 E7.18546
G1 X106.018 Y106.295 E7.2275
G1 X106.448 Y105.897 E7.25479
G1 X106.865 Y105.532 E7.28059
G1 X107.398 Y105.096 E7.31266
G1 X108.059 Y104.592 E7.35136
G1 X108.546 Y104.243 E7.37926
G1 X109.18 Y103.816 E7.41485
G1 X109.951 Y103.345 E7.45692
G1 X110.436 Y103.094 E7.48235
G1 X110.651 Y102.99 E7.49347
G1 X111.839 Y102.505 E7.55322
G1 X112.041 Y102.437 E7.56315
G1 X112.418 Y102.318 E7.58156
G1 X113.112 Y102.114 E7.61524
G1 X113.728 Y101.954 E7.64488
G1 X114.209 Y101.848 E7.66781
G1 X114.898 Y101.712 E7.70051
G1 X115.379 Y101.624 E7.72328
G1 X116.274 Y101.5 E7.76535
G1 X117.299 Y101.457 E7.81312
G1 X117.542 Y101.459 E7.82444
G1 X118.452 Y101.508 E7.86687
G0 F6000 X118.491 Y101.109
G1 F1200 X119.073 Y101.166 E7.8941
G1 X119.904 Y101.254 E7.93302
G1 X120.227 Y101.294 E7.94817
G1 X120.974 Y101.397 E7.98328
G1 X122.481 Y101.624 E8.05425
G1 X124.946 Y101.926 E8.16989
G1 X127.474 Y102.163 E8.28812
G1 X130.015 Y102.329 E8.40669
G1 X132.524 Y102.421 E8.5236
G1 X135.074 Y102.443 E8.64234
G1 X137.579 Y102.394 E8.75901
G1 X140.135 Y102.271 E8.87816
G1 X142.618 Y102.082 E8.99411
G1 X145.151 Y101.815 E9.11272
G1 X147.667 Y101.479 E9.23091
G1 X148.235 Y101.387 E9.2577
G1 X149.627 Y101.177 E9.32325
G1 X150.542 Y101.079 E9.3661
G1 X151.25 Y101.058 E9.39909
G1 X151.5 Y101.059 E9.41073
G1 X152.491 Y101.109 E9.45693
G1 X153.874 Y101.251 E9.52167
G1 X155.11 Y101.456 E9.58001
G1 X155.334 Y101.507 E9.59071
G1 X156.222 Y101.751 E9.63359
G1 X157.009 Y102.038 E9.67259
G1 X157.861 Y102.388 E9.71548
G1 X158.23 Y102.548 E9.73421
G1 X158.491 Y102.667 E9.74757
G1 X159.064 Y102.949 E9.77731
G1 X159.803 Y103.346 E9.81637
G1 X160.176 Y103.558 E9.83635
G1 X161.191 Y104.215 E9.89265
G1 X161.358 Y104.337 E9.90228
G1 X162.077 Y104.912 E9.94514
G1 X162.63 Y105.431 E9.98046
G1 X163.201 Y106.012 E10.01839
G1 X163.577 Y106.412 E10.04395
G1 X163.982 Y106.868 E10.07235
G1 X164.532 Y107.525 E10.11225
G1 X165.092 Y108.256 E10.15513
G1 X165.453 Y108.809 E10.18588
G1 X165.575 Y109.009 E10.19679
G1 X166.208 Y110.214 E10.26017
G1 X166.503 Y110.876 E10.29392
G1 X166.737 Y111.438 E10.32226
G1 X166.997 Y112.15 E10.35756
G1 X167.267 Y112.993 E10.39878
G1 X167.45 Y113.617 E10.42906
G1 X167.67 Y114.511 E10.47193
G1 X167.825 Y115.538 E10.52029
G1 X167.854 Y115.826 E10.53377
G1 X167.907 Y116.815 E10.57989
G1 X167.911 Y117.555 E10.61434
G1 X167.906 Y118.143 E10.64172
G1 X167.857 Y119.07 E10.68495
G1 X167.822 Y119.433 E10.70193
G1 X167.694 Y120.345 E10.74481
G1 X167.441 Y121.404 E10.79551
G1 X167.188 Y122.265 E10.8373
G1 X167.059 Y122.675 E10.85731
G1 X166.97 Y122.938 E10.87024
G1 X166.758 Y123.509 E10.8986
G1 X166.544 Y124.039 E10.92522
G1 X166.411 Y124.354 E10.94114
G1 X166.24 Y124.741 E10.96084
G1 X165.831 Y125.566 E11.00372
G1 X165.353 Y126.353 E11.04659
G1 X164.935 Y126.934 E11.07992
G1 X164.424 Y127.596 E11.11886
G1 X164.031 Y128.075 E11.14771
G1 X163.481 Y128.695 E11.18631
G1 X163.246 Y128.943 E11.20221
G1 X162.736 Y129.466 E11.23623
G1 X162.065 Y130.097 E11.27912
G1 X161.342 Y130.667 E11.32199
G1 X160.692 Y131.1 E11.35836
G1 X159.923 Y131.572 E11.40037
G1 X159.339 Y131.905 E11.43168
G1 X159.103 Y132.03 E11.44411
G1 X158.474 Y132.337 E11.4767
G1 X157.938 Y132.577 E11.50405
G1 X157.607 Y132.719 E11.52082
G1 X156.974 Y132.977 E11.55265
G1 X156.107 Y133.287 E11.59552
G1 X154.928 Y133.579 E11.65208
G1 X154.619 Y133.637 E11.66672
G1 X153.749 Y133.763 E11.70765
G1 X152.622 Y133.879 E11.76041
G1 X151.954 Y133.929 E11.7916
G1 X151.033 Y133.944 E11.83449
G1 X149.827 Y133.842 E11.89085
G1 X149.254 Y133.76 E11.9178
G1 X146.633 Y133.366 E12.04122
G1 X144.091 Y133.058 E12.16045
G1 X141.568 Y132.824 E12.27844
G1 X139.046 Y132.661 E12.39612
G1 X136.547 Y132.572 E12.51255
G1 X133.993 Y132.552 E12.63148
G1 X131.457 Y132.604 E12.74959
G1 X128.937 Y132.728 E12.86708
G1 X126.424 Y132.922 E12.98444
G1 X123.941 Y133.185 E13.10071
G1 X119.984 Y133.735 E13.28673
G1 X119.15 Y133.827 E13.3258
G1 X118.589 Y133.883 E13.35205
G1 X117.957 Y133.929 E13.38156
G1 X117.036 Y133.944 E13.42445
G1 X116.118 Y133.88 E13.4673
G1 X115.523 Y133.795 E13.49529
G1 X114.92 Y133.689 E13.5238
G1 X114.037 Y133.52 E13.56566
G1 X113.104 Y133.297 E13.61033
G1 X112.204 Y133.034 E13.65399
G1 X111.845 Y132.919 E13.67154
G1 X110.982 Y132.6 E13.71438
G1 X110.377 Y132.324 E13.74535
G1 X110.181 Y132.227 E13.75553
G1 X109.375 Y131.783 E13.79838
G1 X108.979 Y131.531 E13.82024
G1 X108.191 Y130.999 E13.86451
G1 X107.565 Y130.546 E13.90049
G1 X107.347 Y130.379 E13.91328
G1 X106.856 Y129.992 E13.94239
G1 X106.409 Y129.622 E13.96941
G1 X105.733 Y128.997 E14.01228
G1 X105.114 Y128.316 E14.05513
G1 X104.691 Y127.772 E14.08722
G1 X104.212 Y127.114 E14.12511
G1 X103.952 Y126.741 E14.14629
G1 X103.772 Y126.47 E14.16143
G1 X103.415 Y125.892 E14.19307
G1 X103.19 Y125.501 E14.21407
G1 X103.022 Y125.198 E14.23021
G1 X102.672 Y124.541 E14.26487
G1 X102.275 Y123.71 E14.30775
G1 X102.03 Y123.082 E14.33914
G1 X101.957 Y122.875 E14.34936
G1 X101.602 Y121.631 E14.4096
G1 X101.537 Y121.336 E14.42367
G1 X101.467 Y120.989 E14.44015
G1 X101.364 Y120.434 E14.46644
G1 X101.23 Y119.463 E14.51208
G1 X101.139 Y118.465 E14.55874
G1 X101.095 Y117.545 E14.60163
G1 X101.129 Y116.652 E14.64324
G1 X101.196 Y115.819 E14.68215
G1 X101.288 Y115.042 E14.71859
G1 X101.345 Y114.675 E14.73588
G1 X101.443 Y114.135 E14.76144
G1 X101.57 Y113.527 E14.79036
G1 X101.886 Y112.354 E14.84693
G1 X101.971 Y112.098 E14.85949
G1 X102.299 Y111.237 E14.90239
G1 X102.678 Y110.449 E14.9431
G1 X103.101 Y109.656 E14.98496
G1 X103.342 Y109.23 E15.00775
G1 X103.509 Y108.949 E15.02297
G1 X103.764 Y108.541 E15.04537
G1 X103.979 Y108.214 E15.06359
G1 X104.192 Y107.902 E15.08118
G1 X104.522 Y107.437 E15.10773
G1 X105.087 Y106.71 E15.15061
G1 X105.712 Y106.035 E15.19344
G1 X106.184 Y105.596 E15.22346
G1 X106.601 Y105.231 E15.24926
G1 X107.156 Y104.778 E15.28262
G1 X107.817 Y104.274 E15.32133
G1 X108.323 Y103.911 E15.35032
G1 X108.957 Y103.484 E15.38592
G1 X109.742 Y103.003 E15.42879
G1 X110.262 Y102.734 E15.45605
G1 X110.477 Y102.63 E15.46717
G1 X111.711 Y102.126 E15.52924
G1 X111.913 Y102.058 E15.53916
G1 X112.306 Y101.934 E15.55835
G1 X113 Y101.73 E15.59203
G1 X113.64 Y101.564 E15.62282
G1 X114.13 Y101.456 E15.64618
G1 X114.826 Y101.318 E15.67922
G1 X115.307 Y101.23 E15.70199
G1 X116.219 Y101.104 E15.74486
G1 X117.302 Y101.057 E15.79534
G1 X117.545 Y101.059 E15.80666
G1 X118.491 Y101.109 E15.85077
G0 F6000 X118.53 Y100.711
G1 F1200 X119.112 Y100.768 E15.878
G1 X119.946 Y100.857 E15.91705
G1 X120.281 Y100.898 E15.93277
G1 X121.034 Y101.002 E15.96816
G1 X122.518 Y101.226 E16.03805
G1 X124.999 Y101.53 E16.15444
G1 X127.501 Y101.764 E16.27145
G1 X130.021 Y101.929 E16.38904
G1 X132.541 Y102.021 E16.50646
G1 X135.07 Y102.043 E16.62423
G1 X137.587 Y101.994 E16.74145
G1 X140.086 Y101.874 E16.85795
G1 X142.578 Y101.684 E16.97432
G1 X145.128 Y101.415 E17.09372
G1 X147.583 Y101.088 E17.20905
G1 X148.175 Y100.991 E17.23698
G1 X149.567 Y100.781 E17.30253
G1 X150.5 Y100.681 E17.34622
G1 X151.252 Y100.658 E17.38126
G1 X151.502 Y100.659 E17.3929
G1 X152.53 Y100.711 E17.44083
G1 X153.199 Y100.777 E17.47213
G1 X153.916 Y100.853 E17.5057
G1 X155.199 Y101.066 E17.56626
G1 X155.423 Y101.117 E17.57696
G1 X156.328 Y101.364 E17.62064
G1 X157.161 Y101.668 E17.66193
G1 X158.013 Y102.018 E17.70482
G1 X158.396 Y102.184 E17.72426
G1 X158.657 Y102.303 E17.73762
G1 X159.251 Y102.596 E17.76846
G1 X160 Y102.999 E17.80806
G1 X160.373 Y103.211 E17.82804
G1 X161.427 Y103.892 E17.88647
G1 X161.594 Y104.014 E17.8961
G1 X162.327 Y104.599 E17.93977
G1 X162.914 Y105.149 E17.97723
G1 X163.493 Y105.738 E18.01569
G1 X163.869 Y106.138 E18.04125
G1 X164.289 Y106.611 E18.0707
G1 X164.839 Y107.268 E18.1106
G1 X165.409 Y108.012 E18.15424
G1 X165.795 Y108.601 E18.18703
G1 X165.917 Y108.801 E18.19794
G1 X166.371 Y109.621 E18.24159
G1 X166.574 Y110.052 E18.26377
G1 X166.869 Y110.714 E18.29752
G1 X167.108 Y111.287 E18.32643
G1 X167.378 Y112.026 E18.36306
G1 X167.557 Y112.577 E18.39004
G1 X167.65 Y112.88 E18.4048
G1 X167.833 Y113.504 E18.43508
G1 X168.059 Y114.415 E18.47878
G1 X168.223 Y115.498 E18.52979
G1 X168.252 Y115.786 E18.54327
G1 X168.307 Y116.812 E18.59111
G1 X168.311 Y117.559 E18.62589
G1 X168.306 Y118.147 E18.65327
G1 X168.255 Y119.109 E18.69813
G1 X168.22 Y119.472 E18.71511
G1 X168.09 Y120.401 E18.75879
G1 X167.825 Y121.517 E18.8122
G1 X167.572 Y122.378 E18.85399
G1 X167.438 Y122.803 E18.87474
G1 X167.349 Y123.066 E18.88767
G1 X167.129 Y123.658 E18.91708
G1 X166.915 Y124.188 E18.94369
G1 X166.777 Y124.516 E18.96026
G1 X166.606 Y124.903 E18.97996
G1 X166.19 Y125.744 E19.02365
G1 X165.705 Y126.546 E19.06729
G1 X165.252 Y127.178 E19.1035
G1 X164.741 Y127.84 E19.14244
G1 X164.333 Y128.338 E19.17242
G1 X163.776 Y128.965 E19.21147
G1 X163.532 Y129.223 E19.22801
G1 X163.022 Y129.746 E19.26202
G1 X162.34 Y130.389 E19.30567
G1 X161.605 Y130.971 E19.34932
G1 X160.901 Y131.441 E19.38874
G1 X160.132 Y131.913 E19.43075
G1 X159.527 Y132.259 E19.46321
G1 X159.291 Y132.384 E19.47564
G1 X158.637 Y132.703 E19.50952
G1 X158.101 Y132.943 E19.53687
G1 X157.758 Y133.089 E19.55423
G1 X157.125 Y133.347 E19.58606
G1 X156.242 Y133.664 E19.62974
G1 X155.002 Y133.972 E19.68924
G1 X154.693 Y134.03 E19.70388
G1 X153.79 Y134.161 E19.74636
G1 X152.663 Y134.277 E19.79912
G1 X151.978 Y134.328 E19.8311
G1 X151.04 Y134.344 E19.87479
G1 X149.771 Y134.238 E19.93408
G1 X149.195 Y134.156 E19.96117
G1 X146.562 Y133.761 E20.08515
G1 X144.042 Y133.455 E20.20335
G1 X141.539 Y133.223 E20.3204
G1 X139.042 Y133.062 E20.43692
G1 X136.53 Y132.972 E20.55396
G1 X133.999 Y132.952 E20.67182
G1 X131.485 Y133.004 E20.78891
G1 X128.952 Y133.128 E20.90699
G1 X126.461 Y133.321 E21.02333
G1 X123.982 Y133.583 E21.13941
G1 X120.028 Y134.133 E21.3253
G1 X119.19 Y134.225 E21.36455
G1 X118.629 Y134.281 E21.3908
G1 X117.981 Y134.328 E21.42106
G1 X117.043 Y134.345 E21.46474
G1 X116.107 Y134.281 E21.50843
G1 X115.455 Y134.189 E21.53909
G1 X114.845 Y134.082 E21.56792
G1 X113.962 Y133.913 E21.60979
G1 X112.994 Y133.682 E21.65613
G1 X112.082 Y133.415 E21.70038
G1 X111.723 Y133.3 E21.71793
G1 X110.843 Y132.976 E21.76159
G1 X110.2 Y132.683 E21.7945
G1 X110.004 Y132.586 E21.80468
G1 X109.182 Y132.134 E21.84836
G1 X108.756 Y131.863 E21.87187
G1 X107.961 Y131.326 E21.91654
G1 X107.326 Y130.867 E21.95303
G1 X107.1 Y130.693 E21.96631
G1 X106.609 Y130.306 E21.99542
G1 X106.151 Y129.927 E22.0231
