;FLAVOR:Marlin
;TIME:1939
;Filament used: 1.24439m
;Layer height: 0.2
;MINX:94.226
;MINY:94.221
;MINZ:0.2
;MAXX:125.733
;MAXY:125.781
;MAXZ:19.8
;Generated with Cura_SteamEngine 4.8.0
M140 S60
M105
M190 S60
M104 S205
M105
M109 S205
M82 ;absolute extrusion mode
; Ender 3 Custom Start G-code
G92 E0 ; Reset Extruder
G28 ; Home all axes
G1 Z2.0 F3000 ; Move Z Axis up little to prevent scratching of Heat Bed
G1 X0.1 Y20 Z0.3 F5000.0 ; Move to start position
G1 X0.1 Y200.0 Z0.3 F1500.0 E15 ; Draw the first line
G1 X0.4 Y200.0 Z0.3 F5000.0 ; Move to side a little
G1 X0.4 Y20 Z0.3 F1500.0 E30 ; Draw the second line
G92 E0 ; Reset Extruder
G1 Z2.0 F3000 ; Move Z Axis up little to prevent scratching of Heat Bed
G1 X5 Y20 Z0.3 F5000.0 ; Move over to prevent blob squish
G92 E0
G92 E0
G1 F2400 E-6.5
;LAYER_COUNT:101
;LAYER:0
M107
G0 F6000 X99.425 Y98.289 Z0.2
;TYPE:SKIRT
G1 F2400 E0
G1 F1200 X100.135 Y97.676 E0.0312
G1 X101.142 Y96.967 E0.07216
G1 X102.071 Y96.386 E0.1086
G1 X102.885 Y95.92 E0.1398
G1 X103.793 Y95.502 E0.17305
G1 X104.45 Y95.235 E0.19663
G1 X105.333 Y94.92 E0.22782
G1 X106.612 Y94.605 E0.27163
G1 X107.405 Y94.46 E0.29844
G1 X107.727 Y94.406 E0.3093
G1 X108.134 Y94.344 E0.32299
G1 X109.067 Y94.243 E0.3542
G1 X110.004 Y94.221 E0.38538
G1 X110.572 Y94.247 E0.40429
G1 X111.19 Y94.291 E0.4249
G1 X111.462 Y94.314 E0.43398
G1 X111.857 Y94.352 E0.44717
G1 X112.592 Y94.447 E0.47182
G1 X112.847 Y94.489 E0.48042
G1 X113.765 Y94.681 E0.51161
G1 X114.884 Y95.029 E0.55059
G1 X115.304 Y95.186 E0.5655
G1 X116.317 Y95.575 E0.60159
G1 X117.178 Y95.948 E0.6328
G1 X118.003 Y96.394 E0.66399
G1 X118.942 Y97.02 E0.70153
G1 X119.768 Y97.637 E0.73582
G1 X120.068 Y97.869 E0.74844
G1 X120.785 Y98.474 E0.77964
G1 X121.448 Y99.138 E0.81085
G1 X122.312 Y100.208 E0.85659
G1 X122.751 Y100.827 E0.88183
G1 X122.893 Y101.033 E0.89015
G1 X123.507 Y101.942 E0.92664
G1 X123.999 Y102.741 E0.95784
G1 X124.42 Y103.579 E0.98904
G1 X124.769 Y104.449 E1.02021
G1 X124.943 Y104.99 E1.03911
G1 X125.215 Y105.913 E1.07112
G1 X125.293 Y106.19 E1.08069
G1 X125.358 Y106.434 E1.08909
G1 X125.561 Y107.35 E1.12029
G1 X125.685 Y108.28 E1.1515
G1 X125.728 Y109.145 E1.18031
G1 X125.733 Y109.661 E1.19747
G1 X125.73 Y110.759 E1.23399
G1 X125.687 Y111.696 E1.26519
G1 X125.565 Y112.626 E1.29638
G1 X125.307 Y113.75 E1.33474
G1 X124.972 Y114.918 E1.37515
G1 X124.914 Y115.108 E1.38176
G1 X124.602 Y115.992 E1.41294
G1 X124.216 Y116.847 E1.44414
G1 X123.534 Y118.015 E1.48913
G1 X123.05 Y118.738 E1.51807
G1 X122.369 Y119.716 E1.5577
G1 X121.8 Y120.462 E1.58891
G1 X121.169 Y121.156 E1.62011
G1 X120.482 Y121.794 E1.65129
G1 X120.069 Y122.128 E1.66896
G1 X119.349 Y122.681 E1.69915
G1 X118.904 Y123.009 E1.71754
G1 X118.126 Y123.532 E1.74872
G1 X117.306 Y123.988 E1.77992
G1 X116.521 Y124.343 E1.80858
G1 X116.253 Y124.452 E1.8182
G1 X115.997 Y124.553 E1.82735
G1 X114.896 Y124.969 E1.8665
G1 X114.005 Y125.263 E1.89771
G1 X113.093 Y125.48 E1.92889
G1 X112.211 Y125.613 E1.95855
G1 X111.804 Y125.653 E1.97216
G1 X110.69 Y125.744 E2.00933
G1 X109.752 Y125.781 E2.04055
G1 X108.816 Y125.737 E2.07172
G1 X107.921 Y125.62 E2.10174
G1 X106.717 Y125.412 E2.14238
G1 X105.801 Y125.214 E2.17355
G1 X104.966 Y124.959 E2.20259
G1 X104.774 Y124.892 E2.20935
G1 X104.313 Y124.719 E2.22573
G1 X103.913 Y124.559 E2.24006
G1 X103.063 Y124.177 E2.27105
G1 X102.242 Y123.722 E2.30227
G1 X101.611 Y123.336 E2.32687
G1 X101.356 Y123.175 E2.3369
G1 X100.976 Y122.928 E2.35198
G1 X100.212 Y122.384 E2.38317
G1 X99.498 Y121.776 E2.41436
G1 X98.863 Y121.139 E2.44428
G1 X98.42 Y120.654 E2.46613
G1 X97.777 Y119.931 E2.49831
G1 X97.185 Y119.204 E2.52949
G1 X96.656 Y118.43 E2.56067
G1 X96.261 Y117.74 E2.58712
G1 X96.149 Y117.527 E2.59512
G1 X95.952 Y117.135 E2.60971
G1 X95.528 Y116.244 E2.64253
G1 X95.162 Y115.38 E2.67374
G1 X94.87 Y114.489 E2.70493
G1 X94.672 Y113.659 E2.73331
G1 X94.449 Y112.536 E2.77139
G1 X94.305 Y111.61 E2.80256
G1 X94.241 Y110.646 E2.83469
G1 X94.226 Y109.991 E2.85648
G1 X94.226 Y109.494 E2.87301
G1 X94.281 Y108.557 E2.90423
G1 X94.411 Y107.66 E2.93438
G1 X94.553 Y106.9 E2.96009
G1 X94.622 Y106.563 E2.97153
G1 X94.717 Y106.13 E2.98628
G1 X94.956 Y105.223 E3.01747
G1 X95.273 Y104.34 E3.04868
G1 X95.499 Y103.823 E3.06744
G1 X95.844 Y103.086 E3.09451
G1 X95.961 Y102.843 E3.10348
G1 X96.119 Y102.526 E3.11526
G1 X96.716 Y101.477 E3.1554
G1 X96.754 Y101.418 E3.15774
G1 X97.295 Y100.652 E3.18893
G1 X97.736 Y100.117 E3.21199
G1 X98.097 Y99.708 E3.23013
G1 X98.273 Y99.515 E3.23882
G1 X98.77 Y98.96 E3.2636
G1 X99.425 Y98.289 E3.29479
G0 F6000 X99.712 Y98.568
G1 F1200 X100.41 Y97.968 E3.3254
G1 X101.354 Y97.306 E3.36375
G1 X102.284 Y96.724 E3.40024
G1 X103.083 Y96.268 E3.43084
G1 X103.943 Y95.873 E3.46231
G1 X104.6 Y95.606 E3.4859
G1 X105.467 Y95.297 E3.51652
G1 X106.684 Y94.999 E3.55819
G1 X107.477 Y94.854 E3.585
G1 X107.788 Y94.802 E3.59549
G1 X108.195 Y94.74 E3.60918
G1 X109.11 Y94.641 E3.63979
G1 X110.03 Y94.622 E3.6704
G1 X110.544 Y94.646 E3.68751
G1 X111.162 Y94.69 E3.70812
G1 X111.424 Y94.712 E3.71686
G1 X111.819 Y94.75 E3.73006
G1 X112.527 Y94.842 E3.75381
G1 X112.782 Y94.884 E3.7624
G1 X113.683 Y95.073 E3.79302
G1 X114.745 Y95.404 E3.83002
G1 X115.161 Y95.56 E3.8448
G1 X116.174 Y95.949 E3.88089
G1 X117.018 Y96.316 E3.9115
G1 X117.828 Y96.755 E3.94214
G1 X118.703 Y97.341 E3.97717
G1 X119.524 Y97.954 E4.01125
G1 X119.824 Y98.186 E4.02386
G1 X120.527 Y98.78 E4.05447
G1 X121.176 Y99.433 E4.08509
G1 X121.985 Y100.439 E4.12803
G1 X122.424 Y101.058 E4.15327
G1 X122.562 Y101.257 E4.16133
G1 X123.176 Y102.166 E4.19781
G1 X123.658 Y102.95 E4.22842
G1 X124.069 Y103.774 E4.25905
G1 X124.408 Y104.63 E4.28967
G1 X124.56 Y105.103 E4.30619
G1 X124.832 Y106.026 E4.3382
G1 X124.907 Y106.293 E4.34742
G1 X124.972 Y106.537 E4.35582
G1 X125.17 Y107.436 E4.38644
G1 X125.289 Y108.349 E4.41706
G1 X125.328 Y109.15 E4.44373
G1 X125.333 Y109.66 E4.4607
G1 X125.33 Y110.758 E4.49722
G1 X125.287 Y111.678 E4.52785
G1 X125.165 Y112.59 E4.55845
G1 X124.923 Y113.64 E4.59429
G1 X124.644 Y114.617 E4.62809
G1 X124.531 Y114.991 E4.64108
G1 X124.224 Y115.859 E4.6717
G1 X123.843 Y116.697 E4.70232
G1 X123.201 Y117.793 E4.74457
G1 X122.717 Y118.516 E4.77351
G1 X122.599 Y118.688 E4.78044
G1 X122.041 Y119.487 E4.81286
G1 X121.482 Y120.218 E4.84346
G1 X120.861 Y120.898 E4.87409
G1 X120.184 Y121.522 E4.90472
G1 X119.825 Y121.812 E4.92007
G1 X119.296 Y122.22 E4.94229
G1 X119.111 Y122.359 E4.94998
G1 X118.666 Y122.687 E4.96837
G1 X117.902 Y123.2 E4.99898
G1 X117.096 Y123.645 E5.0296
G1 X116.371 Y123.973 E5.05606
G1 X116.103 Y124.082 E5.06569
G1 X115.856 Y124.179 E5.07451
G1 X114.755 Y124.595 E5.11366
G1 X113.88 Y124.883 E5.1443
G1 X112.984 Y125.093 E5.17491
G1 X112.167 Y125.215 E5.20238
G1 X111.771 Y125.255 E5.21562
G1 X110.657 Y125.346 E5.2528
G1 X109.737 Y125.381 E5.28342
G1 X108.817 Y125.336 E5.31405
G1 X107.99 Y125.226 E5.3418
G1 X106.786 Y125.018 E5.38244
G1 X105.886 Y124.822 E5.41308
G1 X105.098 Y124.581 E5.44048
G1 X104.906 Y124.514 E5.44725
G1 X104.461 Y124.348 E5.46304
G1 X104.061 Y124.188 E5.47737
G1 X103.242 Y123.819 E5.50725
G1 X102.451 Y123.38 E5.53734
G1 X101.82 Y122.994 E5.56194
G1 X101.574 Y122.84 E5.57159
G1 X101.194 Y122.593 E5.58667
G1 X100.445 Y122.058 E5.61728
G1 X99.745 Y121.46 E5.6479
G1 X99.158 Y120.869 E5.67561
G1 X98.719 Y120.388 E5.69727
G1 X98.076 Y119.665 E5.72945
G1 X97.495 Y118.951 E5.76007
G1 X96.978 Y118.19 E5.79066
G1 X96.615 Y117.554 E5.81502
G1 X96.503 Y117.341 E5.82303
G1 X96.313 Y116.963 E5.8371
G1 X95.889 Y116.072 E5.86992
G1 X95.53 Y115.224 E5.90054
G1 X95.246 Y114.348 E5.93117
G1 X95.064 Y113.582 E5.95736
G1 X94.841 Y112.459 E5.99544
G1 X94.701 Y111.549 E6.02606
G1 X94.641 Y110.637 E6.05646
G1 X94.626 Y109.982 E6.07825
G1 X94.626 Y109.5 E6.09428
G1 X94.681 Y108.581 E6.1249
G1 X94.804 Y107.733 E6.1534
G1 X94.946 Y106.973 E6.17912
G1 X95.012 Y106.648 E6.19015
G1 X95.107 Y106.215 E6.20489
G1 X95.343 Y105.326 E6.23549
G1 X95.656 Y104.46 E6.26611
G1 X95.861 Y103.993 E6.28308
G1 X96.206 Y103.256 E6.31014
G1 X96.319 Y103.022 E6.31878
G1 X96.477 Y102.705 E6.33056
G1 X97.052 Y101.693 E6.36928
G1 X97.09 Y101.634 E6.37161
G1 X97.622 Y100.883 E6.40222
G1 X98.036 Y100.381 E6.42386
G1 X98.259 Y100.127 E6.43511
G1 X99.068 Y99.227 E6.47536
G1 X99.712 Y98.568 E6.506
G0 F6000 X99.998 Y98.848
G1 F1200 X100.684 Y98.262 E6.53601
G1 X101.565 Y97.646 E6.57177
G1 X102.497 Y97.063 E6.60833
G1 X103.282 Y96.616 E6.63837
G1 X104.094 Y96.244 E6.66808
G1 X104.751 Y95.977 E6.69167
G1 X105.602 Y95.674 E6.72171
G1 X106.756 Y95.392 E6.76123
G1 X107.549 Y95.247 E6.78804
G1 X107.848 Y95.197 E6.79812
G1 X108.255 Y95.135 E6.81181
G1 X109.153 Y95.039 E6.84185
G1 X110.056 Y95.022 E6.87189
G1 X110.515 Y95.045 E6.88718
G1 X111.133 Y95.089 E6.90778
G1 X111.386 Y95.11 E6.91623
G1 X111.781 Y95.148 E6.92943
G1 X112.462 Y95.237 E6.95227
G1 X112.717 Y95.279 E6.96086
G1 X113.6 Y95.465 E6.99088
G1 X114.606 Y95.779 E7.02593
G1 X115.018 Y95.933 E7.04056
G1 X116.031 Y96.322 E7.07665
G1 X116.858 Y96.683 E7.10666
G1 X117.651 Y97.115 E7.1367
G1 X118.464 Y97.662 E7.16929
G1 X119.279 Y98.27 E7.20311
G1 X119.579 Y98.502 E7.21572
G1 X120.268 Y99.086 E7.24576
G1 X120.903 Y99.728 E7.27579
G1 X121.659 Y100.67 E7.31597
G1 X122.098 Y101.289 E7.34121
G1 X122.23 Y101.481 E7.34896
G1 X122.844 Y102.39 E7.38544
G1 X123.316 Y103.16 E7.41548
G1 X123.718 Y103.968 E7.4455
G1 X124.176 Y105.216 E7.48971
G1 X124.448 Y106.139 E7.52172
G1 X124.52 Y106.396 E7.53059
G1 X124.585 Y106.64 E7.53899
G1 X124.779 Y107.522 E7.56903
G1 X124.894 Y108.418 E7.59907
G1 X124.928 Y109.154 E7.62358
G1 X124.933 Y109.659 E7.64038
G1 X124.93 Y110.757 E7.6769
G1 X124.888 Y111.659 E7.70693
G1 X124.765 Y112.554 E7.73698
G1 X124.538 Y113.53 E7.77031
G1 X124.207 Y114.684 E7.81024
G1 X124.149 Y114.874 E7.81684
G1 X123.847 Y115.725 E7.84688
G1 X123.471 Y116.546 E7.87691
G1 X122.869 Y117.57 E7.91642
G1 X122.272 Y118.459 E7.95204
G1 X121.714 Y119.258 E7.98445
G1 X121.164 Y119.975 E8.01451
G1 X120.554 Y120.64 E8.04452
G1 X119.58 Y121.495 E8.08763
G1 X119.051 Y121.903 E8.10985
G1 X118.874 Y122.037 E8.11723
G1 X118.429 Y122.365 E8.13562
G1 X117.679 Y122.868 E8.16565
G1 X116.887 Y123.303 E8.19571
G1 X116.22 Y123.602 E8.22002
G1 X115.714 Y123.805 E8.23815
G1 X114.613 Y124.221 E8.2773
G1 X113.755 Y124.502 E8.30733
G1 X112.875 Y124.707 E8.33738
G1 X112.123 Y124.818 E8.36266
G1 X111.738 Y124.856 E8.37553
G1 X110.624 Y124.947 E8.4127
G1 X109.722 Y124.981 E8.44273
G1 X108.82 Y124.934 E8.47277
G1 X108.058 Y124.832 E8.49834
G1 X106.854 Y124.624 E8.53898
G1 X105.971 Y124.431 E8.56904
G1 X105.229 Y124.203 E8.59486
G1 X105.037 Y124.136 E8.60162
G1 X104.61 Y123.976 E8.61679
G1 X104.21 Y123.816 E8.63111
G1 X103.42 Y123.461 E8.65992
G1 X102.659 Y123.039 E8.68886
G1 X102.028 Y122.653 E8.71347
G1 X101.792 Y122.504 E8.72275
G1 X101.412 Y122.257 E8.73782
G1 X100.677 Y121.732 E8.76786
G1 X99.992 Y121.144 E8.79789
G1 X99.453 Y120.598 E8.82341
G1 X99.018 Y120.122 E8.84486
G1 X98.375 Y119.399 E8.87704
G1 X97.805 Y118.699 E8.90706
G1 X97.3 Y117.95 E8.93711
G1 X96.969 Y117.368 E8.95938
G1 X96.857 Y117.155 E8.96738
G1 X96.675 Y116.791 E8.98092
G1 X96.251 Y115.9 E9.01373
G1 X95.899 Y115.068 E9.04378
G1 X95.622 Y114.208 E9.07383
G1 X95.456 Y113.504 E9.09789
G1 X95.233 Y112.381 E9.13597
G1 X95.097 Y111.488 E9.16601
G1 X95.041 Y110.628 E9.19468
G1 X95.026 Y109.973 E9.21647
G1 X95.025 Y109.507 E9.23197
G1 X95.081 Y108.606 E9.26199
G1 X95.198 Y107.807 E9.28885
G1 X95.34 Y107.047 E9.31457
G1 X95.403 Y106.734 E9.32519
G1 X95.498 Y106.301 E9.33993
G1 X95.73 Y105.428 E9.36997
G1 X96.039 Y104.58 E9.39999
G1 X96.223 Y104.163 E9.41515
G1 X96.568 Y103.426 E9.44222
G1 X96.677 Y103.2 E9.45056
G1 X96.835 Y102.883 E9.46234
G1 X97.389 Y101.91 E9.49958
G1 X97.427 Y101.851 E9.50192
G1 X97.949 Y101.114 E9.53196
G1 X98.337 Y100.644 E9.55223
G1 X98.688 Y100.247 E9.56985
G1 X98.864 Y100.054 E9.57854
G1 X99.366 Y99.494 E9.60355
G1 X99.998 Y98.848 E9.63361
G1 F2400 E3.13361
;MESH:Rubber Ball.stl
G0 F6000 X105.889 Y106.519
G0 X106.602 Y107.197
G0 X106.156 Y107.982
G0 X105.784 Y108.962
G0 X105.658 Y110
G0 X105.784 Y111.038
G0 X106.156 Y112.018
G0 X106.751 Y112.879
G0 X107.535 Y113.573
G0 X108.368 Y114.01
G0 X109.459 Y114.288
G0 X109.494 Y114.171
;TYPE:WALL-OUTER
G1 F2400 E9.63361
G1 F1200 X110.506 Y114.171 E9.66727
G1 X111.489 Y113.928 E9.70095
G1 X112.386 Y113.458 E9.73463
G1 X113.145 Y112.786 E9.76835
G1 X113.72 Y111.953 E9.80201
G1 X114.08 Y111.005 E9.83574
G1 X114.201 Y110 E9.86941
G1 X114.08 Y108.995 E9.90308
G1 X113.72 Y108.047 E9.93681
G1 X113.145 Y107.214 E9.97047
G1 X112.386 Y106.542 E10.00419
G1 X111.489 Y106.072 E10.03787
G1 X110.506 Y105.829 E10.07155
G1 X109.494 Y105.829 E10.10521
G1 X108.511 Y106.072 E10.13889
G1 X107.614 Y106.542 E10.17257
G1 X106.855 Y107.214 E10.20629
G1 X106.28 Y108.047 E10.23995
G1 X105.92 Y108.995 E10.27368
G1 X105.799 Y110 E10.30735
G1 X105.92 Y111.005 E10.34101
G1 X106.28 Y111.953 E10.37474
G1 X106.855 Y112.786 E10.40841
G1 X107.614 Y113.458 E10.44212
G1 X108.511 Y113.928 E10.47581
G1 X109.494 Y114.171 E10.50948
G0 F6000 X109.81 Y114.587
G1 F1200 X109.529 Y114.502 E10.51925
G1 X109.169 Y114.44 E10.5314
G1 X108.642 Y114.39 E10.54901
G1 X108.093 Y114.18 E10.56856
G1 X107.656 Y113.864 E10.58649
G1 X107.346 Y113.665 E10.59874
G1 X107.088 Y113.549 E10.60815
G1 X106.752 Y113.147 E10.62558
G1 X106.516 Y112.884 E10.63733
G1 X106.147 Y112.503 E10.65497
G1 X105.904 Y111.915 E10.67613
G1 X105.648 Y111.463 E10.69341
G1 X105.628 Y111.17 E10.70318
G1 X105.556 Y110.809 E10.71542
G1 X105.415 Y110.299 E10.73302
G1 X105.414 Y109.711 E10.75258
G1 X105.555 Y109.192 E10.77047
G1 X105.629 Y108.831 E10.78272
G1 X105.645 Y108.548 E10.79215
G1 X105.904 Y108.084 E10.80982
G1 X106.145 Y107.501 E10.83081
G1 X106.515 Y107.116 E10.84857
G1 X106.753 Y106.854 E10.86034
G1 X107.079 Y106.458 E10.8774
G1 X107.346 Y106.334 E10.88719
G1 X107.657 Y106.137 E10.89944
G1 X108.082 Y105.825 E10.91697
G1 X108.641 Y105.611 E10.93688
G1 X109.167 Y105.559 E10.95446
G1 X109.531 Y105.499 E10.96673
G1 X109.804 Y105.413 E10.97625
G1 X110.324 Y105.492 E10.99374
G1 X110.959 Y105.507 E11.01487
G1 X111.45 Y105.715 E11.03261
G1 X111.779 Y105.844 E11.04436
G1 X112.272 Y106.01 E11.06166
G1 X112.475 Y106.212 E11.07119
G1 X112.771 Y106.431 E11.08343
G1 X113.2 Y106.707 E11.1004
G1 X113.354 Y106.961 E11.11028
G1 X113.569 Y107.234 E11.12184
G1 X113.862 Y107.655 E11.1389
G1 X114.037 Y107.953 E11.15039
G1 X114.214 Y108.178 E11.15991
G1 X114.326 Y108.686 E11.17721
G1 X114.422 Y109.042 E11.18948
G1 X114.537 Y109.298 E11.19881
G1 X114.519 Y109.822 E11.21625
G1 X114.518 Y110.177 E11.22806
G1 X114.538 Y110.698 E11.2454
G1 X114.423 Y110.96 E11.25492
G1 X114.325 Y111.313 E11.2671
G1 X114.216 Y111.819 E11.28432
G1 X114.038 Y112.048 E11.29396
G1 X113.853 Y112.355 E11.30588
G1 X113.573 Y112.763 E11.32234
G1 X113.353 Y113.038 E11.33406
G1 X113.207 Y113.285 E11.3436
G1 X112.772 Y113.57 E11.3609
G1 X112.474 Y113.787 E11.37316
G1 X112.277 Y113.988 E11.38252
G1 X111.78 Y114.157 E11.39998
G1 X111.449 Y114.284 E11.41177
G1 X110.967 Y114.49 E11.4292
G1 X110.324 Y114.508 E11.4506
G1 X109.81 Y114.587 E11.46789
;MESH:NONMESH
G0 F300 X109.81 Y114.587 Z0.4
G0 F6000 X109.445 Y114.575
;TIME_ELAPSED:23.021705
;LAYER:1
M106 S85
;TYPE:WALL-INNER
;MESH:Rubber Ball.stl
G1 F696.6 X108.969 Y114.493 E11.48396
G1 X108.786 Y114.476 E11.49007
G1 X108.429 Y114.365 E11.50251
G1 X108.356 Y114.338 E11.5051
G1 X108.235 Y114.291 E11.50941
G1 X107.907 Y114.138 E11.52145
G1 X107.756 Y114.029 E11.52764
G1 X107.385 Y113.791 E11.54231
G1 X107.215 Y113.682 E11.54902
G1 X107.133 Y113.645 E11.55201
G1 X106.904 Y113.451 E11.562
G1 X106.781 Y113.305 E11.56835
G1 X106.555 Y113.053 E11.5796
G1 X106.379 Y112.858 E11.58834
G1 X106.245 Y112.72 E11.59474
G1 X106.049 Y112.433 E11.6063
G1 X105.906 Y112.15 E11.61684
G1 X105.88 Y112.099 E11.61875
G1 X105.772 Y111.837 E11.62817
G1 X105.666 Y111.653 E11.63524
G1 X105.568 Y111.368 E11.64526
G1 X105.562 Y111.276 E11.64833
G1 X105.527 Y111.102 E11.65423
G1 X105.436 Y110.648 E11.66963
G1 X105.386 Y110.466 E11.67591
G1 X105.363 Y110.107 E11.68787
G1 X105.363 Y110.001 E11.6914
