;FLAVOR:Marlin
;TIME:582
;Filament used: 0.384095m
;Layer height: 0.28
;MINX:90.011
;MINY:90.038
;MINZ:0.28
;MAXX:129.989
;MAXY:129.962
;MAXZ:11.76
;Generated with Cura_SteamEngine 4.8.0
M140 S60
M105
M190 S60
M104 S205
M105
M109 S205
M82 ;absolute extrusion mode
; Ender 3 Custom Start G-code
G92 E0 ; Reset Extruder
G28 ; Home all axes
G1 Z2.0 F3000 ; Move Z Axis up little to prevent scratching of Heat Bed
G1 X0.1 Y20 Z0.3 F5000.0 ; Move to start position
G1 X0.1 Y200.0 Z0.3 F1500.0 E15 ; Draw the first line
G1 X0.4 Y200.0 Z0.3 F5000.0 ; Move to side a little
G1 X0.4 Y20 Z0.3 F1500.0 E30 ; Draw the second line
G92 E0 ; Reset Extruder
G1 Z2.0 F3000 ; Move Z Axis up little to prevent scratching of Heat Bed
G1 X5 Y20 Z0.3 F5000.0 ; Move over to prevent blob squish
G92 E0
G92 E0
G1 F2400 E-6.5
;LAYER_COUNT:42
;LAYER:0
M107
G0 F6000 X95.743 Y96.002 Z0.28
;TYPE:SKIRT
G1 F2400 E0
G1 F1200 X95.969 Y95.785 E0.01459
G1 X96.171 Y95.597 E0.02744
G1 X96.752 Y95.067 E0.06406
G1 X97.288 Y94.592 E0.09741
G1 X98.016 Y94.001 E0.14107
G1 X98.516 Y93.65 E0.16952
G1 X98.77 Y93.482 E0.1837
G1 X99.034 Y93.313 E0.19829
G1 X99.741 Y92.875 E0.23702
G1 X100.348 Y92.512 E0.26995
G1 X101.173 Y92.066 E0.31362
G1 X101.741 Y91.809 E0.34265
G1 X102.094 Y91.661 E0.36047
G1 X102.371 Y91.549 E0.37439
G1 X103.059 Y91.283 E0.40873
G1 X103.679 Y91.052 E0.43954
G1 X104.571 Y90.763 E0.4832
G1 X105.136 Y90.621 E0.51033
G1 X105.492 Y90.542 E0.52731
G1 X105.842 Y90.47 E0.54395
G1 X106.594 Y90.33 E0.57957
G1 X107.285 Y90.21 E0.61222
G1 X108.215 Y90.089 E0.65589
G1 X108.831 Y90.053 E0.68463
G1 X109.158 Y90.043 E0.69986
G1 X109.494 Y90.038 E0.71551
G1 X110.123 Y90.038 E0.7448
G1 X111.003 Y90.05 E0.78578
G1 X111.94 Y90.105 E0.82948
G1 X112.538 Y90.182 E0.85756
G1 X112.844 Y90.23 E0.87198
G1 X113.144 Y90.281 E0.88615
G1 X113.912 Y90.425 E0.92253
G1 X114.647 Y90.574 E0.95746
G1 X115.558 Y90.8 E1.00116
G1 X116.123 Y90.982 E1.0288
G1 X116.446 Y91.096 E1.04475
G1 X116.752 Y91.209 E1.05994
G1 X117.449 Y91.48 E1.09476
G1 X118.146 Y91.762 E1.12977
G1 X118.999 Y92.15 E1.17341
G1 X119.575 Y92.464 E1.20396
G1 X119.869 Y92.636 E1.21982
G1 X120.101 Y92.776 E1.23243
G1 X120.766 Y93.189 E1.26888
G1 X121.34 Y93.556 E1.30061
G1 X122.108 Y94.095 E1.3443
G1 X122.589 Y94.485 E1.37313
G1 X122.861 Y94.719 E1.38984
G1 X123.096 Y94.928 E1.40448
G1 X123.627 Y95.413 E1.43797
G1 X124.177 Y95.93 E1.47312
G1 X124.832 Y96.601 E1.51678
G1 X125.206 Y97.04 E1.54364
G1 X125.41 Y97.293 E1.55877
G1 X125.614 Y97.555 E1.57423
G1 X126.117 Y98.221 E1.61309
G1 X126.517 Y98.768 E1.64465
G1 X126.932 Y99.377 E1.67896
G1 X127.335 Y100.064 E1.71605
G1 X127.48 Y100.333 E1.73028
G1 X127.646 Y100.654 E1.74711
G1 X127.99 Y101.348 E1.78318
G1 X128.303 Y102.001 E1.8169
G1 X128.672 Y102.864 E1.8606
G1 X128.878 Y103.459 E1.88992
G1 X128.982 Y103.79 E1.90607
G1 X129.066 Y104.07 E1.91969
G1 X129.285 Y104.844 E1.95714
G1 X129.461 Y105.501 E1.98881
G1 X129.548 Y105.845 E2.00534
G1 X129.763 Y107.065 E2.06302
G1 X129.802 Y107.393 E2.0784
G1 X129.833 Y107.682 E2.09193
G1 X129.904 Y108.468 E2.12868
G1 X129.955 Y109.115 E2.1589
G1 X129.989 Y110.052 E2.20256
G1 X129.971 Y110.61 E2.22856
G1 X129.949 Y110.993 E2.24642
G1 X129.919 Y111.393 E2.2651
G1 X129.849 Y112.122 E2.2992
G1 X129.773 Y112.829 E2.33231
G1 X129.633 Y113.756 E2.37597
G1 X129.498 Y114.361 E2.40483
G1 X129.402 Y114.739 E2.42299
G1 X129.317 Y115.05 E2.438
G1 X129.122 Y115.733 E2.47108
G1 X128.919 Y116.41 E2.50399
G1 X128.611 Y117.296 E2.54767
G1 X128.356 Y117.89 E2.57777
G1 X128.216 Y118.191 E2.59322
G1 X128.094 Y118.444 E2.6063
G1 X127.736 Y119.163 E2.6437
G1 X127.423 Y119.77 E2.6755
G1 X126.958 Y120.585 E2.7192
G1 X126.601 Y121.117 E2.74903
G1 X126.382 Y121.424 E2.76659
G1 X126.202 Y121.669 E2.78075
G1 X125.742 Y122.275 E2.81617
G1 X125.301 Y122.839 E2.84951
G1 X124.693 Y123.552 E2.89314
G1 X124.302 Y123.952 E2.91919
G1 X124.09 Y124.158 E2.93295
G1 X123.841 Y124.392 E2.94886
G1 X123.248 Y124.933 E2.98624
G1 X122.712 Y125.408 E3.01959
G1 X121.984 Y125.999 E3.06325
G1 X121.492 Y126.345 E3.09126
G1 X121.249 Y126.506 E3.10483
G1 X120.981 Y126.678 E3.11966
G1 X120.439 Y127.015 E3.14938
G1 X119.654 Y127.486 E3.19201
G1 X118.83 Y127.933 E3.23566
G1 X118.285 Y128.181 E3.26354
G1 X117.944 Y128.325 E3.28078
G1 X117.631 Y128.451 E3.29649
G1 X116.941 Y128.717 E3.33092
G1 X116.321 Y128.948 E3.36173
G1 X115.429 Y129.237 E3.40539
G1 X114.864 Y129.379 E3.43252
G1 X114.508 Y129.458 E3.4495
G1 X114.158 Y129.53 E3.46614
G1 X113.557 Y129.643 E3.49461
G1 X112.711 Y129.79 E3.53459
G1 X111.781 Y129.911 E3.57826
G1 X111.169 Y129.947 E3.60681
G1 X110.843 Y129.957 E3.622
G1 X110.506 Y129.962 E3.63769
G1 X109.707 Y129.961 E3.6749
G1 X108.997 Y129.95 E3.70796
G1 X108.06 Y129.895 E3.75167
G1 X107.462 Y129.818 E3.77974
G1 X107.156 Y129.77 E3.79416
G1 X106.86 Y129.719 E3.80815
G1 X106.069 Y129.571 E3.84562
G1 X105.346 Y129.424 E3.87998
G1 X104.436 Y129.199 E3.92363
G1 X103.877 Y129.018 E3.95099
G1 X103.554 Y128.904 E3.96694
G1 X103.255 Y128.793 E3.98179
G1 X102.526 Y128.51 E4.0182
G1 X101.846 Y128.234 E4.05237
G1 X100.993 Y127.845 E4.09603
G1 X100.446 Y127.547 E4.12503
G1 X100.149 Y127.374 E4.14104
G1 X99.899 Y127.224 E4.15461
G1 X99.236 Y126.812 E4.19096
G1 X98.657 Y126.442 E4.22296
G1 X97.889 Y125.904 E4.26662
G1 X97.383 Y125.492 E4.297
G1 X97.116 Y125.261 E4.31344
G1 X96.896 Y125.065 E4.32716
G1 X96.369 Y124.582 E4.36045
G1 X95.827 Y124.073 E4.39507
G1 X95.171 Y123.403 E4.43873
G1 X94.794 Y122.96 E4.46582
G1 X94.59 Y122.707 E4.48095
G1 X94.386 Y122.445 E4.49641
G1 X93.877 Y121.771 E4.53574
G1 X93.469 Y121.212 E4.56797
G1 X92.949 Y120.432 E4.61162
G1 X92.68 Y119.963 E4.6368
G1 X92.529 Y119.684 E4.65157
G1 X92.351 Y119.341 E4.66956
G1 X91.982 Y118.596 E4.70827
G1 X91.689 Y117.983 E4.73991
G1 X91.321 Y117.12 E4.7836
G1 X91.116 Y116.524 E4.81294
G1 X91.014 Y116.198 E4.82885
G1 X90.931 Y115.921 E4.84232
G1 X90.759 Y115.316 E4.8716
G1 X90.541 Y114.507 E4.91062
G1 X90.336 Y113.592 E4.95428
G1 X90.248 Y113.014 E4.9815
G1 X90.21 Y112.71 E4.99577
G1 X90.172 Y112.364 E5.01198
G1 X90.096 Y111.532 E5.05088
G1 X90.045 Y110.885 E5.0811
G1 X90.011 Y109.948 E5.12476
G1 X90.029 Y109.39 E5.15076
G1 X90.051 Y109.007 E5.16862
G1 X90.081 Y108.607 E5.1873
G1 X90.15 Y107.892 E5.22075
G1 X90.225 Y107.186 E5.25381
G1 X90.363 Y106.258 E5.29749
G1 X90.504 Y105.668 E5.32574
G1 X90.496 Y105.666 E5.32612
G1 X90.577 Y105.343 E5.34163
G1 X90.664 Y105.021 E5.35716
G1 X90.881 Y104.258 E5.3941
G1 X91.087 Y103.573 E5.4274
G1 X91.395 Y102.687 E5.47108
G1 X91.656 Y102.082 E5.50176
G1 X91.793 Y101.789 E5.51682
G1 X91.909 Y101.549 E5.52924
G1 X92.273 Y100.82 E5.56718
G1 X92.576 Y100.232 E5.59798
G1 X93.041 Y99.418 E5.64163
G1 X93.405 Y98.875 E5.67207
G1 X93.633 Y98.556 E5.69033
G1 X93.808 Y98.318 E5.70408
G1 X94.243 Y97.744 E5.73762
G1 X94.682 Y97.18 E5.7709
G1 X95.289 Y96.466 E5.81454
G1 X95.743 Y96.002 E5.84477
G0 F6000 X96.02 Y96.291
G1 F1200 X96.246 Y96.074 E5.85936
G1 X96.441 Y95.892 E5.87178
G1 X97.018 Y95.367 E5.9081
G1 X97.554 Y94.892 E5.94145
G1 X98.269 Y94.312 E5.98432
G1 X98.736 Y93.984 E6.01089
G1 X98.99 Y93.816 E6.02507
G1 X99.245 Y93.653 E6.03916
G1 X99.947 Y93.219 E6.0776
G1 X100.554 Y92.856 E6.11053
G1 X101.363 Y92.418 E6.15337
G1 X101.895 Y92.177 E6.18056
G1 X102.248 Y92.029 E6.19838
G1 X102.515 Y91.922 E6.21178
G1 X103.198 Y91.658 E6.24587
G1 X103.818 Y91.427 E6.27668
G1 X104.694 Y91.143 E6.31956
G1 X105.223 Y91.012 E6.34494
G1 X105.579 Y90.933 E6.36192
G1 X105.916 Y90.864 E6.37794
G1 X106.662 Y90.724 E6.41328
G1 X107.353 Y90.604 E6.44594
G1 X108.266 Y90.486 E6.48881
G1 X108.843 Y90.453 E6.51572
G1 X109.17 Y90.443 E6.53095
G1 X109.494 Y90.438 E6.54604
G1 X110.123 Y90.438 E6.57533
G1 X110.997 Y90.45 E6.61603
G1 X111.916 Y90.504 E6.65889
G1 X112.476 Y90.577 E6.68519
G1 X112.782 Y90.625 E6.69961
G1 X113.071 Y90.675 E6.71327
G1 X113.833 Y90.817 E6.74936
G1 X114.568 Y90.966 E6.78428
G1 X115.462 Y91.188 E6.82718
G1 X115.99 Y91.359 E6.85302
G1 X116.313 Y91.473 E6.86897
G1 X116.607 Y91.582 E6.88357
G1 X117.299 Y91.851 E6.91814
G1 X117.996 Y92.133 E6.95315
G1 X118.833 Y92.515 E6.99599
G1 X119.373 Y92.81 E7.02465
G1 X119.667 Y92.982 E7.04051
G1 X119.89 Y93.116 E7.05262
G1 X120.551 Y93.526 E7.08884
G1 X121.125 Y93.893 E7.12056
G1 X121.878 Y94.423 E7.16344
G1 X122.328 Y94.788 E7.19042
G1 X122.6 Y95.022 E7.20713
G1 X122.827 Y95.223 E7.22125
G1 X123.233 Y95.593 E7.24683
G1 X123.903 Y96.222 E7.28962
G1 X124.546 Y96.881 E7.33249
G1 X124.895 Y97.291 E7.35756
G1 X125.099 Y97.544 E7.37269
G1 X125.295 Y97.796 E7.38756
G1 X125.794 Y98.457 E7.42612
G1 X126.194 Y99.004 E7.45768
G1 X126.595 Y99.592 E7.49082
G1 X126.983 Y100.253 E7.52651
G1 X127.128 Y100.522 E7.54074
G1 X127.288 Y100.832 E7.55698
G1 X127.63 Y101.521 E7.5928
G1 X127.943 Y102.174 E7.62652
G1 X128.304 Y103.021 E7.66939
G1 X128.497 Y103.579 E7.69689
G1 X128.601 Y103.91 E7.71304
G1 X128.681 Y104.179 E7.72611
G1 X128.899 Y104.947 E7.76328
G1 X129.075 Y105.604 E7.79495
G1 X129.158 Y105.936 E7.81089
G1 X129.366 Y107.112 E7.8665
G1 X129.405 Y107.44 E7.88188
G1 X129.434 Y107.719 E7.89494
G1 X129.505 Y108.499 E7.93141
G1 X129.556 Y109.146 E7.96163
G1 X129.589 Y110.066 E8.0045
G1 X129.572 Y110.587 E8.02877
G1 X129.55 Y110.97 E8.04663
G1 X129.52 Y111.356 E8.06466
G1 X129.451 Y112.079 E8.09848
G1 X129.375 Y112.786 E8.13159
G1 X129.237 Y113.696 E8.17445
G1 X129.11 Y114.262 E8.20146
G1 X129.014 Y114.64 E8.21962
G1 X128.933 Y114.941 E8.23414
G1 X128.738 Y115.619 E8.26699
G1 X128.535 Y116.296 E8.2999
G1 X128.233 Y117.165 E8.34273
G1 X127.993 Y117.721 E8.37093
G1 X127.853 Y118.022 E8.38639
G1 X127.736 Y118.266 E8.39899
G1 X127.38 Y118.98 E8.43614
G1 X127.067 Y119.587 E8.46794
G1 X126.61 Y120.386 E8.5108
G1 X126.275 Y120.885 E8.53879
G1 X126.056 Y121.192 E8.55635
G1 X125.883 Y121.428 E8.56997
G1 X125.533 Y121.891 E8.597
G1 X124.986 Y122.592 E8.6384
G1 X124.388 Y123.292 E8.68127
G1 X124.023 Y123.665 E8.70557
G1 X123.811 Y123.871 E8.71934
G1 X123.572 Y124.097 E8.73465
G1 X123.1 Y124.528 E8.76442
G1 X122.446 Y125.108 E8.80512
G1 X121.731 Y125.688 E8.84799
G1 X121.271 Y126.011 E8.87416
G1 X121.028 Y126.172 E8.88774
G1 X120.77 Y126.338 E8.90202
G1 X120.074 Y126.769 E8.94014
G1 X119.449 Y127.143 E8.97406
G1 X118.639 Y127.581 E9.01693
G1 X118.13 Y127.812 E9.04296
G1 X117.789 Y127.956 E9.0602
G1 X117.487 Y128.078 E9.07537
G1 X116.802 Y128.342 E9.10955
G1 X116.182 Y128.573 E9.14036
G1 X115.306 Y128.857 E9.18324
G1 X114.777 Y128.988 E9.20861
G1 X114.421 Y129.067 E9.22559
G1 X114.084 Y129.136 E9.24161
G1 X113.335 Y129.276 E9.27709
G1 X112.643 Y129.396 E9.3098
G1 X111.73 Y129.514 E9.35266
G1 X111.157 Y129.547 E9.37939
G1 X110.831 Y129.557 E9.39457
G1 X110.506 Y129.562 E9.40971
G1 X109.713 Y129.561 E9.44664
G1 X109.003 Y129.55 E9.4797
G1 X108.084 Y129.496 E9.52257
G1 X107.524 Y129.423 E9.54886
G1 X107.218 Y129.375 E9.56329
G1 X106.933 Y129.326 E9.57675
G1 X106.333 Y129.215 E9.60516
G1 X105.426 Y129.032 E9.64825
G1 X104.533 Y128.81 E9.6911
G1 X104.01 Y128.641 E9.71669
G1 X103.687 Y128.527 E9.73264
G1 X103.399 Y128.42 E9.74694
G1 X102.677 Y128.14 E9.783
G1 X101.997 Y127.864 E9.81718
G1 X101.159 Y127.481 E9.86008
G1 X100.648 Y127.201 E9.88721
G1 X100.351 Y127.028 E9.90322
G1 X100.11 Y126.884 E9.91629
G1 X99.451 Y126.475 E9.9524
G1 X98.872 Y126.105 E9.9844
G1 X98.119 Y125.576 E10.02725
G1 X97.645 Y125.189 E10.05574
G1 X97.378 Y124.958 E10.07218
G1 X97.166 Y124.77 E10.08538
G1 X96.643 Y124.291 E10.1184
G1 X96.101 Y123.782 E10.15302
G1 X95.457 Y123.123 E10.19593
G1 X95.105 Y122.709 E10.22123
G1 X94.901 Y122.456 E10.23637
G1 X94.705 Y122.204 E10.25123
G1 X94.2 Y121.535 E10.29026
G1 X93.792 Y120.976 E10.32249
G1 X93.282 Y120.21 E10.36534
G1 X93.032 Y119.772 E10.38882
G1 X92.881 Y119.493 E10.40359
G1 X92.709 Y119.163 E10.42092
G1 X92.343 Y118.423 E10.45936
G1 X92.05 Y117.81 E10.491
G1 X91.69 Y116.963 E10.53385
G1 X91.498 Y116.404 E10.56138
G1 X91.396 Y116.078 E10.57728
G1 X91.316 Y115.812 E10.59022
G1 X91.104 Y115.061 E10.62655
G1 X90.927 Y114.403 E10.65828
G1 X90.727 Y113.505 E10.70112
G1 X90.645 Y112.965 E10.72655
G1 X90.607 Y112.661 E10.74082
G1 X90.57 Y112.327 E10.75647
G1 X90.507 Y111.649 E10.78817
G1 X90.444 Y110.854 E10.82531
G1 X90.411 Y109.934 E10.86817
G1 X90.428 Y109.413 E10.89245
G1 X90.45 Y109.03 E10.91031
G1 X90.48 Y108.644 E10.92834
G1 X90.547 Y107.934 E10.96154
G1 X90.622 Y107.228 E10.9946
G1 X90.759 Y106.318 E11.03746
G1 X90.892 Y105.766 E11.06389
G1 X90.884 Y105.764 E11.06428
G1 X90.965 Y105.441 E11.07978
G1 X91.048 Y105.13 E11.09477
G1 X91.264 Y104.373 E11.13143
G1 X91.47 Y103.688 E11.16474
G1 X91.773 Y102.819 E11.20759
G1 X92.019 Y102.251 E11.23641
G1 X92.156 Y101.958 E11.25147
G1 X92.267 Y101.727 E11.26341
G1 X92.628 Y101.004 E11.30104
G1 X92.931 Y100.416 E11.33184
G1 X93.388 Y99.616 E11.37474
G1 X93.73 Y99.107 E11.40329
G1 X93.958 Y98.788 E11.42155
G1 X94.127 Y98.559 E11.4348
G1 X94.558 Y97.99 E11.46804
G1 X94.997 Y97.426 E11.50132
G1 X95.594 Y96.725 E11.5442
G1 X96.02 Y96.291 E11.57251
G0 F6000 X96.297 Y96.579
G1 F1200 X96.523 Y96.362 E11.5871
G1 X96.71 Y96.187 E11.59903
G1 X97.283 Y95.666 E11.63509
G1 X97.819 Y95.191 E11.66844
G1 X98.521 Y94.623 E11.71049
G1 X98.957 Y94.318 E11.73526
G1 X99.211 Y94.15 E11.74944
G1 X99.456 Y93.992 E11.76302
G1 X100.005 Y93.651 E11.79311
G1 X100.759 Y93.199 E11.83405
G1 X101.554 Y92.77 E11.87611
G1 X102.05 Y92.546 E11.90145
G1 X102.403 Y92.398 E11.91928
G1 X102.66 Y92.295 E11.93217
G1 X103.338 Y92.033 E11.96601
G1 X103.958 Y91.802 E11.99682
G1 X104.817 Y91.524 E12.03886
G1 X105.309 Y91.402 E12.06247
G1 X105.665 Y91.323 E12.07945
G1 X105.99 Y91.257 E12.09489
G1 X106.731 Y91.118 E12.12999
G1 X107.422 Y90.998 E12.16265
G1 X108.318 Y90.883 E12.20472
G1 X108.855 Y90.853 E12.22976
G1 X109.182 Y90.843 E12.24499
G1 X109.494 Y90.838 E12.25952
G1 X110.123 Y90.838 E12.28881
G1 X110.991 Y90.85 E12.32923
G1 X111.893 Y90.904 E12.37131
G1 X112.414 Y90.972 E12.39578
G1 X112.72 Y91.02 E12.4102
G1 X112.998 Y91.068 E12.42333
G1 X113.754 Y91.209 E12.45914
G1 X114.489 Y91.358 E12.49407
G1 X115.365 Y91.577 E12.53611
G1 X115.857 Y91.736 E12.56019
G1 X116.18 Y91.85 E12.57614
G1 X116.463 Y91.955 E12.59019
G1 X117.149 Y92.222 E12.62447
G1 X117.846 Y92.504 E12.65948
G1 X118.667 Y92.879 E12.70151
G1 X119.171 Y93.155 E12.72827
G1 X119.465 Y93.327 E12.74413
G1 X119.68 Y93.457 E12.75583
G1 X120.336 Y93.863 E12.79175
G1 X120.91 Y94.23 E12.82347
G1 X121.648 Y94.75 E12.86551
G1 X122.067 Y95.092 E12.89069
G1 X122.339 Y95.326 E12.9074
G1 X122.557 Y95.519 E12.92096
G1 X123.079 Y95.996 E12.95389
G1 X123.629 Y96.513 E12.98903
G1 X124.259 Y97.16 E13.03108
G1 X124.583 Y97.543 E13.05444
G1 X124.787 Y97.796 E13.06958
G1 X124.977 Y98.038 E13.0839
G1 X125.368 Y98.554 E13.11405
G1 X125.871 Y99.24 E13.15366
G1 X126.257 Y99.807 E13.1856
G1 X126.631 Y100.443 E13.21996
G1 X126.776 Y100.712 E13.23418
G1 X126.93 Y101.01 E13.2498
G1 X127.269 Y101.694 E13.28535
G1 X127.582 Y102.347 E13.31907
G1 X127.936 Y103.178 E13.36113
G1 X128.115 Y103.699 E13.38678
G1 X128.219 Y104.03 E13.40294
G1 X128.297 Y104.289 E13.41553
G1 X128.513 Y105.051 E13.45241
G1 X128.689 Y105.708 E13.48408
G1 X128.769 Y106.028 E13.49944
G1 X128.969 Y107.16 E13.55297
G1 X129.008 Y107.488 E13.56835
G1 X129.036 Y107.756 E13.5809
G1 X129.106 Y108.53 E13.61709
G1 X129.157 Y109.177 E13.64731
G1 X129.188 Y110.08 E13.68938
G1 X129.172 Y110.564 E13.71193
G1 X129.15 Y110.947 E13.72979
G1 X129.122 Y111.318 E13.74712
G1 X129.054 Y112.036 E13.7807
G1 X128.978 Y112.743 E13.81381
G1 X128.841 Y113.636 E13.85588
G1 X128.722 Y114.164 E13.88108
G1 X128.626 Y114.542 E13.89924
G1 X128.548 Y114.831 E13.91318
G1 X128.355 Y115.504 E13.94578
G1 X128.152 Y116.181 E13.97869
G1 X127.855 Y117.033 E14.0207
G1 X127.631 Y117.553 E14.04707
G1 X127.491 Y117.854 E14.06253
G1 X127.378 Y118.088 E14.07463
G1 X127.025 Y118.797 E14.11151
G1 X126.712 Y119.404 E14.14331
G1 X126.263 Y120.187 E14.18534
G1 X125.95 Y120.653 E14.21147
G1 X125.731 Y120.96 E14.22903
G1 X125.564 Y121.187 E14.24216
G1 X125.112 Y121.782 E14.27695
G1 X124.671 Y122.346 E14.31029
G1 X124.084 Y123.032 E14.35233
G1 X123.744 Y123.378 E14.37492
G1 X123.532 Y123.584 E14.38868
