;FLAVOR:Marlin
;TIME:2140
;Filament used: 1.6956m
;Layer height: 0.28
;MINX:93.195
;MINY:93.158
;MINZ:0.28
;MAXX:126.806
;MAXY:126.83
;MAXZ:19.32
;Generated with Cura_SteamEngine 4.8.0
M140 S60
M105
M190 S60
M104 S205
M105
M109 S205
M82 ;absolute extrusion mode
; Ender 3 Custom Start G-code
G92 E0 ; Reset Extruder
G28 ; Home all axes
G1 Z2.0 F3000 ; Move Z Axis up little to prevent scratching of Heat Bed
G1 X0.1 Y20 Z0.3 F5000.0 ; Move to start position
G1 X0.1 Y200.0 Z0.3 F1500.0 E15 ; Draw the first line
G1 X0.4 Y200.0 Z0.3 F5000.0 ; Move to side a little
G1 X0.4 Y20 Z0.3 F1500.0 E30 ; Draw the second line
G92 E0 ; Reset Extruder
G1 Z2.0 F3000 ; Move Z Axis up little to prevent scratching of Heat Bed
G1 X5 Y20 Z0.3 F5000.0 ; Move over to prevent blob squish
G92 E0
G92 E0
G1 F2400 E-6.5
;LAYER_COUNT:70
;LAYER:0
M107
G0 F6000 X97.9 Y98.284 Z0.28
;TYPE:SKIRT
G1 F2400 E0
G1 F1200 X98.919 Y97.352 E0.0643
G1 X99.119 Y97.191 E0.07626
G1 X99.362 Y97.002 E0.09059
G1 X100.12 Y96.426 E0.13492
G1 X100.628 Y96.062 E0.16402
G1 X101.226 Y95.659 E0.1976
G1 X102.025 Y95.169 E0.24124
G1 X102.573 Y94.884 E0.27001
G1 X102.806 Y94.771 E0.28206
G1 X104.09 Y94.245 E0.34668
G1 X104.339 Y94.161 E0.35891
G1 X104.791 Y94.019 E0.38097
G1 X105.415 Y93.838 E0.41123
G1 X105.995 Y93.687 E0.43913
G1 X106.228 Y93.633 E0.45027
G1 X106.558 Y93.562 E0.46599
G1 X107.292 Y93.417 E0.50083
G1 X107.73 Y93.337 E0.52156
G1 X108.659 Y93.208 E0.56523
G1 X109.381 Y93.163 E0.59892
G1 X109.55 Y93.158 E0.60679
G1 X110.487 Y93.17 E0.65042
G1 X111.01 Y93.212 E0.67486
G1 X112.091 Y93.319 E0.72544
G1 X112.413 Y93.356 E0.74053
G1 X113.057 Y93.449 E0.77083
G1 X113.365 Y93.503 E0.78539
G1 X114.281 Y93.704 E0.82906
G1 X115.176 Y93.983 E0.87271
G1 X115.639 Y94.161 E0.89581
G1 X116.507 Y94.517 E0.93949
G1 X116.904 Y94.689 E0.95964
G1 X117.136 Y94.795 E0.97152
G1 X117.72 Y95.083 E1.00184
G1 X118.261 Y95.37 E1.03035
G1 X118.509 Y95.506 E1.04352
G1 X118.853 Y95.7 E1.06191
G1 X119.65 Y96.195 E1.1056
G1 X120.575 Y96.901 E1.15978
G1 X120.822 Y97.111 E1.17488
G1 X121.516 Y97.754 E1.21893
G1 X121.798 Y98.039 E1.2376
G1 X121.988 Y98.236 E1.25035
G1 X122.39 Y98.663 E1.27766
G1 X122.822 Y99.149 E1.30793
G1 X123.361 Y99.794 E1.34707
G1 X123.931 Y100.539 E1.39075
G1 X124.314 Y101.125 E1.42335
G1 X124.459 Y101.363 E1.43633
G1 X125.104 Y102.59 E1.50088
G1 X125.22 Y102.849 E1.51409
G1 X125.382 Y103.229 E1.53333
G1 X125.61 Y103.794 E1.5617
G1 X125.735 Y104.119 E1.57791
G1 X125.793 Y104.277 E1.58575
G1 X125.97 Y104.799 E1.61141
G1 X126.184 Y105.493 E1.64523
G1 X126.342 Y106.036 E1.67156
G1 X126.565 Y106.947 E1.71523
G1 X126.721 Y107.971 E1.76347
G1 X126.747 Y108.221 E1.77517
G1 X126.806 Y109.359 E1.82823
G1 X126.806 Y110.553 E1.88383
G1 X126.798 Y110.553 E1.8842
G1 X126.802 Y110.966 E1.90343
G1 X126.734 Y111.869 E1.9456
G1 X126.7 Y112.16 E1.95924
G1 X126.551 Y113.086 E2.00292
G1 X126.309 Y114.046 E2.04902
G1 X125.97 Y115.175 E2.10391
G1 X125.63 Y116.143 E2.15168
G1 X125.35 Y116.834 E2.1864
G1 X125.249 Y117.076 E2.19861
G1 X125.142 Y117.323 E2.21114
G1 X124.732 Y118.166 E2.25479
G1 X124.496 Y118.584 E2.27714
G1 X124.4 Y118.745 E2.28587
G1 X123.886 Y119.529 E2.32952
G1 X123.417 Y120.135 E2.36521
G1 X122.954 Y120.693 E2.39897
G1 X122.799 Y120.876 E2.41013
G1 X122.616 Y121.087 E2.42314
G1 X122.409 Y121.319 E2.43762
G1 X122.252 Y121.49 E2.44843
G1 X122.018 Y121.737 E2.46427
G1 X121.512 Y122.255 E2.49799
G1 X120.828 Y122.898 E2.5417
G1 X120.308 Y123.32 E2.57289
G1 X120.094 Y123.483 E2.58541
G1 X118.958 Y124.241 E2.649
G1 X118.688 Y124.398 E2.66355
G1 X118.299 Y124.614 E2.68427
G1 X117.773 Y124.892 E2.71197
G1 X117.457 Y125.053 E2.72848
G1 X117.332 Y125.114 E2.73496
G1 X116.852 Y125.334 E2.75955
G1 X116.257 Y125.588 E2.78967
G1 X115.671 Y125.829 E2.81917
G1 X114.789 Y126.149 E2.86286
G1 X114.042 Y126.355 E2.89895
G1 X113.841 Y126.403 E2.90857
G1 X112.92 Y126.582 E2.95226
G1 X112.406 Y126.647 E2.97638
G1 X111.552 Y126.734 E3.01635
G1 X111.282 Y126.765 E3.02901
G1 X110.685 Y126.816 E3.05691
G1 X110.463 Y126.829 E3.06726
G1 X109.183 Y126.83 E3.12686
G1 X109.114 Y126.826 E3.13008
G1 X108.181 Y126.731 E3.17375
G1 X107.674 Y126.646 E3.19769
G1 X106.53 Y126.426 E3.25194
G1 X105.539 Y126.187 E3.2994
G1 X104.637 Y125.925 E3.34314
G1 X104.337 Y125.834 E3.35774
G1 X103.104 Y125.367 E3.41913
G1 X102.897 Y125.274 E3.4297
G1 X102.059 Y124.853 E3.47337
G1 X101.26 Y124.363 E3.51701
G1 X100.491 Y123.845 E3.56018
G1 X100.067 Y123.545 E3.58437
G1 X99.84 Y123.376 E3.59755
G1 X99.613 Y123.203 E3.61084
G1 X99.109 Y122.807 E3.64068
G1 X98.703 Y122.471 E3.66522
G1 X98.546 Y122.335 E3.67489
G1 X97.864 Y121.692 E3.71854
G1 X97.298 Y121.063 E3.75794
G1 X96.784 Y120.401 E3.79697
G1 X96.343 Y119.786 E3.83221
G1 X96.119 Y119.462 E3.85055
G1 X95.939 Y119.191 E3.8657
G1 X95.728 Y118.862 E3.8839
G1 X95.467 Y118.422 E3.90772
G1 X95.294 Y118.115 E3.92413
G1 X95.166 Y117.881 E3.93655
G1 X94.817 Y117.225 E3.97115
G1 X94.412 Y116.379 E4.01482
G1 X94.159 Y115.73 E4.04726
G1 X94.085 Y115.521 E4.05758
G1 X93.704 Y114.183 E4.12236
G1 X93.63 Y113.842 E4.13861
G1 X93.561 Y113.495 E4.15508
G1 X93.463 Y112.961 E4.18036
G1 X93.324 Y111.935 E4.22857
G1 X93.237 Y110.942 E4.27499
G1 X93.195 Y110.005 E4.31866
G1 X93.234 Y109.06 E4.3627
G1 X93.299 Y108.287 E4.39882
G1 X93.439 Y107.235 E4.44824
G1 X93.615 Y106.27 E4.49392
G1 X93.701 Y105.844 E4.51415
G1 X94.004 Y104.735 E4.56769
G1 X94.087 Y104.484 E4.58
G1 X94.419 Y103.607 E4.62366
G1 X94.84 Y102.734 E4.66879
G1 X95.123 Y102.207 E4.69665
G1 X95.22 Y102.022 E4.70637
G1 X95.497 Y101.526 E4.73283
G1 X95.661 Y101.25 E4.74778
G1 X95.98 Y100.746 E4.77555
G1 X96.242 Y100.355 E4.79747
G1 X96.391 Y100.137 E4.80976
G1 X96.664 Y99.75 E4.83181
G1 X97.237 Y99.008 E4.87547
G1 X97.736 Y98.454 E4.91019
G1 X97.9 Y98.284 E4.92118
G0 F6000 X98.188 Y98.562
G1 F1200 X99.17 Y97.664 E4.98315
G1 X99.37 Y97.503 E4.9951
G1 X99.604 Y97.32 E5.00894
G1 X100.362 Y96.744 E5.05327
G1 X100.851 Y96.394 E5.08127
G1 X101.449 Y95.991 E5.11484
G1 X102.234 Y95.51 E5.15771
G1 X102.747 Y95.243 E5.18464
G1 X102.98 Y95.13 E5.1967
G1 X104.218 Y94.624 E5.25898
G1 X104.467 Y94.54 E5.27121
G1 X104.902 Y94.404 E5.29244
G1 X105.526 Y94.223 E5.32269
G1 X106.086 Y94.077 E5.34964
G1 X106.319 Y94.023 E5.36077
G1 X106.637 Y93.954 E5.37593
G1 X107.193 Y93.843 E5.40233
G1 X107.801 Y93.731 E5.43111
G1 X108.713 Y93.605 E5.47398
G1 X109.393 Y93.563 E5.50571
G1 X109.562 Y93.558 E5.51358
G1 X110.482 Y93.57 E5.55642
G1 X110.969 Y93.61 E5.57918
G1 X111.404 Y93.652 E5.59953
G1 X111.899 Y93.7 E5.62268
G1 X112.367 Y93.753 E5.64461
G1 X112.988 Y93.843 E5.67383
G1 X113.296 Y93.897 E5.68839
G1 X114.195 Y94.095 E5.73126
G1 X115.487 Y94.531 E5.79475
G1 X116.355 Y94.887 E5.83844
G1 X116.738 Y95.053 E5.85787
G1 X116.97 Y95.159 E5.86975
G1 X117.533 Y95.436 E5.89897
G1 X118.074 Y95.723 E5.92748
G1 X118.313 Y95.854 E5.94018
G1 X118.657 Y96.048 E5.95857
G1 X119.438 Y96.535 E6.00142
G1 X120.316 Y97.205 E6.05285
G1 X120.563 Y97.415 E6.06795
G1 X121.232 Y98.035 E6.11042
G1 X121.514 Y98.32 E6.12909
G1 X121.697 Y98.51 E6.14137
G1 X122.099 Y98.937 E6.16868
G1 X122.515 Y99.406 E6.19787
G1 X123.054 Y100.051 E6.23701
G1 X123.613 Y100.782 E6.27986
G1 X123.972 Y101.333 E6.31048
G1 X124.117 Y101.571 E6.32346
G1 X124.739 Y102.753 E6.38565
G1 X124.855 Y103.012 E6.39887
G1 X125.011 Y103.378 E6.4174
G1 X125.239 Y103.943 E6.44577
G1 X125.36 Y104.257 E6.46143
G1 X125.418 Y104.415 E6.46927
G1 X125.588 Y104.918 E6.494
G1 X125.8 Y105.604 E6.52743
G1 X125.958 Y106.147 E6.55376
G1 X126.176 Y107.042 E6.59666
G1 X126.323 Y108.013 E6.64238
G1 X126.349 Y108.263 E6.65409
G1 X126.406 Y109.359 E6.70519
G1 X126.406 Y110.553 E6.76079
G1 X126.398 Y110.553 E6.76116
G1 X126.401 Y110.97 E6.78058
G1 X126.336 Y111.822 E6.82037
G1 X126.302 Y112.113 E6.83401
G1 X126.156 Y113.022 E6.87688
G1 X125.926 Y113.931 E6.92054
G1 X125.587 Y115.06 E6.97543
G1 X125.259 Y115.993 E7.02148
G1 X124.979 Y116.684 E7.0562
G1 X124.882 Y116.917 E7.06795
G1 X124.775 Y117.164 E7.08048
G1 X124.152 Y118.379 E7.14406
G1 X124.056 Y118.54 E7.15279
G1 X123.551 Y119.309 E7.19563
G1 X123.11 Y119.88 E7.22922
G1 X122.647 Y120.438 E7.26299
G1 X122.314 Y120.825 E7.28676
G1 X122.114 Y121.049 E7.30074
G1 X121.957 Y121.22 E7.31155
G1 X121.732 Y121.458 E7.3268
G1 X121.226 Y121.976 E7.36052
G1 X120.554 Y122.606 E7.40341
G1 X120.066 Y123.001 E7.43265
G1 X119.852 Y123.164 E7.44517
G1 X118.757 Y123.895 E7.50648
G1 X118.487 Y124.052 E7.52102
G1 X118.112 Y124.261 E7.54101
G1 X117.586 Y124.539 E7.56872
G1 X117.282 Y124.693 E7.58458
G1 X117.157 Y124.754 E7.59106
G1 X116.694 Y124.966 E7.61477
G1 X116.105 Y125.218 E7.6446
G1 X115.519 Y125.459 E7.67411
G1 X114.653 Y125.772 E7.71699
G1 X113.949 Y125.966 E7.75099
G1 X113.748 Y126.014 E7.76061
G1 X112.844 Y126.189 E7.80349
G1 X112.365 Y126.249 E7.82597
G1 X111.47 Y126.341 E7.86786
G1 X111.237 Y126.367 E7.87878
G1 X110.662 Y126.417 E7.90565
G1 X110.44 Y126.43 E7.91601
G1 X109.207 Y126.43 E7.97342
G1 X109.138 Y126.426 E7.97664
G1 X108.222 Y126.333 E8.01951
G1 X107.749 Y126.253 E8.04185
G1 X106.605 Y126.033 E8.09609
G1 X105.65 Y125.803 E8.14183
G1 X104.748 Y125.541 E8.18557
G1 X104.456 Y125.452 E8.19979
G1 X103.268 Y125.002 E8.25894
G1 X103.061 Y124.909 E8.26951
G1 X102.238 Y124.496 E8.31238
G1 X101.483 Y124.031 E8.35367
G1 X100.714 Y123.513 E8.39685
G1 X100.306 Y123.224 E8.42013
G1 X100.079 Y123.055 E8.43331
G1 X99.86 Y122.888 E8.44613
G1 X99.356 Y122.492 E8.47598
G1 X98.965 Y122.169 E8.49959
G1 X98.808 Y122.033 E8.50926
G1 X98.139 Y121.401 E8.55212
G1 X97.58 Y120.777 E8.59113
G1 X97.109 Y120.168 E8.62698
G1 X96.668 Y119.553 E8.66221
G1 X96.452 Y119.241 E8.67988
G1 X96.272 Y118.97 E8.69503
G1 X96.067 Y118.65 E8.71273
G1 X95.815 Y118.226 E8.7357
G1 X95.642 Y117.919 E8.7521
G1 X95.519 Y117.694 E8.76405
G1 X95.17 Y117.038 E8.79865
G1 X94.773 Y116.207 E8.84153
G1 X94.536 Y115.597 E8.872
G1 X94.462 Y115.388 E8.88233
G1 X94.095 Y114.098 E8.94478
G1 X94.021 Y113.757 E8.96102
G1 X93.954 Y113.422 E8.97693
G1 X93.856 Y112.888 E9.00221
G1 X93.722 Y111.9 E9.04864
G1 X93.635 Y110.907 E9.09506
G1 X93.595 Y109.987 E9.13793
G1 X93.632 Y109.094 E9.17955
G1 X93.697 Y108.321 E9.21567
G1 X93.832 Y107.307 E9.26331
G1 X94.008 Y106.342 E9.30898
G1 X94.092 Y105.929 E9.32861
G1 X94.384 Y104.861 E9.38016
G1 X94.467 Y104.61 E9.39247
G1 X94.794 Y103.749 E9.43536
G1 X95.192 Y102.923 E9.47805
G1 X95.574 Y102.208 E9.5158
G1 X95.841 Y101.73 E9.54129
G1 X96.005 Y101.454 E9.55624
G1 X96.312 Y100.968 E9.58301
G1 X96.574 Y100.577 E9.60493
G1 X96.718 Y100.368 E9.61674
G1 X96.991 Y99.981 E9.6388
G1 X97.554 Y99.252 E9.68169
G1 X98.024 Y98.732 E9.71433
G1 X98.188 Y98.562 E9.72532
G0 F6000 X98.476 Y98.839
G1 F1200 X99.421 Y97.976 E9.78492
G1 X99.621 Y97.815 E9.79687
G1 X99.846 Y97.639 E9.81017
G1 X100.604 Y97.063 E9.8545
G1 X101.075 Y96.725 E9.8815
G1 X101.673 Y96.322 E9.91508
G1 X102.443 Y95.851 E9.95711
G1 X102.922 Y95.603 E9.98222
G1 X103.155 Y95.49 E9.99428
G1 X104.346 Y95.003 E10.0542
G1 X104.595 Y94.919 E10.06643
G1 X105.013 Y94.788 E10.08683
G1 X105.637 Y94.607 E10.11708
G1 X106.176 Y94.466 E10.14303
G1 X106.409 Y94.412 E10.15416
G1 X106.715 Y94.346 E10.16874
G1 X107.435 Y94.204 E10.20291
G1 X107.873 Y94.124 E10.22364
G1 X108.768 Y94.001 E10.26571
G1 X109.404 Y93.962 E10.29538
G1 X109.573 Y93.957 E10.30325
G1 X110.476 Y93.971 E10.34531
G1 X110.928 Y94.007 E10.36642
G1 X111.197 Y94.035 E10.37901
G1 X111.501 Y94.062 E10.39322
G1 X111.999 Y94.114 E10.41654
G1 X112.321 Y94.151 E10.43163
G1 X112.918 Y94.237 E10.45972
G1 X113.226 Y94.291 E10.47428
G1 X114.108 Y94.486 E10.51634
G1 X115.336 Y94.901 E10.5767
G1 X116.204 Y95.257 E10.62038
G1 X116.572 Y95.416 E10.63905
G1 X116.804 Y95.522 E10.65093
G1 X117.345 Y95.789 E10.67902
G1 X117.886 Y96.076 E10.70753
G1 X118.116 Y96.202 E10.71975
G1 X118.46 Y96.396 E10.73814
G1 X119.227 Y96.874 E10.78022
G1 X120.057 Y97.51 E10.82891
G1 X120.304 Y97.72 E10.844
G1 X120.948 Y98.317 E10.8849
G1 X121.23 Y98.602 E10.90356
G1 X121.406 Y98.784 E10.91535
G1 X121.808 Y99.211 E10.94266
G1 X122.208 Y99.662 E10.97073
G1 X122.747 Y100.307 E11.00987
G1 X123.295 Y101.025 E11.05193
G1 X123.631 Y101.541 E11.0806
G1 X123.776 Y101.779 E11.09358
G1 X124.374 Y102.917 E11.15344
G1 X124.49 Y103.176 E11.16665
G1 X124.64 Y103.528 E11.18447
G1 X124.868 Y104.093 E11.21284
G1 X124.984 Y104.395 E11.22791
G1 X125.042 Y104.553 E11.23574
G1 X125.206 Y105.037 E11.25954
G1 X125.416 Y105.716 E11.29263
G1 X125.574 Y106.259 E11.31897
G1 X125.787 Y107.137 E11.36104
G1 X125.925 Y108.054 E11.40422
G1 X125.951 Y108.304 E11.41592
G1 X126.006 Y109.359 E11.46511
G1 X126.006 Y110.553 E11.52071
G1 X125.998 Y110.553 E11.52108
G1 X126.001 Y110.973 E11.54064
G1 X125.939 Y111.776 E11.57814
G1 X125.905 Y112.067 E11.59178
G1 X125.761 Y112.958 E11.63381
G1 X125.543 Y113.816 E11.67503
G1 X125.204 Y114.945 E11.72992
G1 X124.888 Y115.843 E11.77425
G1 X124.608 Y116.534 E11.80897
G1 X124.515 Y116.758 E11.82026
G1 X124.408 Y117.005 E11.83279
G1 X123.809 Y118.174 E11.89396
G1 X123.713 Y118.335 E11.90269
G1 X123.216 Y119.089 E11.94474
G1 X122.802 Y119.624 E11.97624
G1 X122.339 Y120.182 E12.01
G1 X122.195 Y120.352 E12.02037
G1 X122.012 Y120.563 E12.03338
G1 X121.819 Y120.778 E12.04683
G1 X121.662 Y120.949 E12.05764
G1 X121.446 Y121.178 E12.0723
G1 X120.94 Y121.696 E12.10602
G1 X120.28 Y122.314 E12.14812
G1 X119.823 Y122.683 E12.17547
G1 X119.609 Y122.846 E12.188
G1 X118.556 Y123.55 E12.24698
G1 X118.286 Y123.707 E12.26152
G1 X117.925 Y123.907 E12.28074
G1 X117.399 Y124.185 E12.30844
G1 X117.106 Y124.334 E12.32375
G1 X116.981 Y124.395 E12.33022
G1 X116.536 Y124.599 E12.35302
G1 X115.953 Y124.848 E12.38254
G1 X115.367 Y125.089 E12.41204
G1 X114.517 Y125.396 E12.45412
G1 X113.856 Y125.577 E12.48604
G1 X113.655 Y125.625 E12.49566
G1 X112.324 Y125.851 E12.55852
G1 X111.478 Y125.938 E12.59812
G1 X111.192 Y125.97 E12.61152
G1 X110.638 Y126.018 E12.63742
G1 X110.416 Y126.031 E12.64777
G1 X109.23 Y126.031 E12.703
G1 X109.161 Y126.027 E12.70622
G1 X107.825 Y125.86 E12.76891
G1 X106.681 Y125.64 E12.82315
G1 X105.762 Y125.419 E12.86717
G1 X104.669 Y125.1 E12.92019
G1 X104.576 Y125.071 E12.92472
G1 X103.432 Y124.637 E12.9817
G1 X103.225 Y124.544 E12.99226
G1 X102.418 Y124.138 E13.03433
G1 X101.707 Y123.7 E13.07321
G1 X100.938 Y123.182 E13.11639
G1 X100.545 Y122.904 E13.1388
G1 X100.318 Y122.735 E13.15198
G1 X100.107 Y122.573 E13.16437
G1 X99.603 Y122.177 E13.19421
G1 X99.227 Y121.867 E13.2169
G1 X99.07 Y121.731 E13.22658
G1 X98.414 Y121.11 E13.26864
G1 X97.887 Y120.521 E13.30544
G1 X97.434 Y119.935 E13.33993
G1 X96.993 Y119.32 E13.37517
G1 X96.785 Y119.019 E13.3922
G1 X96.605 Y118.748 E13.40735
G1 X96.406 Y118.437 E13.42455
G1 X96.164 Y118.03 E13.44659
G1 X95.991 Y117.723 E13.463
G1 X95.872 Y117.506 E13.47453
G1 X95.523 Y116.85 E13.50913
G1 X95.135 Y116.034 E13.5512
G1 X94.913 Y115.463 E13.57973
G1 X94.839 Y115.254 E13.59005
G1 X94.486 Y114.013 E13.65013
G1 X94.412 Y113.672 E13.66638
G1 X94.348 Y113.35 E13.68166
G1 X94.25 Y112.816 E13.70694
G1 X94.121 Y111.865 E13.75163
G1 X94.034 Y110.872 E13.79805
G1 X93.995 Y109.97 E13.84009
G1 X94.031 Y109.127 E13.87938
G1 X94.096 Y108.354 E13.9155
G1 X94.226 Y107.379 E13.9613
G1 X94.402 Y106.414 E14.00698
G1 X94.482 Y106.015 E14.02592
G1 X94.764 Y104.987 E14.07556
G1 X94.847 Y104.736 E14.08787
G1 X95.168 Y103.892 E14.12992
G1 X95.545 Y103.112 E14.17026
G1 X95.802 Y102.634 E14.19553
G1 X95.928 Y102.394 E14.20815
G1 X96.185 Y101.935 E14.23265
G1 X96.349 Y101.659 E14.2476
G1 X96.644 Y101.191 E14.27336
G1 X96.906 Y100.8 E14.29527
G1 X97.045 Y100.598 E14.30669
G1 X97.318 Y100.211 E14.32874
G1 X97.871 Y99.497 E14.37079
G1 X98.312 Y99.009 E14.40142
G1 X98.476 Y98.839 E14.41242
G1 F2400 E7.91242
;MESH:Rubber Ball.stl
G0 F6000 X104.075 Y107.381
G0 X104.942 Y107.848
G0 X104.658 Y110
G0 X104.775 Y111.111
G0 X105.12 Y112.173
G0 X105.679 Y113.139
G0 X106.426 Y113.969
G0 X107.331 Y114.625
G0 X108.156 Y114.993
G0 X109.38 Y115.383
G0 X109.456 Y115.173
;TYPE:WALL-OUTER
G1 F2400 E14.41242
G1 F1200 X110.544 Y115.173 E14.46308
G1 X111.607 Y114.946 E14.5137
G1 X112.6 Y114.504 E14.56431
G1 X113.481 Y113.865 E14.61499
G1 X114.208 Y113.057 E14.6656
