;FLAVOR:Marlin
;TIME:1533
;Filament used: 1.31654m
;Layer height: 0.28
;MINX:95.136
;MINY:95.091
;MINZ:0.28
;MAXX:124.89
;MAXY:124.906
;MAXZ:20.16
;Generated with Cura_SteamEngine 4.8.0
M140 S60
M105
M190 S60
M104 S205
M105
M109 S205
M82 ;absolute extrusion mode
; Ender 3 Custom Start G-code
G92 E0 ; Reset Extruder
G28 ; Home all axes
G1 Z2.0 F3000 ; Move Z Axis up little to prevent scratching of Heat Bed
G1 X0.1 Y20 Z0.3 F5000.0 ; Move to start position
G1 X0.1 Y200.0 Z0.3 F1500.0 E15 ; Draw the first line
G1 X0.4 Y200.0 Z0.3 F5000.0 ; Move to side a little
G1 X0.4 Y20 Z0.3 F1500.0 E30 ; Draw the second line
G92 E0 ; Reset Extruder
G1 Z2.0 F3000 ; Move Z Axis up little to prevent scratching of Heat Bed
G1 X5 Y20 Z0.3 F5000.0 ; Move over to prevent blob squish
G92 E0
G92 E0
G1 F2400 E-6.5
;LAYER_COUNT:73
;LAYER:0
M107
G0 F6000 X99.814 Y99.123 Z0.28
;TYPE:SKIRT
G1 F2400 E0
G1 F1200 X100.146 Y98.816 E0.02106
G1 X100.861 Y98.209 E0.06473
G1 X101.648 Y97.65 E0.10968
G1 X101.885 Y97.497 E0.12281
G1 X102.151 Y97.331 E0.13741
G1 X102.387 Y97.188 E0.15026
G1 X102.773 Y96.965 E0.17102
G1 X103.034 Y96.821 E0.1849
G1 X103.429 Y96.613 E0.20569
G1 X103.537 Y96.559 E0.21131
G1 X104.393 Y96.176 E0.25498
G1 X105.278 Y95.867 E0.29863
G1 X105.784 Y95.728 E0.32306
G1 X106.491 Y95.552 E0.35699
G1 X107.189 Y95.388 E0.39037
G1 X108.11 Y95.212 E0.43403
G1 X109.177 Y95.109 E0.48395
G1 X109.281 Y95.104 E0.4888
G1 X109.902 Y95.091 E0.51772
G1 X110.138 Y95.093 E0.52871
G1 X110.731 Y95.114 E0.55634
G1 X111.067 Y95.135 E0.57202
G1 X111.572 Y95.179 E0.59562
G1 X111.829 Y95.207 E0.60766
G1 X113.046 Y95.409 E0.6651
G1 X113.416 Y95.492 E0.68276
G1 X114.303 Y95.73 E0.72552
G1 X114.389 Y95.757 E0.72972
G1 X114.974 Y95.959 E0.75854
G1 X115.287 Y96.077 E0.77411
G1 X115.75 Y96.26 E0.7973
G1 X116.585 Y96.633 E0.83988
G1 X116.904 Y96.792 E0.85648
G1 X117.342 Y97.023 E0.87953
G1 X118.144 Y97.509 E0.9232
G1 X118.591 Y97.823 E0.94864
G1 X119.044 Y98.161 E0.97496
G1 X119.281 Y98.345 E0.98893
G1 X119.785 Y98.761 E1.01936
G1 X120.052 Y98.995 E1.03589
G1 X120.247 Y99.17 E1.04809
G1 X120.911 Y99.833 E1.09178
G1 X121.516 Y100.55 E1.13546
G1 X121.836 Y100.986 E1.16065
G1 X122.196 Y101.504 E1.19002
G1 X122.643 Y102.163 E1.2271
G1 X123.136 Y102.961 E1.27078
G1 X123.613 Y103.918 E1.32057
G1 X123.656 Y104.016 E1.32555
G1 X123.903 Y104.629 E1.35633
G1 X123.993 Y104.873 E1.36844
G1 X124.197 Y105.479 E1.39821
G1 X124.291 Y105.788 E1.41325
G1 X124.391 Y106.139 E1.43024
G1 X124.446 Y106.344 E1.44013
G1 X124.713 Y107.649 E1.50215
G1 X124.777 Y108.1 E1.52336
G1 X124.882 Y109.348 E1.58168
G1 X124.887 Y109.533 E1.5903
G1 X124.89 Y109.947 E1.60958
G1 X124.885 Y110.417 E1.63146
G1 X124.829 Y111.422 E1.67833
G1 X124.784 Y111.861 E1.69888
G1 X124.648 Y112.789 E1.74255
G1 X124.432 Y113.71 E1.7866
G1 X124.318 Y114.11 E1.80597
G1 X124.211 Y114.468 E1.82337
G1 X123.965 Y115.197 E1.85919
G1 X123.838 Y115.534 E1.87596
G1 X123.47 Y116.397 E1.91965
G1 X123.03 Y117.225 E1.96331
G1 X122.587 Y117.919 E2.00165
G1 X122.404 Y118.192 E2.01695
G1 X122.187 Y118.508 E2.0348
G1 X122.045 Y118.707 E2.04619
G1 X121.858 Y118.977 E2.06148
G1 X121.292 Y119.725 E2.10516
G1 X120.664 Y120.422 E2.14884
G1 X120.161 Y120.904 E2.18128
G1 X119.896 Y121.142 E2.19787
G1 X119.299 Y121.641 E2.2341
G1 X119.038 Y121.844 E2.24949
G1 X118.775 Y122.042 E2.26482
G1 X118.619 Y122.156 E2.27382
G1 X117.499 Y122.875 E2.33579
G1 X117.061 Y123.12 E2.35916
G1 X115.884 Y123.69 E2.42006
G1 X115.77 Y123.737 E2.4258
G1 X115.397 Y123.882 E2.44443
G1 X114.965 Y124.042 E2.46588
G1 X114.021 Y124.344 E2.51204
G1 X113.541 Y124.474 E2.53519
G1 X112.626 Y124.681 E2.57887
G1 X111.704 Y124.808 E2.62221
G1 X111.43 Y124.834 E2.63503
G1 X111.153 Y124.857 E2.64797
G1 X110.865 Y124.877 E2.66141
G1 X110.302 Y124.901 E2.68765
G1 X110.026 Y124.906 E2.70051
G1 X109.627 Y124.906 E2.71909
G1 X109.517 Y124.904 E2.72421
G1 X108.581 Y124.847 E2.76787
G1 X107.653 Y124.711 E2.81155
G1 X107.121 Y124.595 E2.8369
G1 X106.764 Y124.508 E2.85401
G1 X106.472 Y124.441 E2.86796
G1 X105.93 Y124.307 E2.89396
G1 X105.027 Y124.052 E2.93765
G1 X104.15 Y123.721 E2.9813
G1 X103.513 Y123.425 E3.01401
G1 X103.275 Y123.305 E3.02642
G1 X102.96 Y123.14 E3.04298
G1 X102.85 Y123.08 E3.04881
G1 X102.354 Y122.792 E3.07552
G1 X102.024 Y122.589 E3.09356
G1 X101.792 Y122.443 E3.10632
G1 X101.612 Y122.326 E3.11632
G1 X100.554 Y121.544 E3.17758
G1 X100.481 Y121.483 E3.18201
G1 X100.162 Y121.206 E3.20168
G1 X99.966 Y121.029 E3.21398
G1 X99.328 Y120.404 E3.25557
G1 X99.2 Y120.268 E3.26426
G1 X98.924 Y119.964 E3.28338
G1 X98.635 Y119.633 E3.30384
G1 X98.015 Y118.854 E3.3502
G1 X97.72 Y118.447 E3.37361
G1 X97.202 Y117.664 E3.41733
G1 X96.773 Y116.881 E3.4589
G1 X96.641 Y116.615 E3.47273
G1 X96.488 Y116.295 E3.48924
G1 X96.393 Y116.087 E3.49989
G1 X96.192 Y115.619 E3.52361
G1 X96.065 Y115.303 E3.53947
G1 X95.922 Y114.928 E3.55815
G1 X95.636 Y114.035 E3.60182
G1 X95.427 Y113.12 E3.64552
G1 X95.325 Y112.461 E3.67657
G1 X95.236 Y111.746 E3.71012
G1 X95.207 Y111.479 E3.72263
G1 X95.145 Y110.499 E3.76835
G1 X95.136 Y110.023 E3.79052
G1 X95.193 Y108.673 E3.85344
G1 X95.245 Y108.175 E3.87675
G1 X95.28 Y107.885 E3.89035
G1 X95.337 Y107.451 E3.91074
G1 X95.498 Y106.527 E3.95441
G1 X95.817 Y105.378 E4.00994
G1 X95.856 Y105.262 E4.01563
G1 X96.063 Y104.697 E4.04365
G1 X96.157 Y104.461 E4.05548
G1 X96.38 Y103.94 E4.08187
G1 X96.504 Y103.67 E4.09571
G1 X96.661 Y103.342 E4.11264
G1 X96.779 Y103.106 E4.12492
G1 X97.486 Y101.892 E4.19034
G1 X97.713 Y101.554 E4.2093
G1 X98.425 Y100.609 E4.26439
G1 X98.745 Y100.239 E4.28717
G1 X99.124 Y99.82 E4.31348
G1 X99.814 Y99.123 E4.35915
G0 F6000 X100.085 Y99.416
G1 F1200 X100.417 Y99.109 E4.3802
G1 X101.12 Y98.514 E4.42309
G1 X101.865 Y97.987 E4.46558
G1 X102.102 Y97.834 E4.47872
G1 X102.358 Y97.673 E4.4928
G1 X102.594 Y97.53 E4.50565
G1 X102.966 Y97.315 E4.52566
G1 X103.227 Y97.171 E4.53954
G1 X103.608 Y96.971 E4.55957
G1 X103.716 Y96.917 E4.5652
G1 X104.556 Y96.541 E4.60805
G1 X105.426 Y96.24 E4.65092
G1 X105.881 Y96.116 E4.67288
G1 X106.582 Y95.941 E4.70652
G1 X107.28 Y95.777 E4.73991
G1 X108.185 Y95.606 E4.78279
G1 X109.196 Y95.508 E4.83009
G1 X109.3 Y95.503 E4.83494
G1 X109.899 Y95.491 E4.86283
G1 X110.135 Y95.493 E4.87382
G1 X110.706 Y95.514 E4.90043
G1 X111.042 Y95.535 E4.91611
G1 X111.529 Y95.576 E4.93886
G1 X111.786 Y95.604 E4.9509
G1 X112.958 Y95.799 E5.00622
G1 X113.328 Y95.882 E5.02388
G1 X114.183 Y96.112 E5.06511
G1 X114.269 Y96.139 E5.06931
G1 X114.833 Y96.333 E5.09708
G1 X115.331 Y96.523 E5.1219
G1 X115.602 Y96.631 E5.13548
G1 X116.407 Y96.991 E5.17654
G1 X116.726 Y97.15 E5.19314
G1 X117.149 Y97.373 E5.21541
G1 X117.936 Y97.851 E5.25828
G1 X118.353 Y98.144 E5.28201
G1 X118.603 Y98.329 E5.2965
G1 X118.798 Y98.477 E5.30789
G1 X119.035 Y98.661 E5.32187
G1 X119.521 Y99.062 E5.35121
G1 X119.965 Y99.454 E5.37878
G1 X120.628 Y100.116 E5.42241
G1 X121.22 Y100.821 E5.46528
G1 X121.508 Y101.215 E5.488
G1 X121.865 Y101.729 E5.51714
G1 X122.312 Y102.388 E5.55422
G1 X122.796 Y103.171 E5.59709
G1 X123.247 Y104.079 E5.64429
G1 X123.29 Y104.177 E5.64928
G1 X123.528 Y104.768 E5.67894
G1 X123.618 Y105.012 E5.69105
G1 X123.814 Y105.595 E5.71969
G1 X123.908 Y105.904 E5.73473
G1 X124.005 Y106.242 E5.75111
G1 X124.06 Y106.447 E5.76099
G1 X124.317 Y107.705 E5.82078
G1 X124.381 Y108.156 E5.84199
G1 X124.482 Y109.359 E5.8982
G1 X124.487 Y109.544 E5.90682
G1 X124.49 Y109.943 E5.9254
G1 X124.485 Y110.413 E5.94729
G1 X124.431 Y111.381 E5.99243
G1 X124.386 Y111.82 E6.01298
G1 X124.252 Y112.731 E6.05586
G1 X124.047 Y113.602 E6.09752
G1 X123.935 Y113.995 E6.11655
G1 X123.828 Y114.353 E6.13395
G1 X123.591 Y115.056 E6.16849
G1 X123.464 Y115.393 E6.18526
G1 X123.102 Y116.24 E6.22815
G1 X122.668 Y117.052 E6.27103
G1 X122.258 Y117.692 E6.30642
G1 X122.071 Y117.971 E6.32206
G1 X121.861 Y118.275 E6.33926
G1 X121.754 Y118.424 E6.3478
G1 X121.529 Y118.75 E6.36625
G1 X120.973 Y119.484 E6.40912
G1 X120.355 Y120.166 E6.45198
G1 X119.894 Y120.606 E6.48165
G1 X119.629 Y120.844 E6.49824
G1 X119.054 Y121.325 E6.53315
G1 X118.793 Y121.528 E6.54854
G1 X118.539 Y121.719 E6.56334
G1 X118.383 Y121.833 E6.57234
G1 X117.304 Y122.526 E6.63205
G1 X116.866 Y122.771 E6.65542
G1 X115.731 Y123.32 E6.71413
G1 X115.617 Y123.367 E6.71987
G1 X115.259 Y123.507 E6.73777
G1 X114.827 Y123.667 E6.75922
G1 X113.916 Y123.958 E6.80375
G1 X113.436 Y124.088 E6.82691
G1 X112.538 Y124.29 E6.86977
G1 X111.666 Y124.41 E6.91075
G1 X111.392 Y124.436 E6.92357
G1 X111.125 Y124.458 E6.93605
G1 X110.837 Y124.478 E6.94949
G1 X110.295 Y124.501 E6.97475
G1 X110.019 Y124.506 E6.9876
G1 X109.634 Y124.506 E7.00553
G1 X109.524 Y124.504 E7.01065
G1 X108.605 Y124.448 E7.05352
G1 X107.695 Y124.311 E7.09638
G1 X107.216 Y124.207 E7.1192
G1 X106.305 Y123.989 E7.16282
G1 X106.022 Y123.918 E7.1764
G1 X105.136 Y123.667 E7.21928
G1 X104.276 Y123.34 E7.26212
G1 X103.693 Y123.068 E7.29208
G1 X103.455 Y122.948 E7.30449
G1 X103.151 Y122.789 E7.32047
G1 X103.041 Y122.729 E7.3263
G1 X102.563 Y122.452 E7.35203
G1 X102.233 Y122.249 E7.37007
G1 X102.01 Y122.108 E7.38235
G1 X101.83 Y121.991 E7.39235
G1 X100.81 Y121.237 E7.45141
G1 X100.737 Y121.176 E7.45584
G1 X100.43 Y120.909 E7.47479
G1 X100.234 Y120.732 E7.48708
G1 X99.619 Y120.13 E7.52716
G1 X99.491 Y119.994 E7.53585
G1 X99.225 Y119.701 E7.55428
G1 X98.936 Y119.37 E7.57474
G1 X98.338 Y118.619 E7.61944
G1 X98.043 Y118.212 E7.64285
G1 X97.536 Y117.444 E7.6857
G1 X97.131 Y116.703 E7.72502
G1 X96.999 Y116.437 E7.73885
G1 X96.852 Y116.129 E7.75474
G1 X96.757 Y115.921 E7.76539
G1 X96.564 Y115.47 E7.78823
G1 X96.437 Y115.154 E7.80409
G1 X96.298 Y114.789 E7.82228
G1 X96.017 Y113.913 E7.86511
G1 X95.814 Y113.015 E7.90798
G1 X95.722 Y112.412 E7.93639
G1 X95.634 Y111.703 E7.96965
G1 X95.605 Y111.436 E7.98216
G1 X95.545 Y110.491 E8.02625
G1 X95.536 Y110.015 E8.04842
G1 X95.591 Y108.714 E8.10905
G1 X95.643 Y108.216 E8.13237
G1 X95.676 Y107.937 E8.14545
G1 X95.733 Y107.503 E8.16583
G1 X95.893 Y106.596 E8.20872
G1 X96.196 Y105.505 E8.26144
G1 X96.235 Y105.389 E8.26714
G1 X96.434 Y104.845 E8.29411
G1 X96.528 Y104.609 E8.30594
G1 X96.743 Y104.107 E8.33137
G1 X96.867 Y103.837 E8.34521
G1 X97.019 Y103.521 E8.36154
G1 X97.137 Y103.285 E8.37382
G1 X97.818 Y102.115 E8.43686
G1 X98.045 Y101.777 E8.45582
G1 X98.731 Y100.866 E8.50892
G1 X99.042 Y100.507 E8.53104
G1 X99.421 Y100.088 E8.55734
G1 X100.085 Y99.416 E8.60133
G0 F6000 X100.357 Y99.71
G1 F1200 X100.689 Y99.403 E8.62239
G1 X101.379 Y98.82 E8.66445
G1 X102.082 Y98.323 E8.70454
G1 X102.319 Y98.17 E8.71768
G1 X102.565 Y98.015 E8.73121
G1 X102.801 Y97.872 E8.74406
G1 X103.16 Y97.665 E8.76336
G1 X103.421 Y97.521 E8.77724
G1 X103.786 Y97.329 E8.79644
G1 X103.894 Y97.275 E8.80207
G1 X104.719 Y96.907 E8.84413
G1 X105.978 Y96.504 E8.90569
G1 X106.674 Y96.33 E8.93909
G1 X107.372 Y96.166 E8.97248
G1 X108.259 Y95.999 E9.01451
G1 X109.215 Y95.908 E9.05922
G1 X109.319 Y95.903 E9.06407
G1 X109.895 Y95.891 E9.0909
G1 X110.131 Y95.893 E9.10189
G1 X110.681 Y95.913 E9.12751
G1 X111.017 Y95.934 E9.14319
G1 X111.486 Y95.974 E9.16511
G1 X111.743 Y96.002 E9.17715
G1 X112.871 Y96.189 E9.23039
G1 X113.241 Y96.272 E9.24804
G1 X114.063 Y96.493 E9.28768
G1 X114.149 Y96.52 E9.29188
G1 X114.692 Y96.708 E9.31863
G1 X115.183 Y96.895 E9.3431
G1 X115.454 Y97.003 E9.35668
G1 X116.228 Y97.349 E9.39616
G1 X116.547 Y97.508 E9.41276
G1 X116.957 Y97.724 E9.43434
G1 X117.728 Y98.193 E9.47636
G1 X118.115 Y98.466 E9.49841
G1 X118.553 Y98.793 E9.52386
G1 X118.79 Y98.977 E9.53783
G1 X119.258 Y99.363 E9.56608
G1 X119.525 Y99.597 E9.58261
G1 X119.706 Y99.76 E9.59396
G1 X120.344 Y100.399 E9.636
G1 X121.18 Y101.444 E9.69832
G1 X121.534 Y101.953 E9.72719
G1 X121.981 Y102.612 E9.76427
G1 X122.455 Y103.381 E9.80633
G1 X122.88 Y104.24 E9.85096
G1 X122.923 Y104.338 E9.85594
G1 X123.153 Y104.906 E9.88447
G1 X123.243 Y105.15 E9.89658
G1 X123.431 Y105.711 E9.92413
G1 X123.525 Y106.02 E9.93917
G1 X123.619 Y106.346 E9.95497
G1 X123.674 Y106.551 E9.96485
G1 X123.921 Y107.761 E10.02236
G1 X123.985 Y108.212 E10.04357
G1 X124.082 Y109.369 E10.09763
G1 X124.087 Y109.554 E10.10625
G1 X124.09 Y109.939 E10.12418
G1 X124.085 Y110.409 E10.14607
G1 X124.033 Y111.34 E10.18948
G1 X123.988 Y111.779 E10.21003
G1 X123.856 Y112.673 E10.25211
G1 X123.662 Y113.494 E10.29139
G1 X123.552 Y113.881 E10.31013
G1 X123.445 Y114.239 E10.32753
G1 X123.217 Y114.915 E10.36075
G1 X123.09 Y115.252 E10.37752
G1 X122.734 Y116.082 E10.41957
G1 X122.307 Y116.878 E10.46163
G1 X121.929 Y117.464 E10.4941
G1 X121.738 Y117.75 E10.51012
G1 X121.536 Y118.043 E10.52669
G1 X121.391 Y118.245 E10.53827
G1 X121.2 Y118.522 E10.55393
G1 X120.654 Y119.242 E10.59601
G1 X120.046 Y119.91 E10.63807
G1 X119.627 Y120.309 E10.66501
G1 X119.362 Y120.547 E10.6816
G1 X118.808 Y121.009 E10.71519
G1 X118.547 Y121.212 E10.73058
G1 X118.303 Y121.396 E10.74481
G1 X118.147 Y121.51 E10.75381
G1 X117.108 Y122.177 E10.8113
G1 X116.67 Y122.422 E10.83467
G1 X115.579 Y122.95 E10.89111
G1 X115.465 Y122.997 E10.89685
G1 X115.12 Y123.132 E10.9141
G1 X114.688 Y123.292 E10.93555
G1 X113.811 Y123.572 E10.97842
G1 X113.331 Y123.702 E11.00157
G1 X112.45 Y123.9 E11.04362
G1 X111.629 Y124.011 E11.0822
G1 X111.355 Y124.037 E11.09501
G1 X111.098 Y124.058 E11.10702
G1 X110.81 Y124.078 E11.12046
G1 X110.288 Y124.101 E11.14479
G1 X110.012 Y124.106 E11.15765
G1 X109.642 Y124.106 E11.17488
G1 X109.532 Y124.104 E11.18
G1 X108.63 Y124.048 E11.22208
G1 X107.31 Y123.818 E11.28447
G1 X106.878 Y123.713 E11.30517
G1 X106.652 Y123.661 E11.31597
G1 X106.405 Y123.601 E11.32781
G1 X106.114 Y123.528 E11.34178
G1 X105.246 Y123.282 E11.38379
G1 X104.402 Y122.959 E11.42587
G1 X103.873 Y122.711 E11.45307
G1 X103.635 Y122.591 E11.46548
G1 X103.343 Y122.438 E11.48083
G1 X103.233 Y122.378 E11.48667
G1 X102.773 Y122.111 E11.51143
G1 X102.443 Y121.908 E11.52947
G1 X102.228 Y121.772 E11.54132
G1 X102.048 Y121.655 E11.55132
G1 X101.067 Y120.93 E11.60812
G1 X100.994 Y120.869 E11.61255
G1 X100.698 Y120.612 E11.6308
G1 X100.502 Y120.435 E11.6431
G1 X99.91 Y119.856 E11.68166
G1 X99.782 Y119.72 E11.69035
G1 X99.527 Y119.438 E11.70806
G1 X99.238 Y119.107 E11.72852
G1 X98.662 Y118.384 E11.77156
G1 X98.367 Y117.977 E11.79497
G1 X97.87 Y117.223 E11.83702
G1 X97.489 Y116.525 E11.87405
G1 X97.357 Y116.259 E11.88787
G1 X97.216 Y115.963 E11.90314
G1 X97.121 Y115.755 E11.91379
G1 X96.935 Y115.321 E11.93577
G1 X96.808 Y115.005 E11.95163
G1 X96.673 Y114.651 E11.96927
G1 X96.399 Y113.791 E12.0113
G1 X96.201 Y112.909 E12.05339
G1 X96.12 Y112.364 E12.07905
G1 X96.032 Y111.659 E12.11213
G1 X96.003 Y111.392 E12.12464
G1 X95.945 Y110.484 E12.16701
G1 X95.936 Y110.008 E12.18917
G1 X95.989 Y108.756 E12.24752
G1 X96.041 Y108.258 E12.27084
G1 X96.073 Y107.989 E12.28345
G1 X96.13 Y107.555 E12.30384
G1 X96.287 Y106.665 E12.34592
G1 X96.575 Y105.632 E12.39585
G1 X96.614 Y105.516 E12.40155
G1 X96.806 Y104.993 E12.42749
G1 X96.9 Y104.757 E12.43932
G1 X97.107 Y104.274 E12.46379
G1 X97.231 Y104.004 E12.47763
G1 X97.377 Y103.699 E12.49337
G1 X97.495 Y103.463 E12.50566
G1 X98.15 Y102.338 E12.56628
G1 X98.377 Y102 E12.58523
G1 X99.037 Y101.124 E12.63631
G1 X99.338 Y100.776 E12.65773
G1 X99.717 Y100.357 E12.68404
G1 X100.357 Y99.71 E12.72641
G1 F2400 E6.22641
;MESH:Rubber Ball.stl
G0 F6000 X105.911 Y107.997
G0 X106.381 Y108.541
G0 X106.559 Y110.846
G0 X107.191 Y112.396
;TYPE:WALL-OUTER
G1 F2400 E12.72641
G1 F1200 X106.987 Y112.193 E12.73982
G1 X106.802 Y111.927 E12.7549
G1 X106.686 Y111.625 E12.76997
G1 X106.542 Y111.385 E12.783
G1 X106.424 Y111.078 E12.79831
G1 X106.391 Y110.771 E12.81269
G1 X106.315 Y110.155 E12.84159
G1 X106.315 Y110.133 E12.84262
G1 X106.406 Y110.885 E12.87789
G1 X106.722 Y111.718 E12.91937
G1 X107.191 Y112.396 E12.95776
G1 F2400 E6.45776
G0 F6000 X106.68 Y111.141
G0 X106.316 Y109.86
G1 F2400 E12.95776
G1 F1200 X106.316 Y109.845 E12.95846
G1 X106.39 Y109.23 E12.9873
G1 X106.425 Y108.921 E13.00178
G1 X106.54 Y108.617 E13.01692
G1 X106.686 Y108.375 E13.03008
G1 X106.803 Y108.073 E13.04516
G1 X106.988 Y107.806 E13.06029
G1 X107.191 Y107.604 E13.07362
G1 X106.722 Y108.282 E13.11201
G1 X106.406 Y109.115 E13.15349
