;FLAVOR:Marlin
;TIME:1951
;Filament used: 1.26235m
;Layer height: 0.2
;MINX:94.684
;MINY:94.643
;MINZ:0.2
;MAXX:125.338
;MAXY:125.369
;MAXZ:20
;Generated with Cura_SteamEngine 4.8.0
M140 S60
M105
M190 S60
M104 S205
M105
M109 S205
M82 ;absolute extrusion mode
; Ender 3 Custom Start G-code
G92 E0 ; Reset Extruder
G28 ; Home all axes
G1 Z2.0 F3000 ; Move Z Axis up little to prevent scratching of Heat Bed
G1 X0.1 Y20 Z0.3 F5000.0 ; Move to start position
G1 X0.1 Y200.0 Z0.3 F1500.0 E15 ; Draw the first line
G1 X0.4 Y200.0 Z0.3 F5000.0 ; Move to side a little
G1 X0.4 Y20 Z0.3 F1500.0 E30 ; Draw the second line
G92 E0 ; Reset Extruder
G1 Z2.0 F3000 ; Move Z Axis up little to prevent scratching of Heat Bed
G1 X5 Y20 Z0.3 F5000.0 ; Move over to prevent blob squish
G92 E0
G92 E0
G1 F2400 E-6.5
;LAYER_COUNT:102
;LAYER:0
M107
G0 F6000 X99.692 Y98.589 Z0.2
;TYPE:SKIRT
G1 F2400 E0
G1 F1200 X100.407 Y97.981 E0.03122
G1 X101.131 Y97.463 E0.06083
G1 X101.873 Y96.976 E0.09035
G1 X102.121 Y96.818 E0.10013
G1 X102.323 Y96.693 E0.10803
G1 X103.141 Y96.234 E0.13922
G1 X103.994 Y95.846 E0.17039
G1 X105.105 Y95.466 E0.20945
G1 X105.538 Y95.343 E0.22442
G1 X105.773 Y95.279 E0.23252
G1 X106.43 Y95.108 E0.2551
G1 X106.749 Y95.03 E0.26602
G1 X107.23 Y94.92 E0.28243
G1 X108.152 Y94.75 E0.31361
G1 X109.157 Y94.656 E0.34719
G1 X109.429 Y94.643 E0.35624
G1 X110.754 Y94.659 E0.40032
G1 X111.097 Y94.684 E0.41175
G1 X111.84 Y94.751 E0.43657
G1 X112.769 Y94.877 E0.46775
G1 X113.34 Y94.995 E0.48714
G1 X113.536 Y95.041 E0.49384
G1 X114.71 Y95.386 E0.53454
G1 X114.918 Y95.46 E0.54188
G1 X115.211 Y95.569 E0.55228
G1 X116.082 Y95.907 E0.58335
G1 X116.941 Y96.283 E0.61454
G1 X117.765 Y96.731 E0.64573
G1 X118.538 Y97.241 E0.67654
G1 X119.238 Y97.746 E0.70524
G1 X119.629 Y98.038 E0.72148
G1 X120.354 Y98.634 E0.75269
G1 X121.024 Y99.29 E0.78388
G1 X121.823 Y100.242 E0.82522
G1 X122.231 Y100.791 E0.84797
G1 X122.461 Y101.112 E0.8611
G1 X122.645 Y101.378 E0.87186
G1 X122.789 Y101.592 E0.88044
G1 X122.926 Y101.801 E0.88875
G1 X123.3 Y102.385 E0.91181
G1 X123.772 Y103.195 E0.943
G1 X124.173 Y104.043 E0.97419
G1 X124.588 Y105.207 E1.0153
G1 X124.82 Y105.994 E1.04259
G1 X125.049 Y106.913 E1.07409
G1 X125.111 Y107.218 E1.08444
G1 X125.258 Y108.144 E1.11562
G1 X125.328 Y109.153 E1.14926
G1 X125.337 Y109.592 E1.16387
G1 X125.338 Y109.911 E1.17448
G1 X125.331 Y110.7 E1.20072
G1 X125.282 Y111.636 E1.23189
G1 X125.154 Y112.565 E1.26308
G1 X124.951 Y113.468 E1.29387
G1 X124.663 Y114.535 E1.33063
G1 X124.38 Y115.43 E1.36185
G1 X124.022 Y116.297 E1.39305
G1 X123.408 Y117.44 E1.4362
G1 X123.294 Y117.625 E1.44343
G1 X123.099 Y117.93 E1.45547
G1 X122.451 Y118.908 E1.49449
G1 X122.215 Y119.25 E1.50831
G1 X122.016 Y119.527 E1.51965
G1 X121.436 Y120.265 E1.55087
G1 X120.797 Y120.95 E1.58203
G1 X120.326 Y121.387 E1.6034
G1 X120.238 Y121.464 E1.60729
G1 X119.639 Y121.952 E1.63299
G1 X118.866 Y122.538 E1.66525
G1 X118.095 Y123.072 E1.69644
G1 X117.191 Y123.585 E1.73101
G1 X117.035 Y123.664 E1.73683
G1 X116.1 Y124.084 E1.77092
G1 X115.335 Y124.384 E1.79825
G1 X114.815 Y124.577 E1.8167
G1 X113.922 Y124.865 E1.84791
G1 X113.008 Y125.077 E1.87911
G1 X112.115 Y125.206 E1.90912
G1 X111.077 Y125.313 E1.94383
G1 X110.141 Y125.369 E1.97502
G1 X109.618 Y125.366 E1.99241
G1 X109.485 Y125.362 E1.99684
G1 X108.55 Y125.294 E2.02802
G1 X107.383 Y125.095 E2.06739
G1 X106.285 Y124.846 E2.10484
G1 X105.825 Y124.732 E2.1206
G1 X105.557 Y124.66 E2.12983
G1 X105.105 Y124.532 E2.14546
G1 X104.214 Y124.238 E2.17666
G1 X103.352 Y123.869 E2.20785
G1 X102.272 Y123.276 E2.24883
G1 X101.464 Y122.771 E2.28052
G1 X100.691 Y122.24 E2.31171
G1 X100.191 Y121.842 E2.33297
G1 X100.042 Y121.716 E2.33946
G1 X99.091 Y120.809 E2.38317
G1 X98.798 Y120.494 E2.39748
G1 X98.599 Y120.274 E2.40734
G1 X98.147 Y119.761 E2.43008
G1 X97.557 Y119.032 E2.46128
G1 X96.997 Y118.197 E2.49472
G1 X96.824 Y117.912 E2.50581
G1 X96.363 Y117.072 E2.53768
G1 X96.174 Y116.689 E2.55188
G1 X95.905 Y116.12 E2.57281
G1 X95.543 Y115.255 E2.604
G1 X95.256 Y114.362 E2.6352
G1 X95.067 Y113.558 E2.66267
G1 X95.05 Y113.471 E2.66562
G1 X94.979 Y113.066 E2.67929
G1 X94.861 Y112.314 E2.70461
G1 X94.791 Y111.781 E2.72249
G1 X94.751 Y111.374 E2.73609
G1 X94.719 Y110.974 E2.74944
G1 X94.684 Y110.051 E2.78016
G1 X94.685 Y109.81 E2.78818
G1 X94.723 Y108.945 E2.81697
G1 X94.75 Y108.62 E2.82782
G1 X94.808 Y108.077 E2.84598
G1 X94.85 Y107.762 E2.85655
G1 X94.9 Y107.429 E2.86775
G1 X95.009 Y106.767 E2.89007
G1 X95.201 Y105.849 E2.92126
G1 X95.47 Y104.95 E2.95247
G1 X95.936 Y103.815 E2.99328
G1 X96.294 Y103.065 E3.02092
G1 X96.711 Y102.275 E3.05063
G1 X96.861 Y102.017 E3.06056
G1 X97.367 Y101.227 E3.09176
G1 X98.11 Y100.283 E3.13172
G1 X98.556 Y99.778 E3.15413
G1 X99.032 Y99.255 E3.17765
G1 X99.692 Y98.589 E3.20883
G0 F6000 X99.976 Y98.871
G1 F1200 X100.679 Y98.276 E3.23947
G1 X101.351 Y97.797 E3.26691
G1 X102.093 Y97.31 E3.29643
G1 X102.331 Y97.158 E3.30583
G1 X102.533 Y97.033 E3.31373
G1 X103.336 Y96.583 E3.34434
G1 X104.176 Y96.205 E3.37498
G1 X105.215 Y95.85 E3.4115
G1 X105.648 Y95.727 E3.42647
G1 X105.874 Y95.666 E3.43426
G1 X106.531 Y95.495 E3.45684
G1 X106.838 Y95.42 E3.46735
G1 X107.319 Y95.31 E3.48376
G1 X108.224 Y95.144 E3.51436
G1 X109.176 Y95.055 E3.54616
G1 X109.448 Y95.042 E3.55522
G1 X110.725 Y95.058 E3.5977
G1 X111.273 Y95.1 E3.61598
G1 X111.803 Y95.149 E3.63368
G1 X112.715 Y95.274 E3.6643
G1 X113.249 Y95.384 E3.68243
G1 X113.445 Y95.43 E3.68913
G1 X114.576 Y95.763 E3.72834
G1 X114.784 Y95.837 E3.73568
G1 X115.066 Y95.942 E3.74569
G1 X115.937 Y96.28 E3.77677
G1 X116.78 Y96.65 E3.80739
G1 X117.588 Y97.092 E3.83802
G1 X118.304 Y97.566 E3.86658
G1 X119.004 Y98.071 E3.89529
G1 X119.389 Y98.358 E3.91126
G1 X120.099 Y98.943 E3.94186
G1 X120.756 Y99.588 E3.97248
G1 X121.503 Y100.481 E4.0112
G1 X121.783 Y100.856 E4.02677
G1 X122.135 Y101.345 E4.04681
G1 X122.313 Y101.601 E4.05718
G1 X122.589 Y102.016 E4.07375
G1 X122.963 Y102.6 E4.09682
G1 X123.426 Y103.397 E4.12748
G1 X123.817 Y104.23 E4.15808
G1 X124.204 Y105.32 E4.19655
G1 X124.436 Y106.107 E4.22384
G1 X124.657 Y106.992 E4.25418
G1 X124.719 Y107.297 E4.26453
G1 X124.863 Y108.207 E4.29518
G1 X124.928 Y109.163 E4.32705
G1 X124.937 Y109.594 E4.34139
G1 X124.938 Y109.907 E4.3518
G1 X124.931 Y110.696 E4.37804
G1 X124.882 Y111.615 E4.40865
G1 X124.755 Y112.527 E4.43927
G1 X124.565 Y113.364 E4.46782
G1 X124.277 Y114.431 E4.50458
G1 X123.998 Y115.309 E4.53522
G1 X123.645 Y116.159 E4.56583
G1 X123.067 Y117.23 E4.60631
G1 X122.953 Y117.415 E4.61354
G1 X122.765 Y117.709 E4.62515
G1 X122.117 Y118.687 E4.66417
G1 X121.89 Y119.017 E4.67749
G1 X121.691 Y119.294 E4.68883
G1 X121.122 Y120.017 E4.71943
G1 X120.492 Y120.689 E4.75007
G1 X120.062 Y121.086 E4.76954
G1 X119.974 Y121.163 E4.77342
G1 X119.398 Y121.633 E4.79815
G1 X118.625 Y122.219 E4.83041
G1 X117.868 Y122.743 E4.86104
G1 X117.01 Y123.229 E4.89383
G1 X116.854 Y123.308 E4.89965
G1 X115.953 Y123.712 E4.93249
G1 X115.195 Y124.009 E4.95957
G1 X114.675 Y124.202 E4.97802
G1 X113.799 Y124.484 E5.00862
G1 X112.902 Y124.69 E5.03924
G1 X112.074 Y124.808 E5.06705
G1 X111.036 Y124.915 E5.10176
G1 X110.117 Y124.97 E5.13238
G1 X109.63 Y124.966 E5.14858
G1 X109.497 Y124.962 E5.153
G1 X108.579 Y124.895 E5.18362
G1 X107.472 Y124.705 E5.22098
G1 X106.374 Y124.456 E5.25842
G1 X106.088 Y124.387 E5.26821
G1 X105.924 Y124.345 E5.27384
G1 X105.666 Y124.275 E5.28273
G1 X105.214 Y124.147 E5.29836
G1 X104.34 Y123.858 E5.32897
G1 X103.494 Y123.494 E5.3596
G1 X102.484 Y122.937 E5.39797
G1 X101.676 Y122.432 E5.42966
G1 X100.917 Y121.91 E5.4603
G1 X100.449 Y121.537 E5.4802
G1 X100.3 Y121.411 E5.48669
G1 X99.384 Y120.536 E5.52882
G1 X99.091 Y120.221 E5.54313
G1 X98.899 Y120.01 E5.55262
G1 X98.447 Y119.497 E5.57536
G1 X97.869 Y118.78 E5.60599
G1 X97.339 Y117.989 E5.63766
G1 X97.166 Y117.704 E5.64875
G1 X96.721 Y116.895 E5.67946
G1 X96.532 Y116.512 E5.69367
G1 X96.267 Y115.95 E5.71433
G1 X95.912 Y115.101 E5.74494
G1 X95.633 Y114.223 E5.77558
G1 X95.46 Y113.481 E5.80092
G1 X95.374 Y113.004 E5.81704
G1 X95.256 Y112.252 E5.84236
G1 X95.188 Y111.738 E5.8596
G1 X95.15 Y111.342 E5.87284
G1 X95.118 Y110.942 E5.88618
G1 X95.084 Y110.053 E5.91577
G1 X95.085 Y109.812 E5.92379
G1 X95.121 Y108.978 E5.95155
G1 X95.148 Y108.653 E5.9624
G1 X95.205 Y108.13 E5.9799
G1 X95.247 Y107.815 E5.99047
G1 X95.295 Y107.494 E6.00126
G1 X95.404 Y106.832 E6.02358
G1 X95.593 Y105.931 E6.0542
G1 X95.859 Y105.05 E6.08481
G1 X96.297 Y103.988 E6.12301
G1 X96.655 Y103.238 E6.15065
G1 X97.057 Y102.476 E6.17931
G1 X97.207 Y102.218 E6.18924
G1 X97.704 Y101.443 E6.21986
G1 X98.41 Y100.547 E6.2578
G1 X98.852 Y100.047 E6.27999
G1 X99.328 Y99.524 E6.30352
G1 X99.976 Y98.871 E6.33411
G0 F6000 X100.26 Y99.153
G1 F1200 X100.951 Y98.572 E6.36414
G1 X101.57 Y98.132 E6.3894
G1 X102.312 Y97.645 E6.41892
G1 X102.542 Y97.498 E6.428
G1 X102.744 Y97.373 E6.4359
G1 X103.532 Y96.933 E6.46592
G1 X104.356 Y96.563 E6.49596
G1 X105.324 Y96.235 E6.52995
G1 X105.757 Y96.112 E6.54492
G1 X105.975 Y96.053 E6.55244
G1 X106.632 Y95.882 E6.57502
G1 X106.927 Y95.81 E6.58512
G1 X107.408 Y95.7 E6.60153
G1 X108.296 Y95.538 E6.63155
G1 X109.195 Y95.455 E6.66158
G1 X109.467 Y95.442 E6.67063
G1 X110.695 Y95.457 E6.71148
G1 X111.236 Y95.498 E6.72953
G1 X111.766 Y95.547 E6.74723
G1 X112.661 Y95.67 E6.77728
G1 X113.158 Y95.774 E6.79417
G1 X113.354 Y95.82 E6.80086
G1 X114.442 Y96.14 E6.83858
G1 X114.65 Y96.214 E6.84592
G1 X114.921 Y96.315 E6.85554
G1 X115.792 Y96.653 E6.88662
G1 X116.619 Y97.017 E6.91667
G1 X117.41 Y97.452 E6.9467
G1 X118.07 Y97.89 E6.97304
G1 X118.77 Y98.395 E7.00175
G1 X119.148 Y98.677 E7.01743
G1 X119.844 Y99.252 E7.04746
G1 X120.487 Y99.886 E7.0775
G1 X121.182 Y100.72 E7.1136
G1 X121.462 Y101.095 E7.12917
G1 X121.81 Y101.578 E7.14897
G1 X121.981 Y101.825 E7.15896
G1 X122.253 Y102.232 E7.17524
G1 X122.627 Y102.816 E7.19831
G1 X123.079 Y103.597 E7.22832
G1 X123.461 Y104.416 E7.25838
G1 X123.821 Y105.433 E7.29426
G1 X124.053 Y106.22 E7.32155
G1 X124.265 Y107.072 E7.35075
G1 X124.327 Y107.377 E7.3611
G1 X124.467 Y108.269 E7.39114
G1 X124.528 Y109.172 E7.42124
G1 X124.537 Y109.597 E7.43538
G1 X124.538 Y109.903 E7.44555
G1 X124.531 Y110.692 E7.4718
G1 X124.483 Y111.594 E7.50184
G1 X124.355 Y112.488 E7.53188
G1 X124.179 Y113.26 E7.55821
G1 X123.891 Y114.327 E7.59497
G1 X123.617 Y115.188 E7.62502
G1 X123.268 Y116.021 E7.65506
G1 X122.727 Y117.02 E7.69285
G1 X122.613 Y117.205 E7.70008
G1 X122.432 Y117.488 E7.71125
G1 X121.784 Y118.466 E7.75027
G1 X121.565 Y118.783 E7.76309
G1 X121.366 Y119.06 E7.77443
G1 X120.807 Y119.77 E7.80449
G1 X120.188 Y120.427 E7.83451
G1 X119.799 Y120.785 E7.85209
G1 X119.711 Y120.862 E7.85598
G1 X119.156 Y121.314 E7.87979
G1 X118.383 Y121.9 E7.91205
G1 X117.64 Y122.414 E7.9421
G1 X116.829 Y122.872 E7.97308
G1 X116.673 Y122.951 E7.97889
G1 X115.806 Y123.34 E8.0105
G1 X115.056 Y123.634 E8.03729
G1 X114.536 Y123.827 E8.05574
G1 X113.676 Y124.103 E8.08578
G1 X112.796 Y124.302 E8.11579
G1 X112.033 Y124.41 E8.14142
G1 X110.995 Y124.517 E8.17613
G1 X109.642 Y124.566 E8.22116
G1 X109.509 Y124.562 E8.22558
G1 X108.609 Y124.495 E8.2556
G1 X107.56 Y124.314 E8.29101
G1 X106.462 Y124.065 E8.32845
G1 X106.187 Y123.999 E8.33786
G1 X105.775 Y123.89 E8.35203
G1 X105.323 Y123.762 E8.36766
G1 X104.466 Y123.478 E8.39769
G1 X103.637 Y123.119 E8.42773
G1 X102.696 Y122.598 E8.46351
G1 X101.888 Y122.093 E8.4952
G1 X101.144 Y121.581 E8.52524
G1 X100.708 Y121.232 E8.54381
G1 X100.559 Y121.106 E8.5503
G1 X99.676 Y120.264 E8.59088
G1 X99.383 Y119.949 E8.60519
G1 X99.199 Y119.745 E8.61433
G1 X98.747 Y119.232 E8.63707
G1 X98.18 Y118.529 E8.66711
G1 X97.681 Y117.782 E8.69699
G1 X97.508 Y117.497 E8.70808
G1 X97.08 Y116.718 E8.73764
G1 X96.891 Y116.335 E8.75185
G1 X96.629 Y115.78 E8.77226
G1 X96.282 Y114.947 E8.80227
G1 X96.01 Y114.085 E8.83234
G1 X95.852 Y113.404 E8.85559
G1 X95.769 Y112.942 E8.8712
G1 X95.651 Y112.19 E8.89652
G1 X95.586 Y111.696 E8.91309
G1 X95.548 Y111.31 E8.92599
G1 X95.516 Y110.91 E8.93934
G1 X95.484 Y110.055 E8.96779
G1 X95.485 Y109.814 E8.97581
G1 X95.52 Y109.012 E9.00251
G1 X95.547 Y108.687 E9.01336
G1 X95.601 Y108.183 E9.03022
G1 X95.643 Y107.868 E9.04079
G1 X95.69 Y107.559 E9.05118
G1 X95.799 Y106.897 E9.0735
G1 X95.985 Y106.013 E9.10354
G1 X96.248 Y105.149 E9.13358
G1 X96.658 Y104.16 E9.16919
G1 X97.016 Y103.41 E9.19683
G1 X97.403 Y102.677 E9.2244
G1 X97.553 Y102.419 E9.23433
G1 X98.041 Y101.659 E9.26437
G1 X98.71 Y100.811 E9.30029
G1 X99.03 Y100.447 E9.31641
G1 X99.624 Y99.793 E9.3458
G1 X100.26 Y99.153 E9.3758
G1 F2400 E2.8758
;MESH:Rubber Ball.stl
G0 F6000 X106.4 Y106.544
G0 X107.147 Y107.184
G0 X106.594 Y108.214
G0 X106.265 Y109.081
G0 X106.153 Y110
G0 X106.265 Y110.919
G0 X106.594 Y111.786
G0 X107.121 Y112.548
G0 X107.813 Y113.161
G0 X108.633 Y113.592
G0 X109.443 Y113.79
G0 X110.441 Y113.784
G0 X110.441 Y113.674
;TYPE:WALL-OUTER
G1 F2400 E9.3758
G1 F1200 X111.307 Y113.461 E9.40547
G1 X112.098 Y113.046 E9.43518
G1 X112.766 Y112.455 E9.46484
G1 X113.272 Y111.721 E9.49449
G1 X113.59 Y110.886 E9.52421
G1 X113.696 Y110 E9.55389
G1 X113.59 Y109.114 E9.58357
G1 X113.272 Y108.279 E9.61329
G1 X112.766 Y107.545 E9.64294
G1 X112.098 Y106.954 E9.6726
G1 X111.307 Y106.539 E9.70231
G1 X110.441 Y106.326 E9.73197
G1 X109.549 Y106.326 E9.76164
G1 X108.683 Y106.539 E9.7913
G1 X107.892 Y106.954 E9.82101
G1 X107.225 Y107.545 E9.85065
G1 X106.718 Y108.279 E9.88033
G1 X106.401 Y109.114 E9.91003
G1 X106.294 Y110 E9.93971
G1 X106.401 Y110.886 E9.9694
G1 X106.718 Y111.721 E9.9991
G1 X107.225 Y112.455 E10.02877
G1 X107.892 Y113.046 E10.05841
G1 X108.683 Y113.461 E10.08812
G1 X109.549 Y113.674 E10.11779
G1 X110.441 Y113.674 E10.14745
G0 F6000 X109.876 Y114.182
G1 F1200 X109.57 Y114.106 E10.15794
G1 X109.204 Y114.043 E10.17029
G1 X108.857 Y113.959 E10.18217
G1 X108.501 Y113.848 E10.19457
G1 X108.193 Y113.775 E10.2051
G1 X107.892 Y113.545 E10.2177
G1 X107.561 Y113.332 E10.23079
G1 X107.306 Y113.209 E10.24021
G1 X107.055 Y112.894 E10.2536
G1 X106.802 Y112.612 E10.2662
G1 X106.518 Y112.333 E10.27944
G1 X106.422 Y112.169 E10.28576
G1 X106.247 Y111.72 E10.30179
G1 X106.047 Y111.385 E10.31477
G1 X106.009 Y111.073 E10.32522
G1 X105.935 Y110.705 E10.33771
G1 X105.892 Y110.354 E10.34947
G1 X105.87 Y110 E10.36127
G1 X105.892 Y109.658 E10.37266
G1 X105.937 Y109.281 E10.38529
G1 X106.01 Y108.928 E10.39728
G1 X106.048 Y108.615 E10.40777
G1 X106.247 Y108.28 E10.42073
G1 X106.421 Y107.833 E10.43668
G1 X106.518 Y107.669 E10.44302
G1 X106.801 Y107.387 E10.45631
G1 X107.056 Y107.107 E10.4689
G1 X107.291 Y106.809 E10.48153
G1 X107.568 Y106.661 E10.49197
G1 X107.893 Y106.456 E10.50475
G1 X108.192 Y106.224 E10.51734
G1 X108.499 Y106.151 E10.52784
G1 X108.846 Y106.045 E10.5399
G1 X109.209 Y105.955 E10.55234
G1 X109.581 Y105.893 E10.56489
G1 X109.854 Y105.815 E10.57433
G1 X110.249 Y105.884 E10.58767
G1 X110.642 Y105.924 E10.6008
G1 X110.92 Y105.916 E10.61005
G1 X111.293 Y106.083 E10.62365
G1 X111.645 Y106.22 E10.63621
G1 X112.008 Y106.332 E10.64885
G1 X112.246 Y106.54 E10.65936
G1 X112.554 Y106.769 E10.67212
G1 X112.877 Y106.966 E10.68471
G1 X113.054 Y107.227 E10.6952
G1 X113.278 Y107.513 E10.70728
G1 X113.496 Y107.825 E10.71994
G1 X113.678 Y108.135 E10.73189
G1 X113.859 Y108.395 E10.74243
G1 X113.93 Y108.765 E10.75496
G1 X114.033 Y109.147 E10.76812
G1 X114.14 Y109.407 E10.77747
G1 X114.117 Y109.81 E10.7909
G1 X114.116 Y110.189 E10.8035
G1 X114.139 Y110.57 E10.8162
G1 X114.031 Y110.865 E10.82665
G1 X113.929 Y111.234 E10.83938
G1 X113.859 Y111.608 E10.85204
G1 X113.679 Y111.866 E10.8625
G1 X113.494 Y112.176 E10.87451
G1 X113.286 Y112.479 E10.88673
G1 X113.047 Y112.78 E10.89951
G1 X112.893 Y113.023 E10.90908
G1 X112.555 Y113.232 E10.9223
G1 X112.237 Y113.466 E10.93543
G1 X112.036 Y113.659 E10.9447
G1 X111.646 Y113.781 E10.95829
G1 X111.292 Y113.916 E10.97089
G1 X110.944 Y114.074 E10.9836
G1 X110.632 Y114.078 E10.99398
G1 X110.251 Y114.115 E11.00671
G1 X109.876 Y114.182 E11.01938
G0 F6000 X109.953 Y113.912
;TYPE:SKIN
G1 F1200 X109.661 Y113.904 E11.02251
G1 X108.516 Y113.607 E11.03519
G1 X108.001 Y113.375 E11.04125
G0 F6000 X107.901 Y113.174
G0 X106.84 Y112.248
