;FLAVOR:Marlin
;TIME:273
;Filament used: 0.123869m
;Layer height: 0.2
;MINX:100.513
;MINY:100.513
;MINZ:0.2
;MAXX:134.487
;MAXY:134.487
;MAXZ:4
;Generated with Cura_SteamEngine 4.6.1
M140 S50
M105
M190 S50
M104 S205
M105
M109 S205
M82 ;absolute extrusion mode
; Ender 3 Custom Start G-code
G92 E0 ; Reset Extruder
G28 ; Home all axes
G1 Z2.0 F3000 ; Move Z Axis up little to prevent scratching of Heat Bed
G1 X0.1 Y20 Z0.3 F5000.0 ; Move to start position
G1 X0.1 Y200.0 Z0.3 F1500.0 E15 ; Draw the first line
G1 X0.4 Y200.0 Z0.3 F5000.0 ; Move to side a little
G1 X0.4 Y20 Z0.3 F1500.0 E30 ; Draw the second line
G92 E0 ; Reset Extruder
G1 Z2.0 F3000 ; Move Z Axis up little to prevent scratching of Heat Bed
G1 X5 Y20 Z0.3 F5000.0 ; Move over to prevent blob squish
G92 E0
G92 E0
G1 F2700 E-5
;LAYER_COUNT:20
;LAYER:0
M107
G0 F6000 X119.143 Y101.409 Z0.2
;TYPE:SKIRT
G1 F2700 E0
G1 F1200 X119.531 Y101.448 E0.01297
G1 X120.425 Y101.578 E0.04302
G1 X121 Y101.705 E0.0626
G1 X121.88 Y101.931 E0.09282
G1 X122.289 Y102.046 E0.10695
G1 X123.147 Y102.328 E0.13699
G1 X123.694 Y102.554 E0.15668
G1 X124.525 Y102.931 E0.18703
G1 X124.908 Y103.116 E0.20117
G1 X125.703 Y103.545 E0.23122
G1 X126.181 Y103.848 E0.25004
G1 X126.945 Y104.37 E0.28082
G1 X127.309 Y104.633 E0.29575
G1 X128.017 Y105.194 E0.3258
G1 X128.429 Y105.572 E0.3444
G1 X129.081 Y106.209 E0.37471
G1 X129.377 Y106.513 E0.38883
G1 X129.978 Y107.188 E0.41889
G1 X130.324 Y107.638 E0.43777
G1 X130.689 Y108.141 E0.45844
G1 X130.88 Y108.413 E0.46949
G1 X131.117 Y108.763 E0.48355
G1 X131.59 Y109.532 E0.51358
G1 X131.833 Y110 E0.53112
G1 X132.105 Y110.556 E0.5517
G1 X132.252 Y110.869 E0.5632
G1 X132.428 Y111.262 E0.57753
G1 X132.76 Y112.102 E0.60757
G1 X132.925 Y112.622 E0.62571
G1 X133.098 Y113.226 E0.64661
G1 X133.186 Y113.555 E0.65794
G1 X133.285 Y113.95 E0.67148
G1 X133.466 Y114.835 E0.70153
G1 X133.533 Y115.342 E0.71854
G1 X133.599 Y115.957 E0.73911
G1 X133.629 Y116.292 E0.75029
G1 X133.66 Y116.711 E0.76427
G1 X133.687 Y117.614 E0.79432
G1 X133.663 Y118.174 E0.81296
G1 X133.591 Y119.143 E0.84528
G1 X133.552 Y119.531 E0.85825
G1 X133.422 Y120.425 E0.88829
G1 X133.295 Y121 E0.90788
G1 X133.067 Y121.886 E0.93831
G1 X132.952 Y122.294 E0.95241
G1 X132.669 Y123.152 E0.98246
G1 X132.448 Y123.687 E1.00171
G1 X132.069 Y124.525 E1.0323
G1 X131.884 Y124.908 E1.04645
G1 X131.455 Y125.703 E1.07649
G1 X131.152 Y126.181 E1.09532
G1 X130.63 Y126.945 E1.12609
G1 X130.367 Y127.309 E1.14103
G1 X129.806 Y128.017 E1.17107
G1 X129.427 Y128.43 E1.18972
G1 X128.789 Y129.083 E1.22008
G1 X128.487 Y129.377 E1.2341
G1 X127.813 Y129.977 E1.26411
G1 X127.361 Y130.325 E1.28308
G1 X126.855 Y130.692 E1.30387
G1 X126.591 Y130.877 E1.3146
G1 X126.243 Y131.113 E1.32858
G1 X125.474 Y131.586 E1.35861
G1 X125 Y131.833 E1.37639
G1 X124.444 Y132.105 E1.39697
G1 X124.133 Y132.251 E1.4084
G1 X123.738 Y132.428 E1.4228
G1 X122.898 Y132.761 E1.45285
G1 X122.369 Y132.928 E1.4713
G1 X121.767 Y133.1 E1.49213
G1 X121.456 Y133.183 E1.50283
G1 X121.059 Y133.283 E1.51645
G1 X120.175 Y133.465 E1.54647
G1 X119.64 Y133.536 E1.56442
G1 X119.006 Y133.603 E1.58562
G1 X118.661 Y133.633 E1.59714
G1 X118.255 Y133.662 E1.61068
G1 X117.352 Y133.686 E1.64072
G1 X116.809 Y133.663 E1.6588
G1 X115.857 Y133.591 E1.69055
G1 X115.469 Y133.552 E1.70352
G1 X114.575 Y133.422 E1.73357
G1 X114 Y133.295 E1.75316
G1 X113.12 Y133.069 E1.78337
G1 X112.711 Y132.954 E1.7975
G1 X111.853 Y132.672 E1.82754
G1 X111.306 Y132.446 E1.84723
G1 X110.475 Y132.069 E1.87758
G1 X110.092 Y131.884 E1.89173
G1 X109.297 Y131.455 E1.92177
G1 X108.819 Y131.152 E1.9406
G1 X108.055 Y130.63 E1.97137
G1 X107.691 Y130.367 E1.98631
G1 X106.983 Y129.806 E2.01635
G1 X106.568 Y129.425 E2.03509
G1 X105.906 Y128.777 E2.0659
G1 X105.62 Y128.483 E2.07954
G1 X105.019 Y127.809 E2.10958
G1 X104.672 Y127.357 E2.12853
G1 X104.123 Y126.591 E2.15988
G1 X103.887 Y126.243 E2.17386
G1 X103.414 Y125.474 E2.20389
G1 X103.161 Y124.989 E2.22208
G1 X102.883 Y124.419 E2.24318
G1 X102.741 Y124.115 E2.25434
G1 X102.57 Y123.733 E2.26826
G1 X102.238 Y122.894 E2.29827
G1 X102.074 Y122.372 E2.31646
G1 X101.902 Y121.771 E2.33726
G1 X101.814 Y121.445 E2.34849
G1 X101.715 Y121.05 E2.36203
G1 X101.534 Y120.165 E2.39208
G1 X101.467 Y119.654 E2.40922
G1 X101.399 Y119.018 E2.43049
G1 X101.368 Y118.675 E2.44195
G1 X101.339 Y118.277 E2.45522
G1 X101.313 Y117.375 E2.48523
G1 X101.337 Y116.826 E2.50351
G1 X101.409 Y115.857 E2.53583
G1 X101.448 Y115.469 E2.5488
G1 X101.578 Y114.575 E2.57884
G1 X101.704 Y114.004 E2.59829
G1 X101.86 Y113.383 E2.61959
G1 X101.94 Y113.086 E2.62982
G1 X102.052 Y112.691 E2.64348
G1 X102.336 Y111.833 E2.67354
G1 X102.552 Y111.313 E2.69226
G1 X102.931 Y110.475 E2.72285
G1 X103.116 Y110.092 E2.737
G1 X103.545 Y109.297 E2.76705
G1 X103.848 Y108.819 E2.78587
G1 X104.37 Y108.055 E2.81664
G1 X104.633 Y107.691 E2.83158
G1 X105.194 Y106.983 E2.86163
G1 X105.575 Y106.568 E2.88036
G1 X106.223 Y105.906 E2.91117
G1 X106.517 Y105.62 E2.92482
G1 X107.191 Y105.019 E2.95485
G1 X107.643 Y104.672 E2.9738
G1 X108.409 Y104.123 E3.00515
G1 X108.757 Y103.887 E3.01913
G1 X109.526 Y103.414 E3.04916
G1 X110 Y103.167 E3.06694
G1 X110.556 Y102.895 E3.08753
G1 X110.876 Y102.745 E3.09928
G1 X111.272 Y102.568 E3.11371
G1 X112.112 Y102.236 E3.14375
G1 X112.628 Y102.074 E3.16174
G1 X113.544 Y101.817 E3.19338
G1 X113.941 Y101.717 E3.207
G1 X114.825 Y101.535 E3.23702
G1 X115.36 Y101.464 E3.25497
G1 X115.994 Y101.397 E3.27617
G1 X116.328 Y101.368 E3.28732
G1 X116.728 Y101.339 E3.30066
G1 X117.631 Y101.313 E3.33071
G1 X118.178 Y101.337 E3.34892
G1 X119.143 Y101.409 E3.3811
G0 F6000 X119.183 Y101.011
G1 F1200 X119.571 Y101.05 E3.39407
G1 X120.482 Y101.182 E3.42469
G1 X121.098 Y101.317 E3.44566
G1 X121.988 Y101.546 E3.47623
G1 X122.397 Y101.661 E3.49036
G1 X123.272 Y101.948 E3.52099
G1 X123.857 Y102.189 E3.54203
G1 X124.699 Y102.571 E3.57278
G1 X125.082 Y102.756 E3.58693
G1 X125.893 Y103.192 E3.61756
G1 X126.405 Y103.517 E3.63773
G1 X126.904 Y103.854 E3.65775
G1 X127.179 Y104.046 E3.66891
G1 X127.543 Y104.309 E3.68384
G1 X128.265 Y104.88 E3.71446
G1 X128.708 Y105.285 E3.73442
G1 X129.368 Y105.93 E3.76512
G1 X129.664 Y106.234 E3.77923
G1 X130.277 Y106.921 E3.80985
G1 X130.648 Y107.404 E3.83011
G1 X131.013 Y107.907 E3.85078
G1 X131.211 Y108.189 E3.86224
G1 X131.448 Y108.539 E3.8763
G1 X131.931 Y109.323 E3.90693
G1 X132.193 Y109.824 E3.92573
G1 X132.465 Y110.38 E3.94632
G1 X132.617 Y110.706 E3.95828
G1 X132.793 Y111.099 E3.9726
G1 X133.133 Y111.954 E4.00321
G1 X133.309 Y112.512 E4.02267
G1 X133.482 Y113.116 E4.04357
G1 X133.574 Y113.458 E4.05534
G1 X133.673 Y113.853 E4.06889
G1 X133.858 Y114.755 E4.09951
G1 X133.93 Y115.299 E4.11777
G1 X133.996 Y115.914 E4.13834
G1 X134.028 Y116.263 E4.14999
G1 X134.059 Y116.682 E4.16397
G1 X134.087 Y117.602 E4.19458
G1 X134.062 Y118.202 E4.21455
G1 X133.989 Y119.183 E4.24727
G1 X133.95 Y119.571 E4.26024
G1 X133.818 Y120.482 E4.29086
G1 X133.683 Y121.098 E4.31183
G1 X133.53 Y121.706 E4.33269
G1 X133.337 Y122.403 E4.35674
G1 X133.049 Y123.277 E4.38735
G1 X132.814 Y123.85 E4.40795
G1 X132.563 Y124.412 E4.42842
G1 X132.429 Y124.699 E4.43895
G1 X132.244 Y125.082 E4.4531
G1 X131.808 Y125.893 E4.48373
G1 X131.483 Y126.405 E4.5039
G1 X131.146 Y126.904 E4.52392
G1 X130.954 Y127.179 E4.53508
G1 X130.691 Y127.543 E4.55001
G1 X130.12 Y128.265 E4.58063
G1 X129.715 Y128.708 E4.60059
G1 X129.29 Y129.147 E4.62092
G1 X129.068 Y129.369 E4.63136
G1 X128.766 Y129.663 E4.64538
G1 X128.079 Y130.276 E4.676
G1 X127.596 Y130.649 E4.6963
G1 X127.09 Y131.016 E4.71709
G1 X126.815 Y131.208 E4.72824
G1 X126.467 Y131.444 E4.74223
G1 X125.684 Y131.927 E4.77283
G1 X125.176 Y132.193 E4.7919
G1 X124.62 Y132.465 E4.81249
G1 X124.297 Y132.616 E4.82435
G1 X123.902 Y132.793 E4.83874
G1 X123.046 Y133.133 E4.86938
G1 X122.479 Y133.312 E4.88915
G1 X121.877 Y133.484 E4.90998
G1 X121.554 Y133.571 E4.9211
G1 X121.157 Y133.671 E4.93472
G1 X120.255 Y133.857 E4.96535
G1 X119.682 Y133.933 E4.98458
G1 X119.048 Y134 E5.00578
G1 X118.689 Y134.032 E5.01777
G1 X118.283 Y134.061 E5.03131
G1 X117.363 Y134.087 E5.06192
G1 X116.781 Y134.062 E5.08129
G1 X115.817 Y133.989 E5.11345
G1 X115.429 Y133.95 E5.12642
G1 X114.518 Y133.818 E5.15703
G1 X113.902 Y133.683 E5.17801
G1 X113.012 Y133.454 E5.20857
G1 X112.603 Y133.339 E5.2227
G1 X111.728 Y133.052 E5.25333
G1 X111.143 Y132.811 E5.27438
G1 X110.301 Y132.429 E5.30513
G1 X109.918 Y132.244 E5.31928
G1 X109.107 Y131.808 E5.3499
G1 X108.595 Y131.483 E5.37007
G1 X108.096 Y131.146 E5.3901
G1 X107.821 Y130.954 E5.40125
G1 X107.457 Y130.691 E5.41619
G1 X106.735 Y130.12 E5.44681
G1 X106.29 Y129.712 E5.46689
G1 X105.619 Y129.056 E5.4981
G1 X105.333 Y128.762 E5.51174
G1 X104.72 Y128.075 E5.54236
G1 X104.348 Y127.591 E5.56267
G1 X103.982 Y127.086 E5.58341
G1 X103.792 Y126.815 E5.59442
G1 X103.556 Y126.467 E5.6084
G1 X103.073 Y125.684 E5.639
G1 X102.802 Y125.165 E5.65847
G1 X102.524 Y124.595 E5.67957
G1 X102.376 Y124.279 E5.69117
G1 X102.205 Y123.897 E5.70509
G1 X101.866 Y123.041 E5.73572
G1 X101.689 Y122.483 E5.75519
G1 X101.517 Y121.882 E5.77598
G1 X101.426 Y121.542 E5.78768
G1 X101.327 Y121.147 E5.80123
G1 X101.142 Y120.245 E5.83185
G1 X101.069 Y119.697 E5.85024
G1 X101.001 Y119.061 E5.87152
G1 X100.969 Y118.704 E5.88344
G1 X100.94 Y118.306 E5.89671
G1 X100.913 Y117.386 E5.92732
G1 X100.938 Y116.798 E5.9469
G1 X101.011 Y115.817 E5.97962
G1 X101.05 Y115.429 E5.99259
G1 X101.182 Y114.518 E6.0232
G1 X101.316 Y113.906 E6.04404
G1 X101.472 Y113.285 E6.06534
G1 X101.555 Y112.976 E6.07598
G1 X101.667 Y112.581 E6.08963
G1 X101.956 Y111.707 E6.12025
G1 X102.186 Y111.15 E6.14029
G1 X102.437 Y110.588 E6.16076
G1 X102.571 Y110.301 E6.1713
G1 X102.756 Y109.918 E6.18545
G1 X103.192 Y109.107 E6.21607
G1 X103.517 Y108.595 E6.23624
G1 X103.854 Y108.096 E6.25627
G1 X104.046 Y107.821 E6.26742
G1 X104.309 Y107.457 E6.28236
G1 X104.88 Y106.735 E6.31298
G1 X105.288 Y106.29 E6.33306
G1 X105.944 Y105.619 E6.36427
G1 X106.238 Y105.333 E6.37791
G1 X106.925 Y104.72 E6.40853
G1 X107.409 Y104.348 E6.42884
G1 X107.914 Y103.982 E6.44958
G1 X108.185 Y103.792 E6.46059
G1 X108.533 Y103.556 E6.47457
G1 X109.316 Y103.073 E6.50517
G1 X109.824 Y102.807 E6.52424
G1 X110.38 Y102.535 E6.54483
G1 X110.713 Y102.38 E6.55705
G1 X111.109 Y102.203 E6.57147
G1 X111.965 Y101.864 E6.6021
G1 X112.517 Y101.689 E6.62136
G1 X113.118 Y101.517 E6.64215
G1 X113.446 Y101.429 E6.65344
G1 X113.843 Y101.329 E6.66706
G1 X114.745 Y101.143 E6.69769
G1 X115.318 Y101.067 E6.71692
G1 X115.952 Y101 E6.73812
G1 X116.3 Y100.969 E6.74974
G1 X116.7 Y100.94 E6.76308
G1 X117.62 Y100.913 E6.79369
G1 X118.206 Y100.938 E6.8132
G1 X119.183 Y101.011 E6.84579
G0 F6000 X119.223 Y100.613
G1 F1200 X119.611 Y100.652 E6.85876
G1 X120.539 Y100.786 E6.88994
G1 X121.195 Y100.93 E6.91228
G1 X122.096 Y101.161 E6.94322
G1 X122.505 Y101.276 E6.95735
G1 X123.397 Y101.568 E6.98857
G1 X124.02 Y101.824 E7.01097
G1 X124.873 Y102.211 E7.04212
G1 X125.256 Y102.396 E7.05627
G1 X126.083 Y102.84 E7.08749
G1 X126.628 Y103.185 E7.10894
G1 X127.127 Y103.522 E7.12897
G1 X127.413 Y103.722 E7.14058
G1 X127.777 Y103.985 E7.15551
G1 X128.513 Y104.566 E7.1867
G1 X128.986 Y104.998 E7.20801
G1 X129.654 Y105.651 E7.23908
G1 X129.95 Y105.955 E7.25319
G1 X130.575 Y106.654 E7.28438
G1 X130.972 Y107.169 E7.306
G1 X131.337 Y107.672 E7.32667
G1 X131.542 Y107.964 E7.33854
G1 X131.779 Y108.314 E7.3526
G1 X132.272 Y109.113 E7.38383
G1 X132.552 Y109.648 E7.40391
G1 X132.824 Y110.204 E7.4245
G1 X132.982 Y110.542 E7.43691
G1 X133.158 Y110.935 E7.45123
G1 X133.505 Y111.807 E7.48244
G1 X133.694 Y112.402 E7.50321
G1 X133.867 Y113.006 E7.5241
G1 X133.962 Y113.361 E7.53633
G1 X134.061 Y113.756 E7.54987
G1 X134.25 Y114.674 E7.58104
G1 X134.328 Y115.256 E7.60058
G1 X134.394 Y115.871 E7.62115
G1 X134.427 Y116.233 E7.63324
G1 X134.458 Y116.652 E7.64721
G1 X134.487 Y117.59 E7.67842
G1 X134.461 Y118.23 E7.69973
G1 X134.387 Y119.223 E7.73285
G1 X134.348 Y119.611 E7.74582
G1 X134.214 Y120.539 E7.777
G1 X134.07 Y121.195 E7.79934
G1 X133.837 Y122.103 E7.83052
G1 X133.722 Y122.511 E7.84462
G1 X133.43 Y123.402 E7.8758
G1 X133.179 Y124.013 E7.89777
G1 X132.928 Y124.575 E7.91825
G1 X132.789 Y124.873 E7.92918
G1 X132.604 Y125.256 E7.94333
G1 X132.16 Y126.083 E7.97455
G1 X131.815 Y126.628 E7.996
G1 X131.478 Y127.127 E8.01603
G1 X131.278 Y127.413 E8.02764
G1 X131.015 Y127.777 E8.04257
G1 X130.434 Y128.513 E8.07376
G1 X130.002 Y128.986 E8.09507
G1 X129.347 Y129.656 E8.12623
G1 X129.045 Y129.95 E8.14025
G1 X128.346 Y130.575 E8.17144
G1 X127.83 Y130.972 E8.19309
G1 X127.04 Y131.539 E8.22543
G1 X126.692 Y131.775 E8.23942
G1 X125.894 Y132.268 E8.27062
G1 X125.352 Y132.552 E8.29097
G1 X124.796 Y132.824 E8.31155
G1 X124.46 Y132.981 E8.32389
G1 X124.065 Y133.158 E8.33829
G1 X123.194 Y133.505 E8.36947
G1 X122.589 Y133.697 E8.39058
G1 X121.987 Y133.869 E8.41141
G1 X121.652 Y133.959 E8.42294
G1 X121.255 Y134.059 E8.43656
G1 X120.336 Y134.249 E8.46777
G1 X119.724 Y134.331 E8.48831
G1 X119.09 Y134.398 E8.50951
G1 X118.718 Y134.431 E8.52194
G1 X118.312 Y134.46 E8.53547
G1 X117.374 Y134.487 E8.56668
G1 X116.753 Y134.461 E8.58736
G1 X116.102 Y134.415 E8.60906
G1 X115.777 Y134.387 E8.61991
G1 X115.389 Y134.348 E8.63288
G1 X114.461 Y134.214 E8.66407
G1 X113.805 Y134.07 E8.68641
G1 X112.904 Y133.839 E8.71734
G1 X112.495 Y133.724 E8.73147
G1 X111.603 Y133.432 E8.76269
G1 X110.98 Y133.176 E8.78509
G1 X110.127 Y132.789 E8.81625
G1 X109.744 Y132.604 E8.83039
G1 X108.917 Y132.16 E8.86161
G1 X108.372 Y131.815 E8.88307
G1 X107.873 Y131.478 E8.90309
G1 X107.587 Y131.278 E8.9147
G1 X107.223 Y131.015 E8.92964
G1 X106.487 Y130.434 E8.96083
G1 X106.011 Y130 E8.98225
G1 X105.563 Y129.566 E9.003
G1 X105.332 Y129.335 E9.01386
G1 X105.046 Y129.041 E9.0275
G1 X104.422 Y128.342 E9.05867
G1 X104.024 Y127.826 E9.08034
G1 X103.658 Y127.321 E9.10109
G1 X103.461 Y127.04 E9.1125
G1 X103.225 Y126.692 E9.12649
G1 X102.732 Y125.894 E9.15768
G1 X102.442 Y125.34 E9.17848
G1 X102.164 Y124.77 E9.19958
G1 X102.011 Y124.442 E9.21161
G1 X101.84 Y124.06 E9.22553
G1 X101.494 Y123.189 E9.2567
G1 X101.305 Y122.593 E9.2775
G1 X101.133 Y121.992 E9.29829
G1 X101.038 Y121.639 E9.31045
G1 X100.939 Y121.244 E9.324
G1 X100.75 Y120.326 E9.35517
G1 X100.671 Y119.739 E9.37487
G1 X100.603 Y119.103 E9.39614
G1 X100.57 Y118.733 E9.4085
G1 X100.541 Y118.335 E9.42177
G1 X100.513 Y117.398 E9.45295
G1 X100.539 Y116.77 E9.47385
G1 X100.613 Y115.777 E9.50697
G1 X100.652 Y115.389 E9.51994
G1 X100.786 Y114.461 E9.55113
G1 X100.928 Y113.809 E9.57332
G1 X101.084 Y113.188 E9.59462
G1 X101.17 Y112.867 E9.60567
G1 X101.282 Y112.472 E9.61933
G1 X101.576 Y111.582 E9.6505
G1 X101.821 Y110.987 E9.6719
G1 X102.072 Y110.425 E9.69238
G1 X102.211 Y110.127 E9.70331
G1 X102.396 Y109.744 E9.71746
G1 X102.84 Y108.917 E9.74868
G1 X103.185 Y108.372 E9.77013
G1 X103.522 Y107.873 E9.79016
G1 X103.722 Y107.587 E9.80177
G1 X103.985 Y107.223 E9.8167
G1 X104.566 Y106.487 E9.84789
G1 X105 Y106.011 E9.86932
G1 X105.434 Y105.563 E9.89006
G1 X105.665 Y105.332 E9.90093
G1 X105.959 Y105.046 E9.91457
G1 X106.658 Y104.422 E9.94573
G1 X107.174 Y104.024 E9.96741
G1 X107.679 Y103.658 E9.98815
G1 X107.96 Y103.461 E9.99957
G1 X108.308 Y103.225 E10.01355
G1 X109.106 Y102.732 E10.04475
G1 X109.648 Y102.448 E10.0651
G1 X110.204 Y102.176 E10.08569
G1 X110.549 Y102.015 E10.09835
G1 X110.945 Y101.838 E10.11278
G1 X111.817 Y101.492 E10.14398
G1 X112.407 Y101.305 E10.16457
G1 X113.008 Y101.133 E10.18536
G1 X113.348 Y101.041 E10.19707
G1 X113.745 Y100.941 E10.21069
G1 X114.664 Y100.751 E10.2419
G1 X115.276 Y100.669 E10.26244
G1 X115.91 Y100.602 E10.28364
G1 X116.271 Y100.57 E10.2957
G1 X116.671 Y100.541 E10.30904
G1 X117.608 Y100.513 E10.34021
G1 X118.234 Y100.539 E10.36105
G1 X119.223 Y100.613 E10.39404
G1 F2700 E5.39404
;MESH:Separator.stl
G0 F6000 X118.185 Y110.893
G0 X118.026 Y112.736
G0 X119.74 Y113.667
G0 X120.488 Y114.217
G0 X121.105 Y114.911
G0 X121.565 Y115.716
G0 X121.849 Y116.6
G0 X121.939 Y117.524
G0 X121.839 Y118.447
G0 X121.545 Y119.328
G0 X121.077 Y120.129
G0 X120.453 Y120.815
G0 X119.775 Y121.302
G0 X117.956 Y122.078
;TYPE:WALL-INNER
G1 F2700 E10.39404
