;FLAVOR:Marlin
;TIME:220
;Filament used: 0.135023m
;Layer height: 0.28
;MINX:100.513
;MINY:100.513
;MINZ:0.28
;MAXX:134.487
;MAXY:134.487
;MAXZ:3.92
;Generated with Cura_SteamEngine 4.6.1
M140 S50
M105
M190 S50
M104 S210
M105
M109 S210
M82 ;absolute extrusion mode
; Ender 3 Custom Start G-code
G92 E0 ; Reset Extruder
G28 ; Home all axes
G1 Z2.0 F3000 ; Move Z Axis up little to prevent scratching of Heat Bed
G1 X0.1 Y20 Z0.3 F5000.0 ; Move to start position
G1 X0.1 Y200.0 Z0.3 F1500.0 E15 ; Draw the first line
G1 X0.4 Y200.0 Z0.3 F5000.0 ; Move to side a little
G1 X0.4 Y20 Z0.3 F1500.0 E30 ; Draw the second line
G92 E0 ; Reset Extruder
G1 Z2.0 F3000 ; Move Z Axis up little to prevent scratching of Heat Bed
G1 X5 Y20 Z0.3 F5000.0 ; Move over to prevent blob squish
G92 E0
G92 E0
G1 F2700 E-5
;LAYER_COUNT:14
;LAYER:0
M107
G0 F6000 X119.143 Y101.409 Z0.28
;TYPE:SKIRT
G1 F2700 E0
G1 F1200 X119.531 Y101.448 E0.01816
G1 X120.425 Y101.578 E0.06022
G1 X121 Y101.705 E0.08764
G1 X121.88 Y101.931 E0.12995
G1 X122.289 Y102.046 E0.14973
G1 X123.147 Y102.328 E0.19179
G1 X123.694 Y102.554 E0.21935
G1 X124.525 Y102.931 E0.26184
G1 X124.908 Y103.116 E0.28164
G1 X125.703 Y103.545 E0.32371
G1 X126.181 Y103.848 E0.35006
G1 X126.945 Y104.37 E0.39315
G1 X127.309 Y104.633 E0.41406
G1 X128.017 Y105.194 E0.45612
G1 X128.429 Y105.572 E0.48215
G1 X129.081 Y106.209 E0.5246
G1 X129.377 Y106.513 E0.54436
G1 X129.978 Y107.188 E0.58644
G1 X130.324 Y107.638 E0.61287
G1 X130.689 Y108.141 E0.64181
G1 X130.88 Y108.413 E0.65729
G1 X131.117 Y108.763 E0.67697
G1 X131.59 Y109.532 E0.71901
G1 X131.833 Y110 E0.74356
G1 X132.105 Y110.556 E0.77238
G1 X132.252 Y110.869 E0.78849
G1 X132.428 Y111.262 E0.80854
G1 X132.76 Y112.102 E0.8506
G1 X132.925 Y112.622 E0.876
G1 X133.098 Y113.226 E0.90525
G1 X133.186 Y113.555 E0.92111
G1 X133.285 Y113.95 E0.94007
G1 X133.466 Y114.835 E0.98214
G1 X133.533 Y115.342 E1.00595
G1 X133.599 Y115.957 E1.03475
G1 X133.629 Y116.292 E1.05041
G1 X133.66 Y116.711 E1.06998
G1 X133.687 Y117.614 E1.11204
G1 X133.663 Y118.174 E1.13814
G1 X133.591 Y119.143 E1.18339
G1 X133.552 Y119.531 E1.20155
G1 X133.422 Y120.425 E1.24361
G1 X133.295 Y121 E1.27103
G1 X133.067 Y121.886 E1.31363
G1 X132.952 Y122.294 E1.33337
G1 X132.669 Y123.152 E1.37544
G1 X132.448 Y123.687 E1.40239
G1 X132.069 Y124.525 E1.44522
G1 X131.884 Y124.908 E1.46502
G1 X131.455 Y125.703 E1.50709
G1 X131.152 Y126.181 E1.53344
G1 X130.63 Y126.945 E1.57653
G1 X130.367 Y127.309 E1.59744
G1 X129.806 Y128.017 E1.6395
G1 X129.427 Y128.43 E1.6656
G1 X128.789 Y129.083 E1.70811
G1 X128.487 Y129.377 E1.72774
G1 X127.813 Y129.977 E1.76976
G1 X127.361 Y130.325 E1.79632
G1 X126.855 Y130.692 E1.82542
G1 X126.591 Y130.877 E1.84044
G1 X126.243 Y131.113 E1.86001
G1 X125.474 Y131.586 E1.90205
G1 X125 Y131.833 E1.92694
G1 X124.444 Y132.105 E1.95576
G1 X124.133 Y132.251 E1.97176
G1 X123.738 Y132.428 E1.99192
G1 X122.898 Y132.761 E2.03399
G1 X122.369 Y132.928 E2.05982
G1 X121.767 Y133.1 E2.08898
G1 X121.456 Y133.183 E2.10396
G1 X121.059 Y133.283 E2.12303
G1 X120.175 Y133.465 E2.16505
G1 X119.64 Y133.536 E2.19018
G1 X119.006 Y133.603 E2.21987
G1 X118.661 Y133.633 E2.236
G1 X118.255 Y133.662 E2.25495
G1 X117.352 Y133.686 E2.29701
G1 X116.809 Y133.663 E2.32232
G1 X115.857 Y133.591 E2.36677
G1 X115.469 Y133.552 E2.38493
G1 X114.575 Y133.422 E2.427
G1 X114 Y133.295 E2.45442
G1 X113.12 Y133.069 E2.49672
G1 X112.711 Y132.954 E2.51651
G1 X111.853 Y132.672 E2.55856
G1 X111.306 Y132.446 E2.58612
G1 X110.475 Y132.069 E2.62861
G1 X110.092 Y131.884 E2.64842
G1 X109.297 Y131.455 E2.69048
G1 X108.819 Y131.152 E2.71683
G1 X108.055 Y130.63 E2.75992
G1 X107.691 Y130.367 E2.78083
G1 X106.983 Y129.806 E2.82289
G1 X106.568 Y129.425 E2.84913
G1 X105.906 Y128.777 E2.89226
G1 X105.62 Y128.483 E2.91136
G1 X105.019 Y127.809 E2.95341
G1 X104.672 Y127.357 E2.97994
G1 X104.123 Y126.591 E3.02383
G1 X103.887 Y126.243 E3.04341
G1 X103.414 Y125.474 E3.08544
G1 X103.161 Y124.989 E3.11092
G1 X102.883 Y124.419 E3.14045
G1 X102.741 Y124.115 E3.15607
G1 X102.57 Y123.733 E3.17556
G1 X102.238 Y122.894 E3.21757
G1 X102.074 Y122.372 E3.24305
G1 X101.902 Y121.771 E3.27216
G1 X101.814 Y121.445 E3.28788
G1 X101.715 Y121.05 E3.30684
G1 X101.534 Y120.165 E3.34891
G1 X101.467 Y119.654 E3.3729
G1 X101.399 Y119.018 E3.40269
G1 X101.368 Y118.675 E3.41872
G1 X101.339 Y118.277 E3.43731
G1 X101.313 Y117.375 E3.47932
G1 X101.337 Y116.826 E3.50491
G1 X101.409 Y115.857 E3.55016
G1 X101.448 Y115.469 E3.56832
G1 X101.578 Y114.575 E3.61038
G1 X101.704 Y114.004 E3.63761
G1 X101.86 Y113.383 E3.66742
G1 X101.94 Y113.086 E3.68175
G1 X102.052 Y112.691 E3.70087
G1 X102.336 Y111.833 E3.74295
G1 X102.552 Y111.313 E3.76917
G1 X102.931 Y110.475 E3.81199
G1 X103.116 Y110.092 E3.8318
G1 X103.545 Y109.297 E3.87386
G1 X103.848 Y108.819 E3.90022
G1 X104.37 Y108.055 E3.9433
G1 X104.633 Y107.691 E3.96421
G1 X105.194 Y106.983 E4.00628
G1 X105.575 Y106.568 E4.03251
G1 X106.223 Y105.906 E4.07564
G1 X106.517 Y105.62 E4.09474
G1 X107.191 Y105.019 E4.13679
G1 X107.643 Y104.672 E4.16333
G1 X108.409 Y104.123 E4.20721
G1 X108.757 Y103.887 E4.22679
G1 X109.526 Y103.414 E4.26883
G1 X110 Y103.167 E4.29372
G1 X110.556 Y102.895 E4.32254
G1 X110.876 Y102.745 E4.33899
G1 X111.272 Y102.568 E4.35919
G1 X112.112 Y102.236 E4.40125
G1 X112.628 Y102.074 E4.42643
G1 X113.544 Y101.817 E4.47073
G1 X113.941 Y101.717 E4.4898
G1 X114.825 Y101.535 E4.53182
G1 X115.36 Y101.464 E4.55695
G1 X115.994 Y101.397 E4.58664
G1 X116.328 Y101.368 E4.60225
G1 X116.728 Y101.339 E4.62092
G1 X117.631 Y101.313 E4.66299
G1 X118.178 Y101.337 E4.68848
G1 X119.143 Y101.409 E4.73354
G0 F6000 X119.183 Y101.011
G1 F1200 X119.571 Y101.05 E4.7517
G1 X120.482 Y101.182 E4.79456
G1 X121.098 Y101.317 E4.82393
G1 X121.988 Y101.546 E4.86672
G1 X122.397 Y101.661 E4.8865
G1 X123.272 Y101.948 E4.92938
G1 X123.857 Y102.189 E4.95884
G1 X124.699 Y102.571 E5.0019
G1 X125.082 Y102.756 E5.0217
G1 X125.893 Y103.192 E5.06458
G1 X126.405 Y103.517 E5.09282
G1 X126.904 Y103.854 E5.12085
G1 X127.179 Y104.046 E5.13647
G1 X127.543 Y104.309 E5.15738
G1 X128.265 Y104.88 E5.20025
G1 X128.708 Y105.285 E5.22819
G1 X129.368 Y105.93 E5.27117
G1 X129.664 Y106.234 E5.29092
G1 X130.277 Y106.921 E5.3338
G1 X130.648 Y107.404 E5.36215
G1 X131.013 Y107.907 E5.39109
G1 X131.211 Y108.189 E5.40714
G1 X131.448 Y108.539 E5.42682
G1 X131.931 Y109.323 E5.4697
G1 X132.193 Y109.824 E5.49602
G1 X132.465 Y110.38 E5.52485
G1 X132.617 Y110.706 E5.5416
G1 X132.793 Y111.099 E5.56165
G1 X133.133 Y111.954 E5.60449
G1 X133.309 Y112.512 E5.63174
G1 X133.482 Y113.116 E5.66099
G1 X133.574 Y113.458 E5.67748
G1 X133.673 Y113.853 E5.69644
G1 X133.858 Y114.755 E5.73932
G1 X133.93 Y115.299 E5.76487
G1 X133.996 Y115.914 E5.79367
G1 X134.028 Y116.263 E5.80999
G1 X134.059 Y116.682 E5.82956
G1 X134.087 Y117.602 E5.87241
G1 X134.062 Y118.202 E5.90038
G1 X133.989 Y119.183 E5.94618
G1 X133.95 Y119.571 E5.96434
G1 X133.818 Y120.482 E6.0072
G1 X133.683 Y121.098 E6.03657
G1 X133.53 Y121.706 E6.06576
G1 X133.337 Y122.403 E6.09944
G1 X133.049 Y123.277 E6.14229
G1 X132.814 Y123.85 E6.17113
G1 X132.563 Y124.412 E6.19979
G1 X132.429 Y124.699 E6.21453
G1 X132.244 Y125.082 E6.23434
G1 X131.808 Y125.893 E6.27722
G1 X131.483 Y126.405 E6.30545
G1 X131.146 Y126.904 E6.33349
G1 X130.954 Y127.179 E6.34911
G1 X130.691 Y127.543 E6.37002
G1 X130.12 Y128.265 E6.41288
G1 X129.715 Y128.708 E6.44083
G1 X129.29 Y129.147 E6.46928
G1 X129.068 Y129.369 E6.4839
G1 X128.766 Y129.663 E6.50353
G1 X128.079 Y130.276 E6.5464
G1 X127.596 Y130.649 E6.57482
G1 X127.09 Y131.016 E6.60392
G1 X126.815 Y131.208 E6.61954
G1 X126.467 Y131.444 E6.63912
G1 X125.684 Y131.927 E6.68196
G1 X125.176 Y132.193 E6.70866
G1 X124.62 Y132.465 E6.73748
G1 X124.297 Y132.616 E6.75408
G1 X123.902 Y132.793 E6.77424
G1 X123.046 Y133.133 E6.81713
G1 X122.479 Y133.312 E6.84481
G1 X121.877 Y133.484 E6.87397
G1 X121.554 Y133.571 E6.88954
G1 X121.157 Y133.671 E6.90861
G1 X120.255 Y133.857 E6.95149
G1 X119.682 Y133.933 E6.97841
G1 X119.048 Y134 E7.00809
G1 X118.689 Y134.032 E7.02487
G1 X118.283 Y134.061 E7.04383
G1 X117.363 Y134.087 E7.08668
G1 X116.781 Y134.062 E7.11381
G1 X115.817 Y133.989 E7.15883
G1 X115.429 Y133.95 E7.17698
G1 X114.518 Y133.818 E7.21985
G1 X113.902 Y133.683 E7.24921
G1 X113.012 Y133.454 E7.292
G1 X112.603 Y133.339 E7.31179
G1 X111.728 Y133.052 E7.35467
G1 X111.143 Y132.811 E7.38413
G1 X110.301 Y132.429 E7.42718
G1 X109.918 Y132.244 E7.44699
G1 X109.107 Y131.808 E7.48986
G1 X108.595 Y131.483 E7.5181
G1 X108.096 Y131.146 E7.54614
G1 X107.821 Y130.954 E7.56175
G1 X107.457 Y130.691 E7.58266
G1 X106.735 Y130.12 E7.62553
G1 X106.29 Y129.712 E7.65364
G1 X105.619 Y129.056 E7.69733
G1 X105.333 Y128.762 E7.71643
G1 X104.72 Y128.075 E7.75931
G1 X104.348 Y127.591 E7.78773
G1 X103.982 Y127.086 E7.81677
G1 X103.792 Y126.815 E7.83218
G1 X103.556 Y126.467 E7.85176
G1 X103.073 Y125.684 E7.8946
G1 X102.802 Y125.165 E7.92186
G1 X102.524 Y124.595 E7.95139
G1 X102.376 Y124.279 E7.96764
G1 X102.205 Y123.897 E7.98713
G1 X101.866 Y123.041 E8.03
G1 X101.689 Y122.483 E8.05726
G1 X101.517 Y121.882 E8.08637
G1 X101.426 Y121.542 E8.10276
G1 X101.327 Y121.147 E8.12172
G1 X101.142 Y120.245 E8.1646
G1 X101.069 Y119.697 E8.19034
G1 X101.001 Y119.061 E8.22012
G1 X100.969 Y118.704 E8.23681
G1 X100.94 Y118.306 E8.25539
G1 X100.913 Y117.386 E8.29825
G1 X100.938 Y116.798 E8.32566
G1 X101.011 Y115.817 E8.37146
G1 X101.05 Y115.429 E8.38962
G1 X101.182 Y114.518 E8.43248
G1 X101.316 Y113.906 E8.46165
G1 X101.472 Y113.285 E8.49147
G1 X101.555 Y112.976 E8.50637
G1 X101.667 Y112.581 E8.52549
G1 X101.956 Y111.707 E8.56835
G1 X102.186 Y111.15 E8.59641
G1 X102.437 Y110.588 E8.62507
G1 X102.571 Y110.301 E8.63982
G1 X102.756 Y109.918 E8.65963
G1 X103.192 Y109.107 E8.7025
G1 X103.517 Y108.595 E8.73074
G1 X103.854 Y108.096 E8.75878
G1 X104.046 Y107.821 E8.77439
G1 X104.309 Y107.457 E8.7953
G1 X104.88 Y106.735 E8.83817
G1 X105.288 Y106.29 E8.86628
G1 X105.944 Y105.619 E8.90997
G1 X106.238 Y105.333 E8.92907
G1 X106.925 Y104.72 E8.97195
G1 X107.409 Y104.348 E9.00037
G1 X107.914 Y103.982 E9.02941
G1 X108.185 Y103.792 E9.04482
G1 X108.533 Y103.556 E9.0644
G1 X109.316 Y103.073 E9.10724
G1 X109.824 Y102.807 E9.13394
G1 X110.38 Y102.535 E9.16276
G1 X110.713 Y102.38 E9.17987
G1 X111.109 Y102.203 E9.20006
G1 X111.965 Y101.864 E9.24294
G1 X112.517 Y101.689 E9.2699
G1 X113.118 Y101.517 E9.29901
G1 X113.446 Y101.429 E9.31482
G1 X113.843 Y101.329 E9.33389
G1 X114.745 Y101.143 E9.37677
G1 X115.318 Y101.067 E9.40368
G1 X115.952 Y101 E9.43337
G1 X116.3 Y100.969 E9.44964
G1 X116.7 Y100.94 E9.46831
G1 X117.62 Y100.913 E9.51117
G1 X118.206 Y100.938 E9.53848
G1 X119.183 Y101.011 E9.5841
G0 F6000 X119.223 Y100.613
G1 F1200 X119.611 Y100.652 E9.60226
G1 X120.539 Y100.786 E9.64592
G1 X121.195 Y100.93 E9.67719
G1 X122.096 Y101.161 E9.72051
G1 X122.505 Y101.276 E9.74029
G1 X123.397 Y101.568 E9.78399
G1 X124.02 Y101.824 E9.81536
G1 X124.873 Y102.211 E9.85897
G1 X125.256 Y102.396 E9.87878
G1 X126.083 Y102.84 E9.92248
G1 X126.628 Y103.185 E9.95252
G1 X127.127 Y103.522 E9.98056
G1 X127.413 Y103.722 E9.99681
G1 X127.777 Y103.985 E10.01772
G1 X128.513 Y104.566 E10.06138
G1 X128.986 Y104.998 E10.09121
G1 X129.654 Y105.651 E10.13471
G1 X129.95 Y105.955 E10.15446
G1 X130.575 Y106.654 E10.19813
G1 X130.972 Y107.169 E10.22841
G1 X131.337 Y107.672 E10.25734
G1 X131.542 Y107.964 E10.27396
G1 X131.779 Y108.314 E10.29364
G1 X132.272 Y109.113 E10.33736
G1 X132.552 Y109.648 E10.36547
G1 X132.824 Y110.204 E10.3943
G1 X132.982 Y110.542 E10.41167
G1 X133.158 Y110.935 E10.43172
G1 X133.505 Y111.807 E10.47542
G1 X133.694 Y112.402 E10.50449
G1 X133.867 Y113.006 E10.53375
G1 X133.962 Y113.361 E10.55086
G1 X134.061 Y113.756 E10.56982
G1 X134.25 Y114.674 E10.61346
G1 X134.328 Y115.256 E10.64081
G1 X134.394 Y115.871 E10.66961
G1 X134.427 Y116.233 E10.68653
G1 X134.458 Y116.652 E10.7061
G1 X134.487 Y117.59 E10.74979
G1 X134.461 Y118.23 E10.77962
G1 X134.387 Y119.223 E10.82599
G1 X134.348 Y119.611 E10.84414
G1 X134.214 Y120.539 E10.8878
G1 X134.07 Y121.195 E10.91908
G1 X133.837 Y122.103 E10.96273
G1 X133.722 Y122.511 E10.98247
G1 X133.43 Y123.402 E11.02613
G1 X133.179 Y124.013 E11.05688
G1 X132.928 Y124.575 E11.08554
G1 X132.789 Y124.873 E11.10086
G1 X132.604 Y125.256 E11.12066
G1 X132.16 Y126.083 E11.16437
G1 X131.815 Y126.628 E11.1944
G1 X131.478 Y127.127 E11.22244
G1 X131.278 Y127.413 E11.23869
G1 X131.015 Y127.777 E11.2596
G1 X130.434 Y128.513 E11.30327
G1 X130.002 Y128.986 E11.33309
G1 X129.347 Y129.656 E11.37672
G1 X129.045 Y129.95 E11.39635
G1 X128.346 Y130.575 E11.44001
G1 X127.83 Y130.972 E11.47033
G1 X127.04 Y131.539 E11.51561
G1 X126.692 Y131.775 E11.53519
G1 X125.894 Y132.268 E11.57886
G1 X125.352 Y132.552 E11.60736
G1 X124.796 Y132.824 E11.63618
G1 X124.46 Y132.981 E11.65345
G1 X124.065 Y133.158 E11.6736
G1 X123.194 Y133.505 E11.71726
G1 X122.589 Y133.697 E11.74681
G1 X121.987 Y133.869 E11.77597
G1 X121.652 Y133.959 E11.79212
G1 X121.255 Y134.059 E11.81118
G1 X120.336 Y134.249 E11.85488
G1 X119.724 Y134.331 E11.88363
G1 X119.09 Y134.398 E11.91332
G1 X118.718 Y134.431 E11.93071
G1 X118.312 Y134.46 E11.94966
G1 X117.374 Y134.487 E11.99336
G1 X116.753 Y134.461 E12.0223
G1 X116.102 Y134.415 E12.05269
G1 X115.777 Y134.387 E12.06788
G1 X115.389 Y134.348 E12.08604
G1 X114.461 Y134.214 E12.1297
G1 X113.805 Y134.07 E12.16097
G1 X112.904 Y133.839 E12.20428
G1 X112.495 Y133.724 E12.22406
G1 X111.603 Y133.432 E12.26777
G1 X110.98 Y133.176 E12.29913
G1 X110.127 Y132.789 E12.34275
G1 X109.744 Y132.604 E12.36255
G1 X108.917 Y132.16 E12.40626
G1 X108.372 Y131.815 E12.43629
G1 X107.873 Y131.478 E12.46433
G1 X107.587 Y131.278 E12.48058
G1 X107.223 Y131.015 E12.50149
G1 X106.487 Y130.434 E12.54516
G1 X106.011 Y130 E12.57515
G1 X105.563 Y129.566 E12.60419
G1 X105.332 Y129.335 E12.61941
G1 X105.046 Y129.041 E12.63851
G1 X104.422 Y128.342 E12.68214
G1 X104.024 Y127.826 E12.71248
G1 X103.658 Y127.321 E12.74152
G1 X103.461 Y127.04 E12.7575
G1 X103.225 Y126.692 E12.77708
G1 X102.732 Y125.894 E12.82076
G1 X102.442 Y125.34 E12.84988
G1 X102.164 Y124.77 E12.87941
G1 X102.011 Y124.442 E12.89626
G1 X101.84 Y124.06 E12.91575
G1 X101.494 Y123.189 E12.95939
G1 X101.305 Y122.593 E12.9885
G1 X101.133 Y121.992 E13.01761
G1 X101.038 Y121.639 E13.03463
G1 X100.939 Y121.244 E13.05359
G1 X100.75 Y120.326 E13.09724
G1 X100.671 Y119.739 E13.12482
G1 X100.603 Y119.103 E13.1546
G1 X100.57 Y118.733 E13.1719
G1 X100.541 Y118.335 E13.19048
G1 X100.513 Y117.398 E13.23413
G1 X100.539 Y116.77 E13.2634
G1 X100.613 Y115.777 E13.30976
G1 X100.652 Y115.389 E13.32792
G1 X100.786 Y114.461 E13.37158
G1 X100.928 Y113.809 E13.40265
G1 X101.084 Y113.188 E13.43247
G1 X101.17 Y112.867 E13.44794
G1 X101.282 Y112.472 E13.46706
G1 X101.576 Y111.582 E13.5107
G1 X101.821 Y110.987 E13.54067
G1 X102.072 Y110.425 E13.56933
G1 X102.211 Y110.127 E13.58464
G1 X102.396 Y109.744 E13.60444
G1 X102.84 Y108.917 E13.64815
G1 X103.185 Y108.372 E13.67818
G1 X103.522 Y107.873 E13.70622
G1 X103.722 Y107.587 E13.72247
G1 X103.985 Y107.223 E13.74338
G1 X104.566 Y106.487 E13.78705
G1 X105 Y106.011 E13.81704
G1 X105.434 Y105.563 E13.84609
G1 X105.665 Y105.332 E13.8613
G1 X105.959 Y105.046 E13.8804
G1 X106.658 Y104.422 E13.92403
G1 X107.174 Y104.024 E13.95437
G1 X107.679 Y103.658 E13.98341
G1 X107.96 Y103.461 E13.99939
G1 X108.308 Y103.225 E14.01897
G1 X109.106 Y102.732 E14.06265
G1 X109.648 Y102.448 E14.09114
G1 X110.204 Y102.176 E14.11996
G1 X110.549 Y102.015 E14.13769
G1 X110.945 Y101.838 E14.15789
G1 X111.817 Y101.492 E14.20157
G1 X112.407 Y101.305 E14.23039
G1 X113.008 Y101.133 E14.2595
G1 X113.348 Y101.041 E14.2759
G1 X113.745 Y100.941 E14.29496
G1 X114.664 Y100.751 E14.33866
G1 X115.276 Y100.669 E14.36741
G1 X115.91 Y100.602 E14.3971
G1 X116.271 Y100.57 E14.41398
G1 X116.671 Y100.541 E14.43265
G1 X117.608 Y100.513 E14.4763
G1 X118.234 Y100.539 E14.50547
G1 X119.223 Y100.613 E14.55166
G1 F2700 E9.55166
;MESH:Separator.stl
G0 F6000 X118.197 Y110.894
G0 X118.038 Y112.738
G0 X119.749 Y113.674
G0 X120.496 Y114.225
G0 X121.112 Y114.918
G0 X121.568 Y115.727
G0 X121.85 Y116.61
G0 X121.938 Y117.534
