;FLAVOR:Marlin
;TIME:8246
;Filament used: 8.02469m
;Layer height: 0.28
;MINX:46.5
;MINY:97
;MINZ:0.28
;MAXX:188.5
;MAXY:138
;MAXZ:44.52
;Generated with Cura_SteamEngine 4.6.1
M140 S50
M105
M190 S50
M104 S210
M105
M109 S210
M82 ;absolute extrusion mode
; Ender 3 Custom Start G-code
G92 E0 ; Reset Extruder
G28 ; Home all axes
G1 Z2.0 F3000 ; Move Z Axis up little to prevent scratching of Heat Bed
G1 X0.1 Y20 Z0.3 F5000.0 ; Move to start position
G1 X0.1 Y200.0 Z0.3 F1500.0 E15 ; Draw the first line
G1 X0.4 Y200.0 Z0.3 F5000.0 ; Move to side a little
G1 X0.4 Y20 Z0.3 F1500.0 E30 ; Draw the second line
G92 E0 ; Reset Extruder
G1 Z2.0 F3000 ; Move Z Axis up little to prevent scratching of Heat Bed
G1 X5 Y20 Z0.3 F5000.0 ; Move over to prevent blob squish
G92 E0
G92 E0
G1 F2700 E-5
;LAYER_COUNT:159
;LAYER:0
M107
G0 F6000 X177.637 Y97.811 Z0.28
;TYPE:SKIRT
G1 F2700 E0
G1 F1200 X178.539 Y97.864 E0.04207
G1 X179.432 Y97.996 E0.08411
G1 X180.31 Y98.207 E0.12615
G1 X181.166 Y98.495 E0.16821
G1 X181.993 Y98.857 E0.21025
G1 X182.785 Y99.292 E0.25232
G1 X183.536 Y99.794 E0.29438
G1 X184.239 Y100.361 E0.33644
G1 X184.889 Y100.988 E0.37849
G1 X185.481 Y101.67 E0.42054
G1 X186.011 Y102.401 E0.46259
G1 X186.473 Y103.177 E0.50464
G1 X186.866 Y103.99 E0.54669
G1 X187.184 Y104.835 E0.58873
G1 X187.427 Y105.705 E0.63079
G1 X187.592 Y106.593 E0.67285
G1 X187.687 Y107.723 E0.72565
G1 X187.7 Y108.33 E0.75392
G1 X187.699 Y115.509 E1.0882
G1 X187.685 Y117.55 E1.18324
G1 X187.682 Y126.442 E1.59729
G1 X187.673 Y127.107 E1.62826
G1 X187.621 Y128.009 E1.67033
G1 X187.489 Y128.902 E1.71237
G1 X187.279 Y129.78 E1.7544
G1 X186.992 Y130.637 E1.79649
G1 X186.63 Y131.464 E1.83852
G1 X186.197 Y132.256 E1.88055
G1 X185.695 Y133.007 E1.92262
G1 X185.128 Y133.711 E1.96471
G1 X184.502 Y134.361 E2.00673
G1 X183.821 Y134.954 E2.04877
G1 X183.089 Y135.484 E2.09086
G1 X182.314 Y135.947 E2.13289
G1 X181.501 Y136.34 E2.17494
G1 X180.656 Y136.66 E2.21701
G1 X179.787 Y136.903 E2.25903
G1 X178.899 Y137.069 E2.3011
G1 X178.44 Y137.123 E2.32262
G1 X178.114 Y137.154 E2.33787
G1 X177.148 Y137.2 E2.3829
G1 X58.222 Y137.2 E7.92059
G1 X57.392 Y137.19 E7.95924
G1 X56.491 Y137.139 E8.00126
G1 X55.597 Y137.007 E8.04334
G1 X54.719 Y136.798 E8.08537
G1 X53.862 Y136.511 E8.12745
G1 X53.035 Y136.15 E8.16947
G1 X52.242 Y135.717 E8.21154
G1 X51.491 Y135.216 E8.25358
G1 X50.787 Y134.65 E8.29564
G1 X50.136 Y134.024 E8.33769
G1 X49.543 Y133.343 E8.37974
G1 X49.013 Y132.612 E8.42178
G1 X48.549 Y131.837 E8.46385
G1 X48.155 Y131.024 E8.50591
G1 X47.835 Y130.18 E8.54794
G1 X47.591 Y129.31 E8.59002
G1 X47.425 Y128.422 E8.63208
G1 X47.328 Y127.267 E8.68605
G1 X47.315 Y126.66 E8.71432
G1 X47.313 Y116.577 E9.18383
G1 X47.3 Y114.656 E9.27328
G1 X47.301 Y108.536 E9.55826
G1 X47.31 Y107.871 E9.58922
G1 X47.362 Y106.969 E9.63129
G1 X47.494 Y106.076 E9.67333
G1 X47.704 Y105.198 E9.71537
G1 X47.991 Y104.341 E9.75745
G1 X48.353 Y103.514 E9.79949
G1 X48.786 Y102.722 E9.84152
G1 X49.288 Y101.971 E9.88358
G1 X49.855 Y101.267 E9.92567
G1 X50.481 Y100.617 E9.96769
G1 X51.162 Y100.024 E10.00974
G1 X51.894 Y99.494 E10.05182
G1 X52.669 Y99.031 E10.09386
G1 X53.482 Y98.638 E10.1359
G1 X54.327 Y98.318 E10.17798
G1 X55.196 Y98.075 E10.21999
G1 X56.084 Y97.909 E10.26206
G1 X57.223 Y97.813 E10.31528
G1 X57.83 Y97.8 E10.34355
G1 X176.793 Y97.8 E15.88297
G1 X176.939 Y97.801 E15.88977
G1 X177.637 Y97.811 E15.92227
G0 F6000 X177.643 Y97.411
G1 F1200 X178.562 Y97.464 E15.96514
G1 X179.473 Y97.597 E16.00801
G1 X180.369 Y97.808 E16.05087
G1 X181.243 Y98.096 E16.09372
G1 X182.09 Y98.459 E16.13663
G1 X182.901 Y98.894 E16.17948
G1 X183.671 Y99.398 E16.22233
G1 X184.395 Y99.967 E16.26521
G1 X185.067 Y100.597 E16.3081
G1 X185.682 Y101.282 E16.35097
G1 X186.235 Y102.018 E16.39384
G1 X186.722 Y102.799 E16.43669
G1 X187.139 Y103.62 E16.47957
G1 X187.484 Y104.474 E16.52246
G1 X187.753 Y105.354 E16.56531
G1 X187.945 Y106.255 E16.6082
G1 X188.058 Y107.168 E16.65104
G1 X188.087 Y107.712 E16.67641
G1 X188.1 Y108.33 E16.70519
G1 X188.099 Y115.51 E17.03952
G1 X188.085 Y117.552 E17.13461
G1 X188.082 Y126.447 E17.5488
G1 X188.073 Y127.112 E17.57977
G1 X188.021 Y128.032 E17.62267
G1 X187.889 Y128.943 E17.66554
G1 X187.678 Y129.839 E17.7084
G1 X187.391 Y130.714 E17.75128
G1 X187.028 Y131.56 E17.79414
G1 X186.594 Y132.372 E17.83702
G1 X186.091 Y133.143 E17.87988
G1 X185.522 Y133.867 E17.92276
G1 X184.894 Y134.539 E17.96559
G1 X184.209 Y135.155 E18.00848
G1 X183.473 Y135.708 E18.05135
G1 X182.692 Y136.196 E18.09423
G1 X181.872 Y136.614 E18.13709
G1 X181.018 Y136.959 E18.17998
G1 X180.138 Y137.229 E18.22284
G1 X179.238 Y137.421 E18.26569
G1 X178.477 Y137.521 E18.30143
G1 X178.151 Y137.552 E18.31668
G1 X177.148 Y137.6 E18.36344
G1 X58.222 Y137.6 E23.90113
G1 X57.387 Y137.59 E23.94001
G1 X56.468 Y137.538 E23.98288
G1 X55.557 Y137.407 E24.02573
G1 X54.661 Y137.197 E24.06858
G1 X53.786 Y136.91 E24.11146
G1 X52.939 Y136.548 E24.15435
G1 X52.127 Y136.114 E24.19723
G1 X51.356 Y135.612 E24.24007
G1 X50.631 Y135.044 E24.28295
G1 X49.958 Y134.415 E24.32585
G1 X49.343 Y133.731 E24.36868
G1 X48.789 Y132.996 E24.41153
G1 X48.301 Y132.215 E24.45442
G1 X47.882 Y131.395 E24.4973
G1 X47.536 Y130.542 E24.54016
G1 X47.266 Y129.662 E24.58302
G1 X47.073 Y128.761 E24.62593
G1 X46.959 Y127.848 E24.66877
G1 X46.928 Y127.277 E24.6954
G1 X46.915 Y126.66 E24.72413
G1 X46.913 Y116.577 E25.19364
G1 X46.9 Y114.658 E25.283
G1 X46.901 Y108.531 E25.5683
G1 X46.91 Y107.866 E25.59927
G1 X46.962 Y106.946 E25.64217
G1 X47.094 Y106.035 E25.68504
G1 X47.305 Y105.139 E25.7279
G1 X47.592 Y104.264 E25.77078
G1 X47.955 Y103.418 E25.81364
G1 X48.389 Y102.606 E25.85652
G1 X48.892 Y101.835 E25.89938
G1 X49.461 Y101.111 E25.94226
G1 X50.089 Y100.439 E25.98509
G1 X50.774 Y99.823 E26.02798
G1 X51.51 Y99.27 E26.07085
G1 X52.291 Y98.782 E26.11373
G1 X53.111 Y98.364 E26.15659
G1 X53.965 Y98.019 E26.19948
G1 X54.845 Y97.749 E26.24234
G1 X55.745 Y97.557 E26.28519
G1 X56.659 Y97.443 E26.32808
G1 X57.212 Y97.413 E26.35387
G1 X57.83 Y97.4 E26.38265
G1 X176.793 Y97.4 E31.92207
G1 X176.945 Y97.401 E31.92915
G1 X177.643 Y97.411 E31.96165
G0 F6000 X177.649 Y97.011
G1 F1200 X178.585 Y97.065 E32.00531
G1 X179.513 Y97.197 E32.04895
G1 X180.427 Y97.409 E32.09264
G1 X181.319 Y97.698 E32.1363
G1 X182.184 Y98.061 E32.17999
G1 X183.014 Y98.497 E32.22364
G1 X183.805 Y99.002 E32.26734
G1 X184.549 Y99.573 E32.31101
G1 X185.242 Y100.205 E32.35468
G1 X185.879 Y100.893 E32.39834
G1 X186.454 Y101.634 E32.44202
G1 X186.965 Y102.42 E32.48567
G1 X187.407 Y103.248 E32.52938
G1 X187.776 Y104.11 E32.57304
G1 X188.071 Y105 E32.6167
G1 X188.289 Y105.912 E32.66036
G1 X188.429 Y106.84 E32.70406
G1 X188.487 Y107.701 E32.74424
G1 X188.5 Y108.33 E32.77354
G1 X188.499 Y115.562 E33.11029
G1 X188.485 Y117.555 E33.20309
G1 X188.482 Y126.453 E33.61742
G1 X188.473 Y127.118 E33.64839
G1 X188.42 Y128.054 E33.69204
G1 X188.288 Y128.983 E33.73574
G1 X188.077 Y129.897 E33.77942
G1 X187.789 Y130.789 E33.82306
G1 X187.426 Y131.654 E33.86674
G1 X186.991 Y132.485 E33.91042
G1 X186.487 Y133.275 E33.95405
G1 X185.917 Y134.02 E33.99773
G1 X185.285 Y134.714 E34.04144
G1 X184.597 Y135.351 E34.0851
G1 X183.857 Y135.927 E34.12876
G1 X183.071 Y136.439 E34.17244
G1 X182.244 Y136.881 E34.21611
G1 X181.382 Y137.251 E34.25979
G1 X180.492 Y137.547 E34.30346
G1 X179.58 Y137.765 E34.34712
G1 X178.515 Y137.92 E34.39724
G1 X178.189 Y137.951 E34.41249
G1 X177.148 Y138 E34.46101
G1 X58.222 Y138 E39.99871
G1 X57.382 Y137.99 E40.03782
G1 X56.446 Y137.938 E40.08147
G1 X55.517 Y137.806 E40.12517
G1 X54.603 Y137.596 E40.16883
G1 X53.71 Y137.309 E40.21251
G1 X52.845 Y136.946 E40.25619
G1 X52.014 Y136.512 E40.29985
G1 X51.223 Y136.008 E40.34352
G1 X50.478 Y135.438 E40.3872
G1 X49.784 Y134.807 E40.43088
G1 X49.147 Y134.12 E40.4745
G1 X48.57 Y133.38 E40.51819
G1 X48.058 Y132.594 E40.56187
G1 X47.615 Y131.767 E40.60556
G1 X47.244 Y130.906 E40.64921
G1 X46.948 Y130.016 E40.69289
G1 X46.729 Y129.104 E40.73656
G1 X46.588 Y128.177 E40.78022
G1 X46.528 Y127.288 E40.82171
G1 X46.515 Y126.66 E40.85096
G1 X46.513 Y116.577 E41.32047
G1 X46.5 Y114.661 E41.40969
G1 X46.501 Y108.525 E41.69541
G1 X46.51 Y107.86 E41.72637
G1 X46.563 Y106.924 E41.77003
G1 X46.695 Y105.995 E41.81372
G1 X46.906 Y105.081 E41.8574
G1 X47.194 Y104.189 E41.90105
G1 X47.557 Y103.324 E41.94473
G1 X47.992 Y102.493 E41.9884
G1 X48.496 Y101.703 E42.03204
G1 X49.066 Y100.958 E42.07572
G1 X49.698 Y100.264 E42.11942
G1 X50.386 Y99.627 E42.16308
G1 X51.126 Y99.051 E42.20675
G1 X51.912 Y98.539 E42.25043
G1 X52.739 Y98.097 E42.29409
G1 X53.601 Y97.727 E42.33777
G1 X54.491 Y97.431 E42.38145
G1 X55.403 Y97.213 E42.42511
G1 X56.33 Y97.072 E42.46877
G1 X57.201 Y97.013 E42.50942
G1 X57.83 Y97 E42.53872
G1 X176.793 Y97 E48.07813
G1 X176.951 Y97.001 E48.08549
G1 X177.649 Y97.011 E48.11799
G1 F2700 E43.11799
;MESH:Wheel Cover 1.stl
G0 F6000 X79.678 Y120.619
G0 X80.975 Y121.3
G0 X79.42 Y122.436
;TYPE:WALL-INNER
G1 F2700 E48.11799
G1 F1200 X79.976 Y122.146 E48.14719
G1 X80.449 Y121.729 E48.17655
G1 X80.805 Y121.211 E48.20582
G1 X81.028 Y120.625 E48.23502
G1 X81.104 Y120.001 E48.26429
G1 X81.03 Y119.38 E48.29341
G1 X80.81 Y118.796 E48.32247
G1 X80.455 Y118.28 E48.35163
G1 X79.989 Y117.865 E48.38069
G1 X79.437 Y117.572 E48.40979
G1 X78.821 Y117.416 E48.43938
G1 X78.192 Y117.414 E48.46867
G1 X77.582 Y117.562 E48.4979
G1 X77.026 Y117.853 E48.52712
G1 X76.555 Y118.268 E48.55635
G1 X76.198 Y118.785 E48.5856
G1 X75.973 Y119.371 E48.61483
G1 X75.897 Y119.993 E48.64401
G1 X75.968 Y120.618 E48.6733
G1 X76.192 Y121.207 E48.70264
G1 X76.548 Y121.722 E48.73179
G1 X77.016 Y122.141 E48.76104
G1 X77.573 Y122.433 E48.79033
G1 X78.181 Y122.584 E48.8195
G1 X78.811 Y122.586 E48.84884
G1 X79.42 Y122.436 E48.87804
G0 F6000 X79.278 Y122.059
;TYPE:WALL-OUTER
G1 F1200 X79.748 Y121.814 E48.90272
G1 X80.147 Y121.462 E48.9275
G1 X80.448 Y121.024 E48.95224
G1 X80.637 Y120.528 E48.97696
G1 X80.701 Y120 E49.00172
G1 X80.639 Y119.476 E49.02629
G1 X80.453 Y118.983 E49.05083
G1 X80.153 Y118.547 E49.07547
G1 X79.759 Y118.196 E49.10004
G1 X79.292 Y117.948 E49.12467
G1 X78.77 Y117.816 E49.14974
G1 X78.239 Y117.814 E49.17446
G1 X77.724 Y117.939 E49.19914
G1 X77.254 Y118.185 E49.22384
G1 X76.856 Y118.536 E49.24855
G1 X76.554 Y118.973 E49.27329
G1 X76.364 Y119.468 E49.29798
G1 X76.3 Y119.995 E49.3227
G1 X76.36 Y120.523 E49.34744
G1 X76.549 Y121.02 E49.3722
G1 X76.85 Y121.456 E49.39687
G1 X77.246 Y121.81 E49.4216
G1 X77.716 Y122.056 E49.4463
G1 X78.231 Y122.184 E49.47101
G1 X78.763 Y122.186 E49.49579
G1 X79.278 Y122.059 E49.52048
G0 F6000 X79.433 Y122.47
G1 F2700 E44.52048
G0 F6000 X80.085 Y122.304
G0 X79.255 Y121.097
G0 X103.645 Y121.096
G0 X103.742 Y121.095
G0 X105.255 Y121.097
G0 X105.352 Y121.096
G0 X129.644 Y121.095
G0 X129.742 Y121.095
G0 X131.255 Y121.097
G0 X131.353 Y121.095
G0 X155.742 Y121.095
G0 X154.906 Y122.299
G0 X155.573 Y122.433
;TYPE:WALL-INNER
G1 F2700 E49.52048
G1 F1200 X156.181 Y122.584 E49.54966
G1 X156.811 Y122.586 E49.57899
G1 X157.42 Y122.436 E49.6082
G1 X157.976 Y122.146 E49.6374
G1 X158.449 Y121.729 E49.66676
G1 X158.805 Y121.211 E49.69603
G1 X159.028 Y120.625 E49.72522
G1 X159.104 Y120.001 E49.75449
G1 X159.03 Y119.38 E49.78361
G1 X158.81 Y118.796 E49.81267
G1 X158.455 Y118.28 E49.84184
G1 X157.989 Y117.865 E49.87089
G1 X157.437 Y117.572 E49.89999
G1 X156.821 Y117.416 E49.92958
G1 X156.192 Y117.414 E49.95887
G1 X155.582 Y117.562 E49.9881
G1 X155.026 Y117.853 E50.01732
G1 X154.555 Y118.268 E50.04655
G1 X154.198 Y118.785 E50.07581
G1 X153.973 Y119.371 E50.10503
G1 X153.897 Y119.993 E50.13421
G1 X153.968 Y120.618 E50.1635
G1 X154.192 Y121.207 E50.19285
G1 X154.548 Y121.722 E50.222
G1 X155.016 Y122.141 E50.25125
G1 X155.573 Y122.433 E50.28053
G0 F6000 X155.716 Y122.056
;TYPE:WALL-OUTER
G1 F1200 X156.231 Y122.184 E50.30524
G1 X156.763 Y122.186 E50.33001
G1 X157.278 Y122.059 E50.35471
G1 X157.748 Y121.814 E50.37939
G1 X158.147 Y121.462 E50.40417
G1 X158.448 Y121.024 E50.42892
G1 X158.637 Y120.528 E50.45363
G1 X158.701 Y120 E50.4784
G1 X158.639 Y119.476 E50.50297
G1 X158.453 Y118.983 E50.5275
G1 X158.153 Y118.547 E50.55215
G1 X157.759 Y118.196 E50.57672
G1 X157.292 Y117.948 E50.60134
G1 X156.77 Y117.816 E50.62641
G1 X156.239 Y117.814 E50.65114
G1 X155.724 Y117.939 E50.67581
G1 X155.254 Y118.185 E50.70051
G1 X154.856 Y118.536 E50.72522
G1 X154.554 Y118.973 E50.74996
G1 X154.364 Y119.468 E50.77465
G1 X154.3 Y119.995 E50.79937
G1 X154.36 Y120.523 E50.82411
G1 X154.549 Y121.02 E50.84887
G1 X154.85 Y121.456 E50.87354
G1 X155.246 Y121.81 E50.89827
G1 X155.716 Y122.056 E50.92298
G0 F6000 X155.56 Y122.467
G1 F2700 E45.92298
G0 F6000 X154.906 Y122.299
G0 X155.742 Y121.095
G0 X131.255 Y121.097
G0 X132.085 Y122.304
G0 X130.181 Y122.584
;TYPE:WALL-INNER
G1 F2700 E50.92298
G1 F1200 X130.811 Y122.586 E50.95231
G1 X131.42 Y122.436 E50.98152
G1 X131.976 Y122.146 E51.01072
G1 X132.449 Y121.729 E51.04008
G1 X132.805 Y121.211 E51.06935
G1 X133.028 Y120.625 E51.09854
G1 X133.104 Y120.001 E51.12781
G1 X133.03 Y119.38 E51.15693
G1 X132.81 Y118.796 E51.18599
G1 X132.455 Y118.28 E51.21516
G1 X131.989 Y117.865 E51.24421
G1 X131.437 Y117.572 E51.27331
G1 X130.821 Y117.416 E51.3029
G1 X130.192 Y117.414 E51.33219
G1 X129.582 Y117.562 E51.36142
G1 X129.026 Y117.853 E51.39064
G1 X128.555 Y118.268 E51.41987
G1 X128.198 Y118.785 E51.44913
G1 X127.973 Y119.371 E51.47835
G1 X127.897 Y119.993 E51.50753
G1 X127.968 Y120.618 E51.53682
G1 X128.192 Y121.207 E51.56617
G1 X128.548 Y121.722 E51.59532
G1 X129.016 Y122.141 E51.62457
G1 X129.573 Y122.433 E51.65385
G1 X130.181 Y122.584 E51.68302
G0 F6000 X130.231 Y122.184
;TYPE:WALL-OUTER
G1 F1200 X130.763 Y122.186 E51.7078
G1 X131.278 Y122.059 E51.73249
G1 X131.748 Y121.814 E51.75717
G1 X132.147 Y121.462 E51.78195
G1 X132.448 Y121.024 E51.8067
G1 X132.637 Y120.528 E51.83141
G1 X132.701 Y120 E51.85618
G1 X132.639 Y119.476 E51.88075
G1 X132.453 Y118.983 E51.90528
G1 X132.153 Y118.547 E51.92993
G1 X131.759 Y118.196 E51.9545
G1 X131.292 Y117.948 E51.97912
G1 X130.77 Y117.816 E52.00419
G1 X130.239 Y117.814 E52.02892
G1 X129.724 Y117.939 E52.05359
G1 X129.254 Y118.185 E52.0783
G1 X128.856 Y118.536 E52.10301
G1 X128.554 Y118.973 E52.12774
G1 X128.364 Y119.468 E52.15243
G1 X128.3 Y119.995 E52.17715
G1 X128.36 Y120.523 E52.20189
G1 X128.549 Y121.02 E52.22665
G1 X128.85 Y121.456 E52.25132
G1 X129.246 Y121.81 E52.27606
G1 X129.716 Y122.056 E52.30076
G1 X130.231 Y122.184 E52.32547
G0 F6000 X130.177 Y122.62
G1 F2700 E47.32547
G0 F6000 X128.906 Y122.299
G0 X129.742 Y121.095
G0 X105.255 Y121.097
G0 X106.085 Y122.304
G0 X104.811 Y122.586
;TYPE:WALL-INNER
G1 F2700 E52.32547
G1 F1200 X105.42 Y122.436 E52.35467
G1 X105.976 Y122.146 E52.38387
G1 X106.449 Y121.729 E52.41323
G1 X106.805 Y121.211 E52.4425
G1 X107.028 Y120.625 E52.4717
G1 X107.104 Y120.001 E52.50097
G1 X107.03 Y119.38 E52.53009
G1 X106.81 Y118.796 E52.55915
G1 X106.455 Y118.28 E52.58831
G1 X105.989 Y117.865 E52.61737
G1 X105.437 Y117.572 E52.64647
G1 X104.821 Y117.416 E52.67606
G1 X104.192 Y117.414 E52.70535
G1 X103.582 Y117.562 E52.73457
G1 X103.026 Y117.853 E52.7638
G1 X102.555 Y118.268 E52.79303
G1 X102.198 Y118.785 E52.82228
G1 X101.973 Y119.371 E52.85151
G1 X101.897 Y119.993 E52.88069
G1 X101.968 Y120.618 E52.90998
G1 X102.192 Y121.207 E52.93932
G1 X102.548 Y121.722 E52.96847
G1 X103.016 Y122.141 E52.99772
G1 X103.573 Y122.433 E53.02701
G1 X104.181 Y122.584 E53.05618
G1 X104.811 Y122.586 E53.08551
G0 F6000 X104.763 Y122.186
;TYPE:WALL-OUTER
G1 F1200 X105.278 Y122.059 E53.11021
G1 X105.748 Y121.814 E53.13489
G1 X106.147 Y121.462 E53.15967
G1 X106.448 Y121.024 E53.18442
G1 X106.637 Y120.528 E53.20913
G1 X106.701 Y120 E53.2339
G1 X106.639 Y119.476 E53.25847
G1 X106.453 Y118.983 E53.283
G1 X106.153 Y118.547 E53.30765
G1 X105.759 Y118.196 E53.33222
G1 X105.292 Y117.948 E53.35684
G1 X104.77 Y117.816 E53.38191
G1 X104.239 Y117.814 E53.40664
G1 X103.724 Y117.939 E53.43131
G1 X103.254 Y118.185 E53.45601
G1 X102.856 Y118.536 E53.48072
G1 X102.554 Y118.973 E53.50546
G1 X102.364 Y119.468 E53.53015
G1 X102.3 Y119.995 E53.55487
G1 X102.36 Y120.523 E53.57961
