;FLAVOR:Marlin
;TIME:8742
;Filament used: 6.98444m
;Layer height: 0.2
;MINX:46.5
;MINY:84.223
;MINZ:0.2
;MAXX:188.499
;MAXY:150.83
;MAXZ:19
;Generated with Cura_SteamEngine 4.6.1
M140 S50
M105
M190 S50
M104 S205
M105
M109 S205
M82 ;absolute extrusion mode
; Ender 3 Custom Start G-code
G92 E0 ; Reset Extruder
G28 ; Home all axes
G1 Z2.0 F3000 ; Move Z Axis up little to prevent scratching of Heat Bed
G1 X0.1 Y20 Z0.3 F5000.0 ; Move to start position
G1 X0.1 Y200.0 Z0.3 F1500.0 E15 ; Draw the first line
G1 X0.4 Y200.0 Z0.3 F5000.0 ; Move to side a little
G1 X0.4 Y20 Z0.3 F1500.0 E30 ; Draw the second line
G92 E0 ; Reset Extruder
G1 Z2.0 F3000 ; Move Z Axis up little to prevent scratching of Heat Bed
G1 X5 Y20 Z0.3 F5000.0 ; Move over to prevent blob squish
G92 E0
G92 E0
G1 F2700 E-5
;LAYER_COUNT:95
;LAYER:0
M107
G0 F6000 X118.638 Y85.045 Z0.2
;TYPE:SKIRT
G1 F2700 E0
G1 F1200 X122.544 Y85.199 E0.13002
G1 X123.42 Y85.25 E0.1592
G1 X124.239 Y85.32 E0.18654
G1 X124.627 Y85.362 E0.19952
G1 X128.454 Y85.803 E0.32765
G1 X129.357 Y85.923 E0.35795
G1 X130.128 Y86.048 E0.38393
G1 X130.468 Y86.111 E0.39543
G1 X134.357 Y86.858 E0.52714
G1 X134.775 Y86.948 E0.54136
G1 X136.273 Y87.306 E0.59259
G1 X139.807 Y88.264 E0.71437
G1 X140.451 Y88.448 E0.73665
G1 X140.764 Y88.543 E0.74753
G1 X141.662 Y88.831 E0.77889
G1 X141.948 Y88.928 E0.78894
G1 X145.443 Y90.165 E0.91225
G1 X146.09 Y90.404 E0.93519
G1 X146.405 Y90.526 E0.94642
G1 X147.548 Y90.996 E0.98753
G1 X150.919 Y92.485 E1.1101
G1 X152.05 Y93.012 E1.1516
G1 X152.338 Y93.154 E1.16228
G1 X152.638 Y93.308 E1.1735
G1 X156.401 Y95.322 E1.31545
G1 X157.002 Y95.654 E1.33829
G1 X157.348 Y95.854 E1.35158
G1 X157.967 Y96.231 E1.37569
G1 X161.494 Y98.477 E1.51476
G1 X162.053 Y98.844 E1.537
G1 X162.655 Y99.264 E1.56142
G1 X162.987 Y99.507 E1.5751
G1 X166.296 Y101.984 E1.71258
G1 X166.819 Y102.387 E1.73454
G1 X167.148 Y102.653 E1.74861
G1 X167.661 Y103.085 E1.77092
G1 X170.835 Y105.858 E1.9111
G1 X171.524 Y106.483 E1.94204
G1 X171.71 Y106.66 E1.95058
G1 X171.946 Y106.893 E1.96161
G1 X175.039 Y110.036 E2.10827
G1 X175.7 Y110.733 E2.14022
G1 X176 Y111.069 E2.15521
G1 X176.275 Y111.389 E2.16924
G1 X178.869 Y114.458 E2.30289
G1 X179.378 Y115.078 E2.32957
G1 X179.646 Y115.42 E2.34402
G1 X180.044 Y115.951 E2.36609
G1 X182.509 Y119.361 E2.50604
G1 X183.358 Y120.578 E2.5554
G1 X183.975 Y121.524 E2.59296
G1 X184.266 Y122 E2.61152
G1 X184.666 Y122.674 E2.63758
G1 X184.955 Y123.195 E2.6574
G1 X185.137 Y123.547 E2.67058
G1 X185.403 Y124.097 E2.6909
G1 X185.495 Y124.301 E2.69834
G1 X185.864 Y125.138 E2.72877
G1 X186.305 Y126.337 E2.77126
G1 X186.68 Y127.594 E2.81489
G1 X186.768 Y127.907 E2.8257
G1 X186.953 Y128.608 E2.84981
G1 X187.077 Y129.131 E2.86769
G1 X187.137 Y129.419 E2.87748
G1 X187.219 Y129.861 E2.89243
G1 X187.321 Y130.488 E2.91356
G1 X187.374 Y130.858 E2.92599
G1 X187.506 Y131.912 E2.96132
G1 X187.564 Y132.532 E2.98203
G1 X187.643 Y133.773 E3.02339
G1 X187.659 Y134.118 E3.03488
G1 X187.699 Y135.595 E3.08402
G1 X187.699 Y139.232 E3.20499
G1 X187.689 Y139.961 E3.22924
G1 X187.637 Y140.862 E3.25925
G1 X187.505 Y141.756 E3.28931
G1 X187.294 Y142.634 E3.31934
G1 X187.007 Y143.49 E3.34937
G1 X186.645 Y144.318 E3.37943
G1 X186.212 Y145.11 E3.40945
G1 X185.71 Y145.861 E3.4395
G1 X185.143 Y146.564 E3.46953
G1 X184.517 Y147.215 E3.49957
G1 X183.835 Y147.807 E3.52961
G1 X183.104 Y148.337 E3.55964
G1 X182.329 Y148.8 E3.58967
G1 X181.515 Y149.193 E3.61973
G1 X180.671 Y149.512 E3.64974
G1 X179.801 Y149.756 E3.67979
G1 X178.913 Y149.921 E3.70983
G1 X177.777 Y150.017 E3.74775
G1 X177.17 Y150.03 E3.76795
G1 X61.93 Y150.03 E7.60084
G1 X58.04 Y150.028 E7.73023
G1 X57.379 Y150.019 E7.75221
G1 X56.478 Y149.967 E7.78223
G1 X55.584 Y149.835 E7.81229
G1 X54.706 Y149.625 E7.84231
G1 X53.85 Y149.338 E7.87234
G1 X53.022 Y148.976 E7.9024
G1 X52.23 Y148.542 E7.93244
G1 X51.479 Y148.04 E7.96248
G1 X50.776 Y147.474 E7.9925
G1 X50.125 Y146.847 E8.02256
G1 X49.532 Y146.166 E8.0526
G1 X49.002 Y145.435 E8.08263
G1 X48.539 Y144.66 E8.11265
G1 X48.146 Y143.846 E8.14272
G1 X47.827 Y143.002 E8.17273
G1 X47.583 Y142.132 E8.20278
G1 X47.418 Y141.244 E8.23282
G1 X47.332 Y140.362 E8.26229
G1 X47.314 Y140.024 E8.27355
G1 X47.3 Y139.482 E8.29159
G1 X47.301 Y135.816 E8.41352
G1 X47.315 Y134.972 E8.44159
G1 X47.332 Y134.437 E8.4594
G1 X47.373 Y133.508 E8.49032
G1 X47.425 Y132.683 E8.51782
G1 X47.492 Y131.927 E8.54306
G1 X47.529 Y131.576 E8.5548
G1 X47.585 Y131.123 E8.56998
G1 X47.629 Y130.81 E8.58049
G1 X47.721 Y130.217 E8.60045
G1 X47.78 Y129.872 E8.6121
G1 X47.9 Y129.242 E8.63343
G1 X48.026 Y128.67 E8.65291
G1 X48.257 Y127.768 E8.68388
G1 X48.445 Y127.111 E8.7066
G1 X48.666 Y126.392 E8.73162
G1 X49.069 Y125.307 E8.77012
G1 X49.449 Y124.441 E8.80157
G1 X49.704 Y123.895 E8.82162
G1 X49.968 Y123.355 E8.84161
G1 X50.401 Y122.562 E8.87166
G1 X51.042 Y121.504 E8.9128
G1 X51.391 Y120.959 E8.93433
G1 X51.916 Y120.178 E8.96563
G1 X52.502 Y119.351 E8.99934
G1 X54.94 Y115.978 E9.13776
G1 X55.634 Y115.059 E9.17607
G1 X56.069 Y114.528 E9.1989
G1 X58.715 Y111.404 E9.33506
G1 X59.313 Y110.726 E9.36513
G1 X60.056 Y109.929 E9.40137
G1 X62.722 Y107.22 E9.52779
G1 X63.224 Y106.731 E9.5511
G1 X64.384 Y105.659 E9.60363
G1 X67.116 Y103.274 E9.72425
G1 X67.711 Y102.775 E9.75008
G1 X68.969 Y101.779 E9.80345
G1 X71.784 Y99.674 E9.92036
G1 X72.328 Y99.279 E9.94272
G1 X72.615 Y99.079 E9.95435
G1 X73.768 Y98.305 E10.00054
G1 X76.756 Y96.403 E10.11835
G1 X77.777 Y95.779 E10.15814
G1 X78.624 Y95.303 E10.19046
G1 X82.191 Y93.399 E10.32494
G1 X82.788 Y93.09 E10.3473
G1 X83.234 Y92.874 E10.36378
G1 X84.236 Y92.416 E10.40043
G1 X87.602 Y90.935 E10.52274
G1 X88.304 Y90.638 E10.54809
G1 X88.766 Y90.456 E10.5646
G1 X89.64 Y90.136 E10.59556
G1 X93.185 Y88.886 E10.72058
G1 X93.925 Y88.637 E10.74655
G1 X94.385 Y88.494 E10.76257
G1 X95.256 Y88.247 E10.79269
G1 X98.914 Y87.261 E10.91869
G1 X99.617 Y87.082 E10.94282
G1 X100.345 Y86.918 E10.96764
G1 X100.892 Y86.809 E10.98619
G1 X104.577 Y86.104 E11.11098
G1 X104.914 Y86.045 E11.12236
G1 X106.062 Y85.865 E11.16101
G1 X106.37 Y85.822 E11.17135
G1 X106.891 Y85.757 E11.18881
G1 X110.631 Y85.337 E11.31399
G1 X111.411 Y85.261 E11.34005
G1 X111.867 Y85.227 E11.35526
G1 X112.772 Y85.181 E11.3854
G1 X116.585 Y85.042 E11.51231
G1 X117.553 Y85.023 E11.54451
G1 X117.912 Y85.025 E11.55645
G1 X118.638 Y85.045 E11.58061
G0 F6000 X118.654 Y84.645
G1 F1200 X122.566 Y84.799 E11.71082
G1 X123.453 Y84.851 E11.74037
G1 X124.282 Y84.922 E11.76805
G1 X124.673 Y84.964 E11.78113
G1 X128.505 Y85.406 E11.90942
G1 X129.419 Y85.528 E11.94009
G1 X130.2 Y85.655 E11.96641
G1 X130.543 Y85.718 E11.97801
G1 X134.432 Y86.465 E12.10972
G1 X134.867 Y86.558 E12.12452
G1 X136.041 Y86.835 E12.16464
G1 X136.377 Y86.92 E12.17617
G1 X139.917 Y87.88 E12.29816
G1 X140.886 Y88.162 E12.33173
G1 X141.784 Y88.45 E12.36309
G1 X142.081 Y88.551 E12.37352
G1 X145.582 Y89.79 E12.49705
G1 X146.229 Y90.029 E12.51999
G1 X146.556 Y90.156 E12.53165
G1 X147.709 Y90.63 E12.57312
G1 X151.087 Y92.122 E12.69594
G1 X152.227 Y92.653 E12.73777
G1 X152.515 Y92.795 E12.74845
G1 X152.826 Y92.955 E12.76008
G1 X156.595 Y94.972 E12.90226
G1 X157.196 Y95.304 E12.9251
G1 X157.555 Y95.512 E12.9389
G1 X158.182 Y95.894 E12.96332
G1 X161.713 Y98.143 E13.10256
G1 X162.534 Y98.687 E13.13531
G1 X163.227 Y99.187 E13.16374
G1 X166.54 Y101.668 E13.3014
G1 X167.063 Y102.071 E13.32336
G1 X167.406 Y102.346 E13.33798
G1 X167.924 Y102.784 E13.36054
G1 X171.103 Y105.561 E13.50094
G1 X171.799 Y106.193 E13.53221
G1 X171.985 Y106.37 E13.54075
G1 X172.231 Y106.612 E13.55223
G1 X175.328 Y109.759 E13.69908
G1 X175.779 Y110.23 E13.72077
G1 X176.303 Y110.807 E13.74669
G1 X176.581 Y111.131 E13.76089
G1 X179.178 Y114.204 E13.89471
G1 X179.687 Y114.824 E13.92139
G1 X179.966 Y115.179 E13.93641
G1 X180.368 Y115.717 E13.95875
G1 X182.836 Y119.131 E14.09886
G1 X183.692 Y120.358 E14.14862
G1 X184.139 Y121.037 E14.17566
G1 X184.315 Y121.315 E14.1866
G1 X184.61 Y121.796 E14.20537
G1 X185.01 Y122.47 E14.23144
G1 X185.31 Y123.012 E14.25204
G1 X185.492 Y123.364 E14.26522
G1 X185.765 Y123.928 E14.28606
G1 X185.861 Y124.14 E14.2938
G1 X186.23 Y124.977 E14.32422
G1 X186.689 Y126.223 E14.36839
G1 X187.064 Y127.48 E14.41202
G1 X187.155 Y127.805 E14.42324
G1 X187.34 Y128.506 E14.44736
G1 X187.468 Y129.049 E14.46591
G1 X187.528 Y129.337 E14.4757
G1 X187.613 Y129.797 E14.49126
G1 X187.715 Y130.424 E14.51238
G1 X187.771 Y130.809 E14.52532
G1 X187.903 Y131.863 E14.56065
G1 X187.964 Y132.507 E14.58217
G1 X188.043 Y133.748 E14.62353
G1 X188.059 Y134.106 E14.63545
G1 X188.099 Y135.595 E14.68499
G1 X188.099 Y139.237 E14.80612
G1 X188.089 Y139.966 E14.83037
G1 X188.036 Y140.886 E14.86102
G1 X187.904 Y141.797 E14.89164
G1 X187.694 Y142.693 E14.92225
G1 X187.406 Y143.567 E14.95285
G1 X187.043 Y144.414 E14.9835
G1 X186.609 Y145.225 E15.0141
G1 X186.105 Y145.996 E15.04473
G1 X185.537 Y146.721 E15.07537
G1 X184.908 Y147.393 E15.10598
G1 X184.223 Y148.008 E15.1366
G1 X183.487 Y148.561 E15.16722
G1 X182.706 Y149.049 E15.19785
G1 X181.886 Y149.467 E15.22846
G1 X181.032 Y149.812 E15.2591
G1 X180.152 Y150.081 E15.2897
G1 X179.252 Y150.274 E15.32032
G1 X178.338 Y150.387 E15.35095
G1 X177.788 Y150.417 E15.36927
G1 X177.17 Y150.43 E15.38983
G1 X61.93 Y150.43 E19.22272
G1 X58.035 Y150.428 E19.35227
G1 X57.374 Y150.419 E19.37426
G1 X56.455 Y150.367 E19.40487
G1 X55.543 Y150.234 E19.43553
G1 X54.647 Y150.024 E19.46614
G1 X53.773 Y149.736 E19.49674
G1 X52.926 Y149.374 E19.52738
G1 X52.115 Y148.939 E19.55799
G1 X51.344 Y148.436 E19.58861
G1 X50.619 Y147.868 E19.61924
G1 X49.947 Y147.239 E19.64986
G1 X49.332 Y146.554 E19.68047
G1 X48.778 Y145.818 E19.71111
G1 X48.291 Y145.037 E19.74173
G1 X47.873 Y144.217 E19.77234
G1 X47.528 Y143.363 E19.80297
G1 X47.258 Y142.483 E19.83359
G1 X47.066 Y141.583 E19.8642
G1 X46.933 Y140.384 E19.90432
G1 X46.915 Y140.046 E19.91558
G1 X46.9 Y139.482 E19.93434
G1 X46.901 Y135.81 E20.05647
G1 X46.915 Y134.959 E20.08478
G1 X46.932 Y134.42 E20.10272
G1 X46.973 Y133.485 E20.13385
G1 X47.002 Y132.978 E20.15074
G1 X47.026 Y132.647 E20.16177
G1 X47.093 Y131.891 E20.18702
G1 X47.132 Y131.527 E20.19919
G1 X47.233 Y130.749 E20.22529
G1 X47.325 Y130.156 E20.24525
G1 X47.387 Y129.798 E20.25733
G1 X47.507 Y129.168 E20.27866
G1 X47.638 Y128.572 E20.29896
G1 X47.792 Y127.958 E20.32001
G1 X47.872 Y127.66 E20.33027
G1 X48.063 Y126.994 E20.35332
G1 X48.284 Y126.275 E20.37834
G1 X48.702 Y125.146 E20.41838
G1 X49.086 Y124.273 E20.4501
G1 X49.345 Y123.719 E20.47044
G1 X49.609 Y123.179 E20.49043
G1 X50.058 Y122.355 E20.52164
G1 X50.704 Y121.29 E20.56307
G1 X51.058 Y120.737 E20.58491
G1 X51.589 Y119.947 E20.61657
G1 X52.178 Y119.117 E20.65042
G1 X54.619 Y115.739 E20.78904
G1 X55.32 Y114.812 E20.82769
G1 X55.764 Y114.27 E20.851
G1 X58.413 Y111.141 E20.98735
G1 X59.019 Y110.454 E21.01782
G1 X59.542 Y109.888 E21.04345
G1 X59.771 Y109.648 E21.05449
G1 X62.442 Y106.935 E21.18111
G1 X62.952 Y106.438 E21.2048
G1 X63.878 Y105.577 E21.24685
G1 X64.121 Y105.358 E21.25774
G1 X66.857 Y102.969 E21.37854
G1 X67.462 Y102.462 E21.4048
G1 X68.475 Y101.655 E21.44787
G1 X68.73 Y101.459 E21.45857
G1 X71.549 Y99.351 E21.57565
G1 X72.093 Y98.956 E21.59801
G1 X72.391 Y98.747 E21.61011
G1 X73.553 Y97.967 E21.65666
G1 X76.547 Y96.062 E21.77469
G1 X77.577 Y95.432 E21.81485
G1 X78.436 Y94.95 E21.84761
G1 X82.008 Y93.044 E21.98227
G1 X82.605 Y92.735 E22.00463
G1 X83.067 Y92.51 E22.02172
G1 X84.075 Y92.05 E22.05857
G1 X87.446 Y90.567 E22.18106
G1 X88.148 Y90.27 E22.20641
G1 X88.628 Y90.08 E22.22358
G1 X89.507 Y89.759 E22.25471
G1 X93.057 Y88.507 E22.37991
G1 X93.797 Y88.258 E22.40588
G1 X94.275 Y88.109 E22.42253
G1 X95.152 Y87.861 E22.45284
G1 X98.815 Y86.874 E22.57902
G1 X99.835 Y86.619 E22.61399
G1 X100.267 Y86.526 E22.62869
G1 X100.817 Y86.416 E22.64734
G1 X104.502 Y85.711 E22.77213
G1 X104.852 Y85.65 E22.78395
G1 X106 Y85.47 E22.8226
G1 X106.321 Y85.425 E22.83338
G1 X106.846 Y85.36 E22.85097
G1 X110.592 Y84.939 E22.97635
G1 X111.372 Y84.863 E23.00241
G1 X111.846 Y84.827 E23.01823
G1 X112.757 Y84.781 E23.04856
G1 X116.575 Y84.642 E23.17564
G1 X117.555 Y84.623 E23.20824
G1 X117.914 Y84.625 E23.22018
G1 X118.654 Y84.645 E23.2448
G0 F6000 X118.67 Y84.245
G1 F1200 X122.587 Y84.4 E23.37518
G1 X123.486 Y84.452 E23.40513
G1 X124.324 Y84.525 E23.43311
G1 X124.719 Y84.567 E23.44632
G1 X128.557 Y85.009 E23.57482
G1 X129.481 Y85.133 E23.60582
G1 X130.273 Y85.261 E23.63251
G1 X130.619 Y85.325 E23.64421
G1 X134.508 Y86.072 E23.77592
G1 X134.959 Y86.169 E23.79127
G1 X136.133 Y86.446 E23.83139
G1 X136.482 Y86.534 E23.84336
G1 X140.027 Y87.495 E23.96552
G1 X140.671 Y87.679 E23.9878
G1 X141.008 Y87.782 E23.99952
G1 X142.215 Y88.173 E24.04172
G1 X145.721 Y89.414 E24.16542
G1 X146.368 Y89.653 E24.18836
G1 X146.707 Y89.785 E24.20046
G1 X147.87 Y90.264 E24.24229
G1 X151.256 Y91.759 E24.3654
G1 X152.403 Y92.294 E24.40749
G1 X152.691 Y92.436 E24.41817
G1 X153.015 Y92.602 E24.43028
G1 X156.788 Y94.621 E24.57261
G1 X157.389 Y94.953 E24.59545
G1 X157.762 Y95.169 E24.60978
G1 X158.397 Y95.556 E24.63452
G1 X161.933 Y97.809 E24.77397
G1 X162.763 Y98.359 E24.80709
G1 X163.466 Y98.867 E24.83593
G1 X166.784 Y101.351 E24.97379
G1 X167.307 Y101.754 E24.99575
G1 X167.663 Y102.04 E25.01094
G1 X168.188 Y102.483 E25.03379
G1 X171.37 Y105.263 E25.17432
G1 X172.075 Y105.903 E25.20599
G1 X172.261 Y106.08 E25.21453
G1 X172.517 Y106.332 E25.22648
G1 X175.617 Y109.482 E25.37347
G1 X176.295 Y110.197 E25.40625
G1 X176.886 Y110.872 E25.43609
G1 X179.487 Y113.95 E25.57012
G1 X179.996 Y114.57 E25.5968
G1 X180.286 Y114.939 E25.61241
G1 X180.692 Y115.482 E25.63496
G1 X183.164 Y118.902 E25.77531
G1 X184.026 Y120.138 E25.82543
G1 X184.473 Y120.817 E25.85247
G1 X184.656 Y121.106 E25.86385
G1 X184.954 Y121.592 E25.88281
G1 X185.354 Y122.266 E25.90887
G1 X185.665 Y122.828 E25.93024
G1 X185.847 Y123.18 E25.94342
G1 X186.127 Y123.758 E25.96478
G1 X186.227 Y123.979 E25.97285
G1 X186.596 Y124.816 E26.00327
G1 X187.072 Y126.108 E26.04907
G1 X187.447 Y127.365 E26.0927
G1 X187.542 Y127.703 E26.10437
G1 X187.727 Y128.404 E26.12849
G1 X187.86 Y128.968 E26.14776
G1 X187.92 Y129.256 E26.15754
G1 X188.008 Y129.733 E26.17368
G1 X188.11 Y130.36 E26.19481
G1 X188.168 Y130.759 E26.20822
G1 X188.3 Y131.813 E26.24355
G1 X188.363 Y132.481 E26.26586
G1 X188.442 Y133.722 E26.30722
G1 X188.459 Y134.094 E26.31961
G1 X188.499 Y135.595 E26.36955
G1 X188.499 Y139.243 E26.49088
G1 X188.489 Y139.972 E26.51513
G1 X188.436 Y140.908 E26.54631
G1 X188.304 Y141.837 E26.57752
G1 X188.093 Y142.751 E26.60872
G1 X187.805 Y143.643 E26.6399
G1 X187.442 Y144.508 E26.6711
G1 X187.006 Y145.339 E26.70231
G1 X186.502 Y146.129 E26.73348
G1 X185.931 Y146.874 E26.7647
G1 X185.3 Y147.567 E26.79587
G1 X184.612 Y148.204 E26.82705
G1 X183.872 Y148.781 E26.85826
G1 X183.085 Y149.292 E26.88947
G1 X182.258 Y149.734 E26.92066
G1 X181.397 Y150.104 E26.95183
G1 X180.506 Y150.399 E26.98305
G1 X179.594 Y150.618 E27.01424
G1 X178.667 Y150.758 E27.04543
G1 X177.799 Y150.817 E27.07436
G1 X177.17 Y150.83 E27.09529
G1 X61.93 Y150.83 E30.92818
G1 X58.029 Y150.828 E31.05793
G1 X57.368 Y150.819 E31.07992
G1 X56.432 Y150.766 E31.1111
G1 X55.503 Y150.634 E31.14231
G1 X54.59 Y150.423 E31.17348
G1 X53.697 Y150.135 E31.20468
G1 X52.832 Y149.772 E31.23589
G1 X52.001 Y149.337 E31.26708
G1 X51.211 Y148.832 E31.29827
G1 X50.466 Y148.262 E31.32947
G1 X49.773 Y147.631 E31.36064
G1 X49.135 Y146.943 E31.39185
G1 X48.559 Y146.203 E31.42304
G1 X48.048 Y145.416 E31.45425
G1 X47.606 Y144.589 E31.48543
G1 X47.235 Y143.728 E31.51662
G1 X46.94 Y142.837 E31.54783
G1 X46.721 Y141.925 E31.57903
G1 X46.581 Y140.998 E31.61021
G1 X46.534 Y140.405 E31.63
G1 X46.516 Y140.067 E31.64125
G1 X46.5 Y139.482 E31.66072
G1 X46.501 Y135.804 E31.78305
G1 X46.515 Y134.947 E31.81156
G1 X46.533 Y134.403 E31.82966
G1 X46.574 Y133.462 E31.86099
G1 X46.603 Y132.955 E31.87788
G1 X46.628 Y132.612 E31.88932
G1 X46.695 Y131.856 E31.91456
G1 X46.735 Y131.477 E31.92724
G1 X46.791 Y131.024 E31.94242
G1 X46.838 Y130.688 E31.9537
G1 X46.93 Y130.095 E31.97366
G1 X46.994 Y129.723 E31.98622
G1 X47.114 Y129.093 E32.00755
G1 X47.25 Y128.475 E32.02859
