;FLAVOR:Marlin
;TIME:10081
;Filament used: 7.01992m
;Layer height: 0.2
;MINX:39
;MINY:89.5
;MINZ:0.2
;MAXX:181
;MAXY:130.5
;MAXZ:44.4
;Generated with Cura_SteamEngine 4.8.0
M140 S60
M105
M190 S60
M104 S205
M105
M109 S205
M82 ;absolute extrusion mode
; Ender 3 Custom Start G-code
G92 E0 ; Reset Extruder
G28 ; Home all axes
G1 Z2.0 F3000 ; Move Z Axis up little to prevent scratching of Heat Bed
G1 X0.1 Y20 Z0.3 F5000.0 ; Move to start position
G1 X0.1 Y200.0 Z0.3 F1500.0 E15 ; Draw the first line
G1 X0.4 Y200.0 Z0.3 F5000.0 ; Move to side a little
G1 X0.4 Y20 Z0.3 F1500.0 E30 ; Draw the second line
G92 E0 ; Reset Extruder
G1 Z2.0 F3000 ; Move Z Axis up little to prevent scratching of Heat Bed
G1 X5 Y20 Z0.3 F5000.0 ; Move over to prevent blob squish
G92 E0
G92 E0
G1 F2400 E-6.5
;LAYER_COUNT:223
;LAYER:0
M107
G0 F6000 X45.239 Y90.597 Z0.2
;TYPE:SKIRT
G1 F2400 E0
G1 F1200 X46.101 Y90.227 E0.0312
G1 X46.991 Y89.931 E0.0624
G1 X47.903 Y89.713 E0.09358
G1 X48.83 Y89.572 E0.12477
G1 X49.701 Y89.513 E0.15381
G1 X50.022 Y89.504 E0.16449
G1 X50.33 Y89.5 E0.17473
G1 X169.293 Y89.5 E4.13146
G1 X170.149 Y89.511 E4.15993
G1 X171.085 Y89.565 E4.19111
G1 X172.013 Y89.697 E4.22229
G1 X172.927 Y89.909 E4.2535
G1 X173.819 Y90.198 E4.28468
G1 X174.684 Y90.561 E4.31588
G1 X175.514 Y90.997 E4.34707
G1 X176.305 Y91.502 E4.37828
G1 X177.049 Y92.073 E4.40947
G1 X177.742 Y92.705 E4.44067
G1 X178.379 Y93.393 E4.47185
G1 X178.954 Y94.134 E4.50305
G1 X179.465 Y94.92 E4.53423
G1 X179.907 Y95.748 E4.56545
G1 X180.276 Y96.61 E4.59663
G1 X180.571 Y97.5 E4.62782
G1 X180.789 Y98.412 E4.65901
G1 X180.929 Y99.34 E4.69022
G1 X180.987 Y100.201 E4.71892
G1 X180.996 Y100.521 E4.72957
G1 X181 Y100.83 E4.73985
G1 X181 Y108.208 E4.98524
G1 X180.99 Y109.988 E5.04445
G1 X180.987 Y118.964 E5.34299
G1 X180.977 Y119.651 E5.36584
G1 X180.923 Y120.587 E5.39703
G1 X180.79 Y121.516 E5.42824
G1 X180.578 Y122.429 E5.45941
G1 X180.289 Y123.322 E5.49063
G1 X179.926 Y124.186 E5.5218
G1 X179.49 Y125.016 E5.55298
G1 X178.984 Y125.807 E5.58422
G1 X178.414 Y126.551 E5.61539
G1 X177.782 Y127.244 E5.64658
G1 X177.093 Y127.88 E5.67777
G1 X176.352 Y128.456 E5.70899
G1 X175.565 Y128.966 E5.74018
G1 X174.738 Y129.408 E5.77137
G1 X173.876 Y129.777 E5.80255
G1 X172.986 Y130.072 E5.83374
G1 X172.073 Y130.29 E5.86496
G1 X171.146 Y130.429 E5.89613
G1 X170.282 Y130.487 E5.92494
G1 X169.957 Y130.496 E5.93575
G1 X169.653 Y130.5 E5.94586
G1 X50.575 Y130.499 E9.90641
G1 X49.877 Y130.49 E9.92963
G1 X48.941 Y130.438 E9.96081
G1 X48.012 Y130.306 E9.99202
G1 X47.098 Y130.096 E10.02321
G1 X46.205 Y129.809 E10.05441
G1 X45.34 Y129.446 E10.08561
G1 X44.509 Y129.012 E10.11679
G1 X43.718 Y128.508 E10.14799
G1 X42.973 Y127.938 E10.17918
G1 X42.279 Y127.307 E10.21038
G1 X41.642 Y126.62 E10.24154
G1 X41.065 Y125.88 E10.27275
G1 X40.553 Y125.094 E10.30395
G1 X40.11 Y124.267 E10.33516
G1 X39.739 Y123.406 E10.36634
G1 X39.443 Y122.516 E10.39753
G1 X39.224 Y121.604 E10.42873
G1 X39.083 Y120.677 E10.45992
G1 X39.023 Y119.771 E10.49012
G1 X39.014 Y119.417 E10.50189
G1 X39.01 Y119.136 E10.51124
G1 X39.011 Y109.971 E10.81607
G1 X39 Y108.123 E10.87754
G1 X39.001 Y101.025 E11.11362
G1 X39.01 Y100.36 E11.13574
G1 X39.063 Y99.424 E11.16692
G1 X39.195 Y98.495 E11.19813
G1 X39.406 Y97.581 E11.22933
G1 X39.694 Y96.689 E11.2605
G1 X40.057 Y95.824 E11.2917
G1 X40.492 Y94.993 E11.3229
G1 X40.996 Y94.203 E11.35407
G1 X41.566 Y93.458 E11.38527
G1 X42.198 Y92.764 E11.41649
G1 X42.886 Y92.127 E11.44767
G1 X43.626 Y91.551 E11.47886
G1 X44.412 Y91.039 E11.51006
G1 X45.239 Y90.597 E11.54125
G0 F6000 X45.611 Y90.864
G1 F1200 X46.465 Y90.519 E11.57188
G1 X47.345 Y90.249 E11.6025
G1 X48.245 Y90.057 E11.63311
G1 X49.159 Y89.943 E11.66374
G1 X49.712 Y89.913 E11.68216
G1 X50.033 Y89.904 E11.69284
G1 X50.33 Y89.9 E11.70272
G1 X169.293 Y89.9 E15.65945
G1 X170.143 Y89.911 E15.68772
G1 X171.062 Y89.964 E15.71834
G1 X171.973 Y90.097 E15.74896
G1 X172.869 Y90.308 E15.77958
G1 X173.743 Y90.596 E15.81018
G1 X174.59 Y90.959 E15.84083
G1 X175.401 Y91.394 E15.87144
G1 X176.171 Y91.898 E15.90205
G1 X176.895 Y92.467 E15.93268
G1 X177.567 Y93.097 E15.96331
G1 X178.182 Y93.782 E15.99393
G1 X178.735 Y94.518 E16.02455
G1 X179.222 Y95.299 E16.05516
G1 X179.639 Y96.12 E16.08579
G1 X179.984 Y96.974 E16.11642
G1 X180.253 Y97.854 E16.14703
G1 X180.445 Y98.755 E16.17767
G1 X180.558 Y99.668 E16.20827
G1 X180.587 Y100.212 E16.22639
G1 X180.596 Y100.532 E16.23704
G1 X180.6 Y100.83 E16.24695
G1 X180.6 Y108.206 E16.49228
G1 X180.59 Y109.986 E16.55148
G1 X180.587 Y118.958 E16.84989
G1 X180.577 Y119.645 E16.87274
G1 X180.524 Y120.564 E16.90336
G1 X180.391 Y121.475 E16.93398
G1 X180.179 Y122.371 E16.9646
G1 X179.891 Y123.246 E16.99524
G1 X179.528 Y124.092 E17.02586
G1 X179.092 Y124.903 E17.05649
G1 X178.588 Y125.673 E17.08709
G1 X178.019 Y126.397 E17.11772
G1 X177.39 Y127.069 E17.14834
G1 X176.704 Y127.684 E17.17898
G1 X175.968 Y128.236 E17.20958
G1 X175.187 Y128.723 E17.24019
G1 X174.366 Y129.14 E17.27082
G1 X173.512 Y129.485 E17.30145
G1 X172.632 Y129.753 E17.33205
G1 X171.731 Y129.945 E17.36269
G1 X170.817 Y130.058 E17.39332
G1 X170.271 Y130.087 E17.4115
G1 X169.946 Y130.096 E17.42232
G1 X169.653 Y130.1 E17.43206
G1 X50.58 Y130.099 E21.39245
G1 X49.882 Y130.09 E21.41567
G1 X48.963 Y130.038 E21.44628
G1 X48.052 Y129.907 E21.47689
G1 X47.156 Y129.697 E21.5075
G1 X46.281 Y129.41 E21.53813
G1 X45.434 Y129.048 E21.56877
G1 X44.622 Y128.614 E21.59939
G1 X43.851 Y128.112 E21.62999
G1 X43.126 Y127.544 E21.66062
G1 X42.453 Y126.915 E21.69126
G1 X41.838 Y126.231 E21.72185
G1 X41.284 Y125.496 E21.75247
G1 X40.796 Y124.715 E21.7831
G1 X40.377 Y123.895 E21.81372
G1 X40.031 Y123.042 E21.84434
G1 X39.761 Y122.162 E21.87496
G1 X39.568 Y121.261 E21.9056
G1 X39.454 Y120.348 E21.93621
G1 X39.422 Y119.76 E21.95579
G1 X39.413 Y119.406 E21.96757
G1 X39.41 Y119.136 E21.97655
G1 X39.411 Y109.971 E22.28138
G1 X39.4 Y108.121 E22.34291
G1 X39.401 Y101.031 E22.57873
G1 X39.41 Y100.366 E22.60085
G1 X39.462 Y99.446 E22.63149
G1 X39.594 Y98.535 E22.66211
G1 X39.805 Y97.639 E22.69273
G1 X40.092 Y96.764 E22.72335
G1 X40.455 Y95.918 E22.75397
G1 X40.889 Y95.106 E22.7846
G1 X41.392 Y94.335 E22.81521
G1 X41.961 Y93.611 E22.84584
G1 X42.589 Y92.939 E22.87643
G1 X43.274 Y92.323 E22.90707
G1 X44.01 Y91.77 E22.93769
G1 X44.791 Y91.282 E22.96832
G1 X45.611 Y90.864 E22.99894
G0 F6000 X45.982 Y91.138
G1 F1200 X46.827 Y90.818 E23.02899
G1 X47.696 Y90.575 E23.059
G1 X48.584 Y90.409 E23.08905
G1 X49.723 Y90.313 E23.12706
G1 X50.044 Y90.304 E23.13775
G1 X50.33 Y90.3 E23.14726
G1 X169.293 Y90.3 E27.10398
G1 X170.137 Y90.311 E27.13206
G1 X171.039 Y90.364 E27.16211
G1 X171.932 Y90.496 E27.19213
G1 X172.81 Y90.707 E27.22217
G1 X173.666 Y90.995 E27.25221
G1 X174.493 Y91.357 E27.28223
G1 X175.285 Y91.792 E27.31229
G1 X176.036 Y92.294 E27.34233
G1 X176.739 Y92.861 E27.37237
G1 X177.389 Y93.488 E27.40241
G1 X177.981 Y94.17 E27.43245
G1 X178.511 Y94.901 E27.46248
G1 X178.973 Y95.677 E27.49251
G1 X179.366 Y96.49 E27.52255
G1 X179.684 Y97.335 E27.55258
G1 X179.927 Y98.205 E27.58262
G1 X180.092 Y99.093 E27.61266
G1 X180.187 Y100.223 E27.65038
G1 X180.196 Y100.543 E27.66103
G1 X180.2 Y100.83 E27.67057
G1 X180.2 Y108.203 E27.9158
G1 X180.19 Y109.983 E27.975
G1 X180.187 Y118.952 E28.27331
G1 X180.177 Y119.639 E28.29617
G1 X180.124 Y120.541 E28.32622
G1 X179.991 Y121.434 E28.35625
G1 X179.78 Y122.312 E28.38628
G1 X179.492 Y123.168 E28.41632
G1 X179.129 Y123.995 E28.44636
G1 X178.695 Y124.787 E28.4764
G1 X178.193 Y125.538 E28.50644
G1 X177.625 Y126.241 E28.5365
G1 X176.999 Y126.89 E28.56649
G1 X176.316 Y127.482 E28.59656
G1 X175.585 Y128.012 E28.62659
G1 X174.809 Y128.474 E28.65662
G1 X173.996 Y128.866 E28.68664
G1 X173.151 Y129.185 E28.71668
G1 X172.281 Y129.428 E28.74673
G1 X171.393 Y129.592 E28.77676
G1 X170.26 Y129.687 E28.81458
G1 X169.935 Y129.696 E28.82539
G1 X169.653 Y129.7 E28.83477
G1 X50.585 Y129.699 E32.79499
G1 X49.887 Y129.69 E32.81821
G1 X48.986 Y129.639 E32.84822
G1 X48.092 Y129.507 E32.87828
G1 X47.214 Y129.298 E32.9083
G1 X46.357 Y129.011 E32.93836
G1 X45.53 Y128.65 E32.96837
G1 X44.737 Y128.217 E32.99842
G1 X43.986 Y127.716 E33.02845
G1 X43.282 Y127.15 E33.05849
G1 X42.631 Y126.524 E33.08853
G1 X42.038 Y125.843 E33.11857
G1 X41.508 Y125.112 E33.1486
G1 X41.044 Y124.337 E33.17864
G1 X40.65 Y123.524 E33.20869
G1 X40.33 Y122.68 E33.23871
G1 X40.086 Y121.81 E33.26876
G1 X39.92 Y120.922 E33.29881
G1 X39.822 Y119.75 E33.33793
G1 X39.813 Y119.396 E33.3497
G1 X39.81 Y119.136 E33.35835
G1 X39.811 Y109.971 E33.66318
G1 X39.8 Y108.119 E33.72478
G1 X39.801 Y101.036 E33.96036
G1 X39.81 Y100.371 E33.98248
G1 X39.862 Y99.469 E34.01253
G1 X39.994 Y98.576 E34.04256
G1 X40.204 Y97.698 E34.07258
G1 X40.491 Y96.841 E34.10264
G1 X40.853 Y96.014 E34.13267
G1 X41.286 Y95.222 E34.16269
G1 X41.788 Y94.471 E34.19274
G1 X42.355 Y93.767 E34.2228
G1 X42.981 Y93.117 E34.25282
G1 X43.662 Y92.524 E34.28285
G1 X44.394 Y91.994 E34.31291
G1 X45.169 Y91.531 E34.34293
G1 X45.982 Y91.138 E34.37297
G1 F2400 E27.87297
;MESH:Wheel Cover 1.stl
G0 F6000 X69.824 Y111.878
G0 X68.526 Y111.198
G0 X68.627 Y113.08
G0 X68.834 Y113.631
G0 X69.17 Y114.118
G0 X69.61 Y114.508
G0 X70.131 Y114.782
G0 X70.593 Y114.895
G0 X71.921 Y114.936
;TYPE:WALL-INNER
G1 F2400 E34.37297
G1 F1200 X72.477 Y114.645 E34.39384
G1 X72.949 Y114.228 E34.41479
G1 X73.305 Y113.711 E34.43567
G1 X73.528 Y113.125 E34.45652
G1 X73.604 Y112.501 E34.47743
G1 X73.53 Y111.879 E34.49826
G1 X73.309 Y111.295 E34.51903
G1 X72.954 Y110.778 E34.53989
G1 X72.477 Y110.355 E34.56109
G1 X71.923 Y110.065 E34.58189
G1 X71.318 Y109.916 E34.60261
G1 X70.691 Y109.914 E34.62347
G1 X70.081 Y110.062 E34.64435
G1 X69.524 Y110.354 E34.66526
G1 X69.085 Y110.743 E34.68477
G1 X69.027 Y110.806 E34.68762
G1 X68.696 Y111.287 E34.70704
G1 X68.472 Y111.873 E34.72791
G1 X68.397 Y112.496 E34.74878
G1 X68.469 Y113.119 E34.76964
G1 X68.691 Y113.707 E34.79054
G1 X69.048 Y114.225 E34.81146
G1 X69.518 Y114.641 E34.83234
G1 X70.074 Y114.934 E34.85324
G1 X70.683 Y115.084 E34.8741
G1 X71.311 Y115.086 E34.89499
G1 X71.921 Y114.936 E34.91589
G0 F6000 X71.778 Y114.559
;TYPE:WALL-OUTER
G1 F1200 X72.249 Y114.313 E34.93356
G1 X72.647 Y113.961 E34.95123
G1 X72.948 Y113.524 E34.96888
G1 X73.137 Y113.028 E34.98653
G1 X73.201 Y112.5 E35.00422
G1 X73.139 Y111.975 E35.02181
G1 X72.952 Y111.482 E35.03934
G1 X72.652 Y111.045 E35.05697
G1 X72.248 Y110.687 E35.07493
G1 X71.78 Y110.442 E35.0925
G1 X71.269 Y110.316 E35.11
G1 X70.738 Y110.314 E35.12766
G1 X70.223 Y110.439 E35.14529
G1 X69.753 Y110.686 E35.16295
G1 X69.365 Y111.029 E35.18017
G1 X69.34 Y111.056 E35.1814
G1 X69.053 Y111.474 E35.19826
G1 X68.863 Y111.97 E35.21593
G1 X68.8 Y112.497 E35.23358
G1 X68.861 Y113.024 E35.25123
G1 X69.048 Y113.52 E35.26886
G1 X69.35 Y113.958 E35.28655
G1 X69.747 Y114.31 E35.3042
G1 X70.217 Y114.557 E35.32186
G1 X70.732 Y114.684 E35.3395
G1 X71.263 Y114.686 E35.35716
G1 X71.778 Y114.559 E35.3748
G0 F6000 X71.933 Y114.97
G1 F2400 E28.8748
G0 F6000 X73.093 Y114.355
G0 X71.998 Y113.381
G0 X95.912 Y113.379
G0 X97.998 Y113.381
G0 X121.911 Y113.378
G0 X123.998 Y113.381
G0 X147.999 Y113.378
G0 X146.904 Y114.352
G0 X148.074 Y114.934
;TYPE:WALL-INNER
G1 F2400 E35.3748
G1 F1200 X148.683 Y115.084 E35.39566
G1 X149.311 Y115.086 E35.41655
G1 X149.921 Y114.936 E35.43745
G1 X150.477 Y114.645 E35.45832
G1 X150.949 Y114.228 E35.47927
G1 X151.305 Y113.711 E35.50014
G1 X151.528 Y113.125 E35.521
G1 X151.604 Y112.501 E35.5419
G1 X151.53 Y111.879 E35.56274
G1 X151.309 Y111.295 E35.58351
G1 X150.954 Y110.778 E35.60437
G1 X150.477 Y110.355 E35.62557
G1 X149.923 Y110.065 E35.64637
G1 X149.318 Y109.916 E35.66709
G1 X148.691 Y109.914 E35.68795
G1 X148.081 Y110.062 E35.70882
G1 X147.524 Y110.354 E35.72974
G1 X147.085 Y110.743 E35.74925
G1 X147.027 Y110.806 E35.7521
G1 X146.696 Y111.287 E35.77152
G1 X146.472 Y111.873 E35.79238
G1 X146.397 Y112.496 E35.81325
G1 X146.469 Y113.119 E35.83411
G1 X146.691 Y113.707 E35.85502
G1 X147.048 Y114.225 E35.87594
G1 X147.518 Y114.641 E35.89682
G1 X148.074 Y114.934 E35.91772
G0 F6000 X148.217 Y114.557
;TYPE:WALL-OUTER
G1 F1200 X148.732 Y114.684 E35.93536
G1 X149.263 Y114.686 E35.95302
G1 X149.778 Y114.559 E35.97067
G1 X150.249 Y114.313 E35.98834
G1 X150.647 Y113.961 E36.00601
G1 X150.948 Y113.524 E36.02366
G1 X151.137 Y113.028 E36.04132
G1 X151.201 Y112.5 E36.05901
G1 X151.139 Y111.975 E36.07659
G1 X150.952 Y111.482 E36.09413
G1 X150.652 Y111.045 E36.11176
G1 X150.248 Y110.687 E36.12971
G1 X149.78 Y110.442 E36.14728
G1 X149.269 Y110.316 E36.16478
G1 X148.738 Y110.314 E36.18244
G1 X148.223 Y110.439 E36.20007
G1 X147.753 Y110.686 E36.21773
G1 X147.365 Y111.029 E36.23496
G1 X147.34 Y111.056 E36.23618
G1 X147.053 Y111.474 E36.25304
G1 X146.863 Y111.97 E36.27071
G1 X146.8 Y112.497 E36.28836
G1 X146.861 Y113.024 E36.30601
G1 X147.048 Y113.52 E36.32364
G1 X147.35 Y113.958 E36.34133
G1 X147.747 Y114.31 E36.35898
G1 X148.217 Y114.557 E36.37664
G0 F6000 X148.061 Y114.968
G1 F2400 E29.87664
G0 F6000 X146.904 Y114.352
G0 X147.999 Y113.378
G0 X123.998 Y113.381
G0 X125.093 Y114.355
G0 X124.396 Y114.597
G0 X122.683 Y115.084
;TYPE:WALL-INNER
G1 F2400 E36.37664
G1 F1200 X123.311 Y115.086 E36.39753
G1 X123.921 Y114.936 E36.41842
G1 X124.477 Y114.645 E36.43929
G1 X124.949 Y114.228 E36.46024
G1 X125.305 Y113.711 E36.48112
G1 X125.528 Y113.125 E36.50197
G1 X125.604 Y112.501 E36.52288
G1 X125.53 Y111.879 E36.54371
G1 X125.309 Y111.295 E36.56448
G1 X124.954 Y110.778 E36.58534
G1 X124.477 Y110.355 E36.60655
G1 X123.923 Y110.065 E36.62734
G1 X123.318 Y109.916 E36.64807
G1 X122.691 Y109.914 E36.66892
G1 X122.081 Y110.062 E36.6898
G1 X121.524 Y110.354 E36.71072
G1 X121.085 Y110.743 E36.73022
G1 X121.027 Y110.806 E36.73307
G1 X120.696 Y111.287 E36.75249
G1 X120.472 Y111.873 E36.77336
G1 X120.397 Y112.496 E36.79423
G1 X120.469 Y113.119 E36.81509
G1 X120.691 Y113.707 E36.83599
G1 X121.048 Y114.225 E36.85692
G1 X121.518 Y114.641 E36.87779
G1 X122.074 Y114.934 E36.8987
G1 X122.683 Y115.084 E36.91956
G0 F6000 X122.732 Y114.684
;TYPE:WALL-OUTER
G1 F1200 X123.263 Y114.686 E36.93722
G1 X123.778 Y114.559 E36.95486
G1 X124.249 Y114.313 E36.97253
G1 X124.647 Y113.961 E36.99021
G1 X124.948 Y113.524 E37.00785
G1 X125.137 Y113.028 E37.02551
G1 X125.201 Y112.5 E37.0432
G1 X125.139 Y111.975 E37.06078
G1 X124.952 Y111.482 E37.07832
G1 X124.652 Y111.045 E37.09595
G1 X124.248 Y110.687 E37.1139
G1 X123.78 Y110.442 E37.13147
G1 X123.269 Y110.316 E37.14898
G1 X122.738 Y110.314 E37.16664
G1 X122.223 Y110.439 E37.18427
G1 X121.753 Y110.686 E37.20192
G1 X121.365 Y111.029 E37.21915
G1 X121.34 Y111.056 E37.22037
G1 X121.053 Y111.474 E37.23724
G1 X120.863 Y111.97 E37.2549
G1 X120.8 Y112.497 E37.27256
G1 X120.861 Y113.024 E37.2902
G1 X121.048 Y113.52 E37.30783
G1 X121.35 Y113.958 E37.32553
G1 X121.747 Y114.31 E37.34317
G1 X122.217 Y114.557 E37.36083
G1 X122.732 Y114.684 E37.37848
G0 F6000 X122.679 Y115.12
G1 F2400 E30.87848
G0 F6000 X120.904 Y114.352
G0 X121.999 Y113.378
G0 X97.998 Y113.381
G0 X99.093 Y114.355
G0 X97.311 Y115.086
;TYPE:WALL-INNER
G1 F2400 E37.37848
G1 F1200 X97.921 Y114.936 E37.39937
G1 X98.477 Y114.645 E37.42024
G1 X98.949 Y114.228 E37.44119
G1 X99.305 Y113.711 E37.46207
G1 X99.528 Y113.125 E37.48292
G1 X99.604 Y112.501 E37.50383
G1 X99.53 Y111.879 E37.52466
G1 X99.309 Y111.295 E37.54543
G1 X98.954 Y110.778 E37.56629
G1 X98.477 Y110.355 E37.58749
G1 X97.923 Y110.065 E37.60829
G1 X97.318 Y109.916 E37.62902
G1 X96.691 Y109.914 E37.64987
G1 X96.081 Y110.062 E37.67075
G1 X95.524 Y110.354 E37.69166
G1 X95.085 Y110.743 E37.71117
G1 X95.027 Y110.806 E37.71402
G1 X94.696 Y111.287 E37.73344
G1 X94.472 Y111.873 E37.75431
G1 X94.397 Y112.496 E37.77518
G1 X94.469 Y113.119 E37.79604
G1 X94.691 Y113.707 E37.81694
G1 X95.048 Y114.225 E37.83787
G1 X95.518 Y114.641 E37.85874
G1 X96.074 Y114.934 E37.87964
G1 X96.683 Y115.084 E37.90051
G1 X97.311 Y115.086 E37.92139
G0 F6000 X97.263 Y114.686
;TYPE:WALL-OUTER
G1 F1200 X97.778 Y114.559 E37.93904
G1 X98.249 Y114.313 E37.95671
G1 X98.647 Y113.961 E37.97438
G1 X98.948 Y113.524 E37.99203
G1 X99.137 Y113.028 E38.00968
G1 X99.201 Y112.5 E38.02737
